;FLAVOR:Marlin
;TIME:951
;Filament used: 0.702243m
;Layer height: 0.2
;Generated with Cura_SteamEngine 3.4.1
M190 S60
M104 S235
M109 S235
M82 ;absolute extrusion mode
G21 ;metric values
G90 ;absolute positioning
M82 ;set extruder to absolute mode
M107 ;start with the fan off
G28 X0 Y0 ;move X/Y to min endstops
G28 Z0 ;move Z to min endstops
G1 Z15.0 F9000 ;move the platform down 15mm
G92 E0 ;zero the extruded length
G1 F200 E3 ;extrude 3mm of feed stock
G92 E0 ;zero the extruded length again
G1 F9000
;Put printing message on LCD screen
M117 Printing...
G92 E0
G1 F1500 E-6.5
;LAYER_COUNT:75
;LAYER:0
M107
G0 F3600 X87.123 Y86.849 Z0.3
;TYPE:SKIRT
G1 F1500 E0
G1 F1050 X87.722 Y86.334 E0.03941
G1 X88.37 Y85.883 E0.0788
G1 X89.061 Y85.499 E0.11824
G1 X89.786 Y85.187 E0.15762
G1 X90.539 Y84.95 E0.197
G1 X91.313 Y84.791 E0.23642
G1 X92.098 Y84.71 E0.27579
G1 X92.5 Y84.7 E0.29586
G1 X107.5 Y84.7 E1.04421
G1 X108.289 Y84.74 E1.08362
G1 X109.069 Y84.859 E1.12299
G1 X109.834 Y85.057 E1.16241
G1 X110.574 Y85.331 E1.20178
G1 X111.283 Y85.679 E1.24118
G1 X111.954 Y86.097 E1.28062
G1 X112.578 Y86.58 E1.31999
G1 X113.151 Y87.123 E1.35938
G1 X113.666 Y87.722 E1.39879
G1 X114.117 Y88.37 E1.43817
G1 X114.501 Y89.061 E1.47761
G1 X114.813 Y89.786 E1.51699
G1 X115.05 Y90.539 E1.55638
G1 X115.209 Y91.313 E1.5958
G1 X115.29 Y92.098 E1.63517
G1 X115.3 Y92.5 E1.65523
G1 X115.3 Y107.5 E2.40358
G1 X115.26 Y108.289 E2.443
G1 X115.141 Y109.069 E2.48236
G1 X114.943 Y109.834 E2.52179
G1 X114.669 Y110.574 E2.56115
G1 X114.321 Y111.283 E2.60056
G1 X113.903 Y111.954 E2.64
G1 X113.42 Y112.578 E2.67937
G1 X112.877 Y113.151 E2.71875
G1 X112.278 Y113.666 E2.75816
G1 X111.63 Y114.117 E2.79755
G1 X110.939 Y114.501 E2.83699
G1 X110.214 Y114.813 E2.87637
G1 X109.461 Y115.05 E2.91575
G1 X108.687 Y115.209 E2.95517
G1 X107.902 Y115.29 E2.99454
G1 X107.5 Y115.3 E3.01461
G1 X92.5 Y115.3 E3.76296
G1 X91.711 Y115.26 E3.80237
G1 X90.931 Y115.141 E3.84174
G1 X90.166 Y114.943 E3.88116
G1 X89.426 Y114.669 E3.92053
G1 X88.717 Y114.321 E3.95993
G1 X88.046 Y113.903 E3.99937
G1 X87.422 Y113.42 E4.03874
G1 X86.849 Y112.877 E4.07813
G1 X86.334 Y112.278 E4.11754
G1 X85.883 Y111.63 E4.15692
G1 X85.499 Y110.939 E4.19636
G1 X85.187 Y110.214 E4.23574
G1 X84.95 Y109.461 E4.27513
G1 X84.791 Y108.687 E4.31455
G1 X84.71 Y107.902 E4.35392
G1 X84.7 Y107.5 E4.37398
G1 X84.7 Y92.5 E5.12233
G1 X84.74 Y91.711 E5.16175
G1 X84.859 Y90.931 E5.20111
G1 X85.057 Y90.166 E5.24054
G1 X85.331 Y89.426 E5.2799
G1 X85.679 Y88.717 E5.31931
G1 X86.097 Y88.046 E5.35875
G1 X86.58 Y87.422 E5.39812
G1 X87.123 Y86.849 E5.4375
G0 F3600 X87.516 Y87.03
G1 F1050 X88.111 Y86.542 E5.47589
G1 X88.753 Y86.119 E5.51425
G1 X89.436 Y85.764 E5.55265
G1 X90.151 Y85.483 E5.59098
G1 X90.893 Y85.277 E5.6294
G1 X91.651 Y85.149 E5.66775
G1 X92.5 Y85.1 E5.71018
G1 X107.5 Y85.1 E6.45853
G1 X108.268 Y85.14 E6.4969
G1 X109.028 Y85.259 E6.53528
G1 X109.771 Y85.457 E6.57364
G1 X110.49 Y85.731 E6.61203
G1 X111.176 Y86.078 E6.65038
G1 X111.823 Y86.494 E6.68876
G1 X112.423 Y86.975 E6.72712
G1 X112.97 Y87.516 E6.7655
G1 X113.458 Y88.111 E6.8039
G1 X113.881 Y88.753 E6.84225
G1 X114.236 Y89.436 E6.88066
G1 X114.517 Y90.151 E6.91898
G1 X114.723 Y90.893 E6.9574
G1 X114.851 Y91.651 E6.99575
G1 X114.9 Y92.5 E7.03818
G1 X114.9 Y107.5 E7.78653
G1 X114.86 Y108.268 E7.8249
G1 X114.741 Y109.028 E7.86328
G1 X114.543 Y109.771 E7.90164
G1 X114.269 Y110.49 E7.94003
G1 X113.922 Y111.176 E7.97838
G1 X113.506 Y111.823 E8.01676
G1 X113.025 Y112.423 E8.05512
G1 X112.484 Y112.97 E8.09351
G1 X111.889 Y113.458 E8.1319
G1 X111.247 Y113.881 E8.17026
G1 X110.564 Y114.236 E8.20866
G1 X109.849 Y114.517 E8.24699
G1 X109.107 Y114.723 E8.28541
G1 X108.349 Y114.851 E8.32376
G1 X107.5 Y114.9 E8.36618
G1 X92.5 Y114.9 E9.11454
G1 X91.732 Y114.86 E9.15291
G1 X90.972 Y114.741 E9.19128
G1 X90.229 Y114.543 E9.22965
G1 X89.51 Y114.269 E9.26803
G1 X88.824 Y113.922 E9.30639
G1 X88.177 Y113.506 E9.34476
G1 X87.577 Y113.025 E9.38313
G1 X87.03 Y112.484 E9.42151
G1 X86.542 Y111.889 E9.4599
G1 X86.119 Y111.247 E9.49826
G1 X85.764 Y110.564 E9.53666
G1 X85.483 Y109.849 E9.57499
G1 X85.277 Y109.107 E9.61341
G1 X85.149 Y108.349 E9.65176
G1 X85.1 Y107.5 E9.69419
G1 X85.1 Y92.5 E10.44254
G1 X85.14 Y91.732 E10.48091
G1 X85.259 Y90.972 E10.51929
G1 X85.457 Y90.229 E10.55765
G1 X85.731 Y89.51 E10.59604
G1 X86.078 Y88.824 E10.63439
G1 X86.494 Y88.177 E10.67277
G1 X86.975 Y87.577 E10.71113
G1 X87.516 Y87.03 E10.74951
G0 F3600 X87.908 Y87.216
G1 F1050 X88.498 Y86.757 E10.78681
G1 X89.134 Y86.362 E10.82416
G1 X89.808 Y86.038 E10.86147
G1 X90.513 Y85.788 E10.89879
G1 X91.241 Y85.614 E10.93613
G1 X91.983 Y85.519 E10.97345
G1 X92.5 Y85.5 E10.99926
G1 X107.5 Y85.5 E11.74762
G1 X108.247 Y85.54 E11.78494
G1 X108.985 Y85.659 E11.82223
G1 X109.707 Y85.857 E11.85958
G1 X110.403 Y86.13 E11.89688
G1 X111.066 Y86.477 E11.93422
G1 X111.689 Y86.892 E11.97156
G1 X112.263 Y87.371 E12.00886
G1 X112.784 Y87.908 E12.04619
G1 X113.243 Y88.498 E12.08348
G1 X113.638 Y89.134 E12.12083
G1 X113.962 Y89.808 E12.15814
G1 X114.212 Y90.513 E12.19546
G1 X114.386 Y91.241 E12.2328
G1 X114.481 Y91.983 E12.27013
G1 X114.5 Y92.5 E12.29594
G1 X114.5 Y107.5 E13.04429
G1 X114.46 Y108.247 E13.08161
G1 X114.341 Y108.985 E13.1189
G1 X114.143 Y109.707 E13.15626
G1 X113.87 Y110.403 E13.19355
G1 X113.523 Y111.066 E13.23089
G1 X113.108 Y111.689 E13.26823
G1 X112.629 Y112.263 E13.30553
G1 X112.092 Y112.784 E13.34286
G1 X111.502 Y113.243 E13.38015
G1 X110.866 Y113.638 E13.41751
G1 X110.192 Y113.962 E13.45482
G1 X109.487 Y114.212 E13.49213
G1 X108.759 Y114.386 E13.52948
G1 X108.017 Y114.481 E13.5668
G1 X107.5 Y114.5 E13.59261
G1 X92.5 Y114.5 E14.34096
G1 X91.753 Y114.46 E14.37828
G1 X91.015 Y114.341 E14.41558
G1 X90.293 Y114.143 E14.45293
G1 X89.597 Y113.87 E14.49023
G1 X88.934 Y113.523 E14.52756
G1 X88.311 Y113.108 E14.56491
G1 X87.737 Y112.629 E14.60221
G1 X87.216 Y112.092 E14.63953
G1 X86.757 Y111.502 E14.67683
G1 X86.362 Y110.866 E14.71418
G1 X86.038 Y110.192 E14.75149
G1 X85.788 Y109.487 E14.78881
G1 X85.614 Y108.759 E14.82615
G1 X85.519 Y108.017 E14.86347
G1 X85.5 Y107.5 E14.88928
G1 X85.5 Y92.5 E15.63764
G1 X85.54 Y91.753 E15.67496
G1 X85.659 Y91.015 E15.71225
G1 X85.857 Y90.293 E15.7496
G1 X86.13 Y89.597 E15.7869
G1 X86.477 Y88.934 E15.82423
G1 X86.892 Y88.311 E15.86158
G1 X87.371 Y87.737 E15.89888
G1 X87.908 Y87.216 E15.93621
G0 F3600 X87.765 Y87.902
G1 F1050 X88.299 Y87.409 E15.97247
G1 X88.884 Y86.979 E16.00869
G1 X89.513 Y86.615 E16.04494
G1 X90.178 Y86.322 E16.0812
G1 X90.871 Y86.104 E16.11744
G1 X91.583 Y85.964 E16.15365
G1 X92.5 Y85.9 E16.19951
G1 X107.5 Y85.9 E16.94786
G1 X108.225 Y85.94 E16.98408
G1 X108.942 Y86.059 E17.02035
G1 X109.641 Y86.257 E17.05659
G1 X110.314 Y86.53 E17.09282
G1 X110.953 Y86.875 E17.12905
G1 X111.55 Y87.289 E17.1653
G1 X112.098 Y87.765 E17.20151
G1 X112.591 Y88.299 E17.23777
G1 X113.021 Y88.884 E17.27399
G1 X113.385 Y89.513 E17.31025
G1 X113.678 Y90.178 E17.3465
G1 X113.896 Y90.871 E17.38275
G1 X114.036 Y91.583 E17.41895
G1 X114.1 Y92.5 E17.46481
G1 X114.1 Y107.5 E18.21316
G1 X114.06 Y108.225 E18.24939
G1 X113.941 Y108.942 E18.28565
G1 X113.743 Y109.641 E18.3219
G1 X113.47 Y110.314 E18.35813
G1 X113.125 Y110.953 E18.39436
G1 X112.711 Y111.55 E18.4306
G1 X112.235 Y112.098 E18.46682
G1 X111.701 Y112.591 E18.50308
G1 X111.116 Y113.021 E18.5393
G1 X110.487 Y113.385 E18.57556
G1 X109.822 Y113.678 E18.61181
G1 X109.129 Y113.896 E18.64805
G1 X108.417 Y114.036 E18.68426
G1 X107.5 Y114.1 E18.73012
G1 X92.5 Y114.1 E19.47847
G1 X91.775 Y114.06 E19.5147
G1 X91.058 Y113.941 E19.55096
G1 X90.359 Y113.743 E19.5872
G1 X89.686 Y113.47 E19.62343
G1 X89.047 Y113.125 E19.65966
G1 X88.45 Y112.711 E19.69591
G1 X87.902 Y112.235 E19.73212
G1 X87.409 Y111.701 E19.76838
G1 X86.979 Y111.116 E19.8046
G1 X86.615 Y110.487 E19.84086
G1 X86.322 Y109.822 E19.87712
G1 X86.104 Y109.129 E19.91336
G1 X85.964 Y108.417 E19.94956
G1 X85.9 Y107.5 E19.99542
G1 X85.9 Y92.5 E20.74378
G1 X85.94 Y91.775 E20.78
G1 X86.059 Y91.058 E20.81626
G1 X86.257 Y90.359 E20.85251
G1 X86.53 Y89.686 E20.88874
G1 X86.875 Y89.047 E20.92497
G1 X87.289 Y88.45 E20.96122
G1 X87.765 Y87.902 E20.99743
G0 F3600 X88.159 Y88.073
G1 F1050 X88.689 Y87.609 E21.03257
G1 X89.268 Y87.209 E21.06768
G1 X89.889 Y86.877 E21.10281
G1 X90.543 Y86.617 E21.13792
G1 X91.223 Y86.433 E21.17307
G1 X91.919 Y86.327 E21.20819
G1 X92.5 Y86.3 E21.23721
G1 X107.5 Y86.3 E21.98556
G1 X108.203 Y86.34 E22.02069
G1 X108.897 Y86.459 E22.05582
G1 X109.572 Y86.657 E22.09092
G1 X110.221 Y86.929 E22.12603
G1 X110.835 Y87.274 E22.16116
G1 X111.406 Y87.685 E22.19626
G1 X111.927 Y88.159 E22.2314
G1 X112.391 Y88.689 E22.26655
G1 X112.791 Y89.268 E22.30166
G1 X113.123 Y89.889 E22.33679
G1 X113.383 Y90.543 E22.3719
G1 X113.567 Y91.223 E22.40704
G1 X113.673 Y91.919 E22.44217
G1 X113.7 Y92.5 E22.47119
G1 X113.7 Y107.5 E23.21954
G1 X113.66 Y108.203 E23.25467
G1 X113.541 Y108.897 E23.2898
G1 X113.343 Y109.572 E23.32489
G1 X113.071 Y110.221 E23.36
G1 X112.726 Y110.835 E23.39514
G1 X112.315 Y111.406 E23.43024
G1 X111.841 Y111.927 E23.46538
G1 X111.311 Y112.391 E23.50052
G1 X110.732 Y112.791 E23.53563
G1 X110.111 Y113.123 E23.57076
G1 X109.457 Y113.383 E23.60587
G1 X108.777 Y113.567 E23.64102
G1 X108.081 Y113.673 E23.67614
G1 X107.5 Y113.7 E23.70516
G1 X92.5 Y113.7 E24.45351
G1 X91.797 Y113.66 E24.48864
G1 X91.103 Y113.541 E24.52377
G1 X90.428 Y113.343 E24.55887
G1 X89.779 Y113.071 E24.59397
G1 X89.165 Y112.726 E24.62911
G1 X88.594 Y112.315 E24.66421
G1 X88.073 Y111.841 E24.69935
G1 X87.609 Y111.311 E24.73449
G1 X87.209 Y110.732 E24.7696
G1 X86.877 Y110.111 E24.80473
G1 X86.617 Y109.457 E24.83985
G1 X86.433 Y108.777 E24.87499
G1 X86.327 Y108.081 E24.91012
G1 X86.3 Y107.5 E24.93913
G1 X86.3 Y92.5 E25.68749
G1 X86.34 Y91.797 E25.72262
G1 X86.459 Y91.103 E25.75775
G1 X86.657 Y90.428 E25.79284
G1 X86.929 Y89.779 E25.82795
G1 X87.274 Y89.165 E25.86308
G1 X87.685 Y88.594 E25.89818
G1 X88.159 Y88.073 E25.93332
G0 F3600 X88.553 Y88.251
G1 F1050 X89.078 Y87.817 E25.96731
G1 X89.65 Y87.448 E26.00127
G1 X90.262 Y87.149 E26.03525
G1 X90.904 Y86.924 E26.06919
G1 X91.569 Y86.775 E26.10319
G1 X92.5 Y86.7 E26.14979
G1 X107.5 Y86.7 E26.89814
G1 X108.18 Y86.74 E26.93212
G1 X108.85 Y86.859 E26.96607
G1 X109.502 Y87.056 E27.00005
G1 X110.126 Y87.328 E27.03402
G1 X110.714 Y87.672 E27.068
G1 X111.258 Y88.082 E27.10199
G1 X111.749 Y88.553 E27.13593
G1 X112.183 Y89.078 E27.16992
G1 X112.552 Y89.65 E27.20388
G1 X112.851 Y90.262 E27.23786
G1 X113.076 Y90.904 E27.2718
G1 X113.225 Y91.569 E27.3058
G1 X113.3 Y92.5 E27.35239
G1 X113.3 Y107.5 E28.10075
G1 X113.26 Y108.18 E28.13473
G1 X113.141 Y108.85 E28.16868
G1 X112.944 Y109.502 E28.20266
G1 X112.672 Y110.126 E28.23662
G1 X112.328 Y110.714 E28.27061
G1 X111.918 Y111.258 E28.30459
G1 X111.447 Y111.749 E28.33854
G1 X110.922 Y112.183 E28.37252
G1 X110.35 Y112.552 E28.40648
G1 X109.738 Y112.851 E28.44046
G1 X109.096 Y113.076 E28.4744
G1 X108.431 Y113.225 E28.5084
G1 X107.5 Y113.3 E28.555
G1 X92.5 Y113.3 E29.30336
G1 X91.82 Y113.26 E29.33734
G1 X91.15 Y113.141 E29.37129
G1 X90.498 Y112.944 E29.40527
G1 X89.874 Y112.672 E29.43923
G1 X89.286 Y112.328 E29.47322
G1 X88.742 Y111.918 E29.5072
G1 X88.251 Y111.447 E29.54115
G1 X87.817 Y110.922 E29.57513
G1 X87.448 Y110.35 E29.60909
G1 X87.149 Y109.738 E29.64307
G1 X86.924 Y109.096 E29.67701
G1 X86.775 Y108.431 E29.71101
G1 X86.7 Y107.5 E29.75761
G1 X86.7 Y92.5 E30.50596
G1 X86.74 Y91.82 E30.53995
G1 X86.859 Y91.15 E30.5739
G1 X87.056 Y90.498 E30.60788
G1 X87.328 Y89.874 E30.64184
G1 X87.672 Y89.286 E30.67582
G1 X88.082 Y88.742 E30.70981
G1 X88.553 Y88.251 E30.74375
G0 F3600 X88.945 Y88.435
G1 F1050 X89.465 Y88.034 E30.77651
G1 X90.029 Y87.698 E30.80927
G1 X90.631 Y87.434 E30.84206
G1 X91.26 Y87.244 E30.87484
G1 X91.907 Y87.133 E30.90759
G1 X92.5 Y87.1 E30.93723
G1 X107.5 Y87.1 E31.68558
G1 X108.156 Y87.14 E31.71837
G1 X108.802 Y87.259 E31.75114
G1 X109.429 Y87.456 E31.78393
G1 X110.027 Y87.728 E31.8167
G1 X110.588 Y88.07 E31.84948
G1 X111.103 Y88.478 E31.88226
G1 X111.565 Y88.945 E31.91503
G1 X111.966 Y89.465 E31.9478
G1 X112.302 Y90.029 E31.98055
G1 X112.566 Y90.631 E32.01334
G1 X112.756 Y91.26 E32.04612
G1 X112.867 Y91.907 E32.07888
G1 X112.9 Y92.5 E32.10851
G1 X112.9 Y107.5 E32.85686
G1 X112.86 Y108.156 E32.88965
G1 X112.741 Y108.802 E32.92242
G1 X112.544 Y109.429 E32.95521
G1 X112.272 Y110.027 E32.98798
G1 X111.93 Y110.588 E33.02076
G1 X111.522 Y111.103 E33.05354
G1 X111.055 Y111.565 E33.08632
G1 X110.535 Y111.966 E33.11908
G1 X109.971 Y112.302 E33.15183
G1 X109.369 Y112.566 E33.18462
G1 X108.74 Y112.756 E33.21741
G1 X108.093 Y112.867 E33.25016
G1 X107.5 Y112.9 E33.27979
G1 X92.5 Y112.9 E34.02814
G1 X91.844 Y112.86 E34.06093
G1 X91.198 Y112.741 E34.0937
G1 X90.571 Y112.544 E34.12649
G1 X89.973 Y112.272 E34.15926
G1 X89.412 Y111.93 E34.19204
G1 X88.897 Y111.522 E34.22482
G1 X88.435 Y111.055 E34.2576
G1 X88.034 Y110.535 E34.29036
G1 X87.698 Y109.971 E34.32311
G1 X87.434 Y109.369 E34.35591
G1 X87.244 Y108.74 E34.38869
G1 X87.133 Y108.093 E34.42144
G1 X87.1 Y107.5 E34.45107
G1 X87.1 Y92.5 E35.19942
G1 X87.14 Y91.844 E35.23221
G1 X87.259 Y91.198 E35.26498
G1 X87.456 Y90.571 E35.29777
G1 X87.728 Y89.973 E35.33055
G1 X88.07 Y89.412 E35.36332
G1 X88.478 Y88.897 E35.3961
G1 X88.945 Y88.435 E35.42888
G0 F3600 X88.873 Y89.059
G1 F1050 X89.336 Y88.629 E35.4604
G1 X89.85 Y88.26 E35.49197
G1 X90.406 Y87.96 E35.52349
G1 X90.995 Y87.732 E35.555
G1 X91.609 Y87.58 E35.58656
G1 X92.5 Y87.5 E35.63119
G1 X107.5 Y87.5 E36.37954
G1 X108.131 Y87.54 E36.41108
G1 X108.752 Y87.659 E36.44263
G1 X109.352 Y87.856 E36.47414
G1 X109.924 Y88.127 E36.50571
G1 X110.456 Y88.467 E36.53721
G1 X110.941 Y88.873 E36.56877
G1 X111.371 Y89.336 E36.60029
G1 X111.74 Y89.85 E36.63186
G1 X112.04 Y90.406 E36.66338
G1 X112.268 Y90.995 E36.69489
G1 X112.42 Y91.609 E36.72645
G1 X112.5 Y92.5 E36.77108
G1 X112.5 Y107.5 E37.51943
G1 X112.46 Y108.131 E37.55098
G1 X112.341 Y108.752 E37.58252
G1 X112.144 Y109.352 E37.61403
G1 X111.873 Y109.924 E37.6456
G1 X111.533 Y110.456 E37.6771
G1 X111.127 Y110.941 E37.70866
G1 X110.664 Y111.371 E37.74018
G1 X110.15 Y111.74 E37.77175
G1 X109.594 Y112.04 E37.80327
G1 X109.005 Y112.268 E37.83478
G1 X108.391 Y112.42 E37.86634
G1 X107.5 Y112.5 E37.91097
G1 X92.5 Y112.5 E38.65932
G1 X91.869 Y112.46 E38.69087
G1 X91.248 Y112.341 E38.72241
G1 X90.648 Y112.144 E38.75392
G1 X90.076 Y111.873 E38.7855
G1 X89.544 Y111.533 E38.81699
G1 X89.059 Y111.127 E38.84855
G1 X88.629 Y110.664 E38.88008
G1 X88.26 Y110.15 E38.91164
G1 X87.96 Y109.594 E38.94316
G1 X87.732 Y109.005 E38.97467
G1 X87.58 Y108.391 E39.00623
G1 X87.5 Y107.5 E39.05086
G1 X87.5 Y92.5 E39.79921
G1 X87.54 Y91.869 E39.83076
G1 X87.659 Y91.248 E39.8623
G1 X87.856 Y90.648 E39.89381
G1 X88.127 Y90.076 E39.92539
G1 X88.467 Y89.544 E39.95689
G1 X88.873 Y89.059 E39.98844
G0 F3600 X89.267 Y89.228
G1 F1050 X89.725 Y88.831 E40.01868
G1 X90.232 Y88.498 E40.04894
G1 X90.778 Y88.234 E40.0792
G1 X91.354 Y88.045 E40.10944
G1 X91.95 Y87.933 E40.1397
G1 X92.5 Y87.9 E40.16719
G1 X107.5 Y87.9 E40.91554
G1 X108.105 Y87.94 E40.94579
G1 X108.699 Y88.059 E40.97601
G1 X109.273 Y88.255 E41.00628
G1 X109.816 Y88.526 E41.03655
G1 X110.319 Y88.865 E41.06681
G1 X110.772 Y89.267 E41.09703
G1 X111.169 Y89.725 E41.12727
G1 X111.502 Y90.232 E41.15753
G1 X111.766 Y90.778 E41.18779
G1 X111.955 Y91.354 E41.21803
G1 X112.067 Y91.95 E41.24829
G1 X112.1 Y92.5 E41.27578
G1 X112.1 Y107.5 E42.02413
G1 X112.06 Y108.105 E42.05438
G1 X111.941 Y108.699 E42.0846
G1 X111.745 Y109.273 E42.11486
G1 X111.474 Y109.816 E42.14514
G1 X111.135 Y110.319 E42.1754
G1 X110.733 Y110.772 E42.20562
G1 X110.275 Y111.169 E42.23586
G1 X109.768 Y111.502 E42.26612
G1 X109.222 Y111.766 E42.29638
G1 X108.646 Y111.955 E42.32662
G1 X108.05 Y112.067 E42.35688
G1 X107.5 Y112.1 E42.38437
G1 X92.5 Y112.1 E43.13272
G1 X91.895 Y112.06 E43.16297
G1 X91.301 Y111.941 E43.19319
G1 X90.727 Y111.745 E43.22345
G1 X90.184 Y111.474 E43.25373
G1 X89.681 Y111.135 E43.28399
G1 X89.228 Y110.733 E43.31421
G1 X88.831 Y110.275 E43.34445
G1 X88.498 Y109.768 E43.37471
