;FLAVOR:Marlin
;TIME:3136
;Filament used: 1.45024m
;Layer height: 0.2
;Generated with Cura_SteamEngine 3.4.1
M190 S60
M104 S235
M109 S235
M82 ;absolute extrusion mode
G21 ;metric values
G90 ;absolute positioning
M82 ;set extruder to absolute mode
M107 ;start with the fan off
G28 X0 Y0 ;move X/Y to min endstops
G28 Z0 ;move Z to min endstops
G1 Z15.0 F9000 ;move the platform down 15mm
G92 E0 ;zero the extruded length
G1 F200 E3 ;extrude 3mm of feed stock
G92 E0 ;zero the extruded length again
G1 F9000
;Put printing message on LCD screen
M117 Printing...
G92 E0
G1 F1500 E-6.5
;LAYER_COUNT:121
;LAYER:0
M107
G0 F3600 X61.4 Y94.4 Z0.3
;TYPE:WALL-INNER
G1 F1500 E0
G1 F1050 X61.4 Y116.1 E1.08262
G1 X66.4 Y116.1 E1.33207
G1 X66.4 Y117.4 E1.39693
G1 X61.1 Y117.4 E1.66134
G1 X61.1 Y116.1 E1.7262
G1 X61.1 Y94.4 E2.53816
G1 X61.1 Y90.011 E2.75713
G1 X61.148 Y89.168 E2.79926
G1 X61.286 Y88.353 E2.8405
G1 X61.513 Y87.564 E2.88146
G1 X61.834 Y86.789 E2.92331
G1 X62.238 Y86.058 E2.96498
G1 X62.713 Y85.387 E3.00599
G1 X63.267 Y84.767 E3.04747
G1 X63.887 Y84.213 E3.08895
G1 X64.558 Y83.738 E3.12997
G1 X65.289 Y83.334 E3.17164
G1 X66.064 Y83.013 E3.21349
G1 X66.474 Y82.897 E3.23475
G1 X66.515 Y82.886 E3.23686
G1 X66.857 Y82.789 E3.2546
G1 X66.892 Y82.779 E3.25642
G1 X66.864 Y82.813
G1 X66.612 Y83.227 E3.2703
G1 X66.599 Y83.267 E3.2723
G1 X66.451 Y83.704 E3.29531
G1 X66.4 Y84.167 E3.31855
G1 X66.4 Y94.4 E3.82908
G1 X61.4 Y94.4 E4.07853
G0 F3600 X61.33 Y94.33
G0 X67.158 Y83.024
G0 X67.512 Y82.666
G0 X67.872 Y82.444
G0 X68.277 Y82.306
G0 X70.313 Y82.261
G0 X70.724 Y82.307
G0 X71.129 Y82.445
G0 X71.489 Y82.667
G0 X71.843 Y83.025
G0 X72.06 Y83.382
G0 X77.228 Y94.772
G0 X77.67 Y116.17
G0 X77.6 Y116.1
G1 F1050 X77.6 Y94.4 E5.16115
G1 X72.6 Y94.4 E5.4106
G1 X72.6 Y84.167 E5.92112
G1 X72.549 Y83.704 E5.94436
G1 X72.389 Y83.228 E5.96942
G1 X72.222 Y82.955 E5.98538
G1 X72.137 Y82.814 E5.9936
G1 X72.042 Y82.701 E6.00096
G1 X71.938 Y82.6 E6.0082
G1 X72.042 Y82.6 E6.00835
G1 X72.137 Y82.6 E6.00921
G1 X72.302 Y82.6 E6.01578
G1 X89.6 Y82.6 E6.87878
G1 X89.6 Y84.4 E6.96858
G1 X81.961 Y84.401 E7.34969
G1 X81.272 Y84.463 E7.3842
G1 X80.594 Y84.646 E7.41924
G1 X79.935 Y84.955 E7.45555
G1 X79.362 Y85.359 E7.49053
G1 X78.865 Y85.854 E7.52553
G1 X78.441 Y86.462 E7.56251
G1 X78.145 Y87.098 E7.5975
G1 X77.964 Y87.773 E7.63237
G1 X77.9 Y88.499 E7.66873
G1 X77.9 Y94.4 E7.96313
G1 X77.9 Y116.1 E8.7751
G1 X77.9 Y117.4 E8.83995
G1 X72.6 Y117.4 E9.10437
G1 X72.6 Y116.1 E9.16923
G1 X77.6 Y116.1 E9.41868
G0 F3600 X77.67 Y116.17
G0 X78.261 Y88.515
G0 X78.32 Y87.837
G0 X78.485 Y87.222
G0 X78.755 Y86.643
G0 X79.143 Y86.087
G0 X79.595 Y85.636
G0 X80.117 Y85.268
G0 X80.719 Y84.986
G0 X89.972 Y82.397
G0 X110.027 Y82.398
G0 X119.281 Y84.986
G0 X119.859 Y85.256
G0 X120.405 Y85.636
G0 X120.858 Y86.088
G0 X121.246 Y86.644
G0 X121.515 Y87.222
G0 X121.998 Y87.626
G0 X122.33 Y94.33
G0 X122.4 Y94.4
G1 F1050 X122.4 Y116.1 E10.5013
G1 X127.4 Y116.1 E10.75075
G1 X127.4 Y117.4 E10.81561
G1 X122.1 Y117.4 E11.08002
G1 X122.1 Y116.1 E11.14488
G1 X122.1 Y94.4 E11.95684
G1 X122.1 Y88.499 E12.25125
G1 X122.037 Y87.774 E12.28755
G1 X121.855 Y87.098 E12.32248
G1 X121.56 Y86.463 E12.35741
G1 X121.136 Y85.855 E12.39439
G1 X120.638 Y85.358 E12.42949
G1 X120.04 Y84.942 E12.46584
G1 X119.406 Y84.646 E12.50074
G1 X118.709 Y84.458 E12.53676
G1 X118.026 Y84.4 E12.57096
G1 X110.4 Y84.4 E12.95142
G1 X110.399 Y82.8 E13.03125
G1 X110.399 Y82.6 E13.04122
G1 X110.599 Y82.6 E13.04768
G1 X127.698 Y82.6 E13.90076
G1 X127.864 Y82.6 E13.90904
G1 X127.959 Y82.6 E13.91378
G1 X128.062 Y82.6 E13.91892
G1 X127.959 Y82.7 E13.92108
G1 X127.864 Y82.813 E13.92508
G1 X127.778 Y82.954 E13.93164
G1 X127.612 Y83.227 E13.94758
G1 X127.451 Y83.704 E13.97269
G1 X127.4 Y84.167 E13.99593
G1 X127.4 Y94.4 E14.50646
G1 X122.4 Y94.4 E14.75591
G0 F3600 X122.33 Y94.33
G0 X128.158 Y83.024
G0 X128.512 Y82.666
G0 X128.872 Y82.444
G0 X129.277 Y82.306
G0 X131.313 Y82.261
G0 X131.724 Y82.307
G0 X132.129 Y82.445
G0 X132.489 Y82.667
G0 X132.843 Y83.025
G0 X133.06 Y83.382
G0 X138.228 Y94.772
G0 X138.67 Y116.17
G0 X138.6 Y116.1
G1 F1050 X138.6 Y94.4 E15.83853
G1 X133.6 Y94.4 E16.08798
G1 X133.6 Y84.167 E16.59851
G1 X133.549 Y83.704 E16.62174
G1 X133.402 Y83.266 E16.64479
G1 X133.389 Y83.228 E16.6468
G1 X133.137 Y82.814 E16.67098
G1 X133.108 Y82.779 E16.67325
G1 X133.143 Y82.789
G1 X133.485 Y82.885 E16.68319
G1 X133.524 Y82.896 E16.68511
G1 X133.936 Y83.013 E16.70648
G1 X134.711 Y83.334 E16.74833
G1 X135.442 Y83.738 E16.79
G1 X136.113 Y84.213 E16.83101
G1 X136.733 Y84.767 E16.87249
G1 X137.287 Y85.387 E16.91398
G1 X137.762 Y86.058 E16.95499
G1 X138.166 Y86.789 E16.99666
G1 X138.487 Y87.564 E17.03851
G1 X138.714 Y88.353 E17.07947
G1 X138.852 Y89.168 E17.12071
G1 X138.9 Y90.011 E17.16284
G1 X138.9 Y94.4 E17.3818
G1 X138.9 Y116.1 E18.19377
G1 X138.9 Y117.4 E18.25862
G1 X133.6 Y117.4 E18.52304
G1 X133.6 Y116.1 E18.5879
G1 X138.6 Y116.1 E18.83735
G0 F3600 X138.2 Y115.7
;TYPE:WALL-OUTER
G1 F1050 X138.2 Y94.8 E19.88006
G1 X133.2 Y94.8 E20.12951
G1 X133.2 Y84.189 E20.65889
G1 X133.156 Y83.791 E20.67887
G1 X133.024 Y83.398 E20.69955
G1 X132.811 Y83.048 E20.71999
G1 X132.749 Y82.974 E20.72481
G1 X132.465 Y82.698 E20.74457
G1 X132.342 Y82.623 E20.75175
G1 X132.202 Y82.537 E20.75995
G1 X132.112 Y82.481 E20.76524
G1 X131.716 Y82.346 E20.78611
G1 X131.476 Y82.319 E20.79816
G1 X131.311 Y82.3 E20.80645
G1 X129.689 Y82.3 E20.88737
G1 X129.285 Y82.345 E20.90765
G1 X128.889 Y82.48 E20.92852
G1 X128.709 Y82.591 E20.93907
G1 X128.536 Y82.697 E20.9492
G1 X128.252 Y82.973 E20.96895
G1 X128.19 Y83.047 E20.97377
G1 X127.977 Y83.397 E20.99421
G1 X127.844 Y83.791 E21.01496
G1 X127.8 Y84.189 E21.03494
G1 X127.8 Y94.8 E21.56432
G1 X122.8 Y94.8 E21.81377
G1 X122.8 Y115.7 E22.85648
G1 X127.8 Y115.7 E23.10593
G1 X127.8 Y117.8 E23.2107
G1 X121.7 Y117.8 E23.51503
G1 X121.7 Y88.516 E24.97601
G1 X121.642 Y87.844 E25.00966
G1 X121.478 Y87.235 E25.04113
G1 X121.212 Y86.663 E25.0726
G1 X120.828 Y86.113 E25.10607
G1 X120.38 Y85.666 E25.13764
G1 X119.84 Y85.29 E25.17047
G1 X119.268 Y85.023 E25.20196
G1 X118.639 Y84.854 E25.23445
G1 X118.009 Y84.8 E25.266
G1 X110 Y84.8 E25.66557
G1 X109.999 Y82.513 E25.77967
G1 X109.999 Y82.426 E25.78401
G1 X90.2 Y82.425 E26.77179
G1 X90 Y82.425 E26.78176
G1 X90 Y82.625 E26.78823
G1 X90 Y84.8 E26.89674
G1 X81.979 Y84.801 E27.29691
G1 X81.343 Y84.858 E27.32876
G1 X80.732 Y85.023 E27.36034
G1 X80.137 Y85.302 E27.39312
G1 X79.62 Y85.666 E27.42467
G1 X79.173 Y86.112 E27.45617
G1 X78.789 Y86.662 E27.48964
G1 X78.522 Y87.235 E27.52118
G1 X78.359 Y87.843 E27.55258
G1 X78.3 Y88.516 E27.58629
G1 X78.3 Y117.8 E29.04727
G1 X72.2 Y117.8 E29.3516
G1 X72.2 Y115.7 E29.45637
G1 X77.2 Y115.7 E29.70582
G1 X77.2 Y94.8 E30.74853
G1 X72.2 Y94.8 E30.99798
G1 X72.2 Y84.189 E31.52736
G1 X72.156 Y83.791 E31.54734
G1 X72.024 Y83.398 E31.56802
G1 X71.811 Y83.048 E31.58846
G1 X71.749 Y82.974 E31.59328
G1 X71.465 Y82.698 E31.61304
G1 X71.291 Y82.591 E31.62323
G1 X71.112 Y82.481 E31.63371
G1 X70.716 Y82.346 E31.65458
G1 X70.311 Y82.3 E31.67492
G1 X68.689 Y82.3 E31.75584
G1 X68.524 Y82.318 E31.76412
G1 X68.285 Y82.345 E31.77612
G1 X67.889 Y82.48 E31.79699
G1 X67.799 Y82.535 E31.80226
G1 X67.655 Y82.623 E31.81068
G1 X67.536 Y82.697 E31.81767
G1 X67.252 Y82.973 E31.83742
G1 X67.19 Y83.047 E31.84224
G1 X66.977 Y83.397 E31.86268
G1 X66.844 Y83.791 E31.88343
G1 X66.8 Y84.189 E31.90341
G1 X66.8 Y94.8 E32.43279
G1 X61.8 Y94.8 E32.68224
G1 X61.8 Y115.7 E33.72495
G1 X66.8 Y115.7 E33.9744
G1 X66.8 Y117.8 E34.07917
G1 X60.7 Y117.8 E34.3835
G1 X60.7 Y90.011 E35.7699
G1 X60.75 Y89.123 E35.81427
G1 X60.896 Y88.263 E35.85779
G1 X61.137 Y87.426 E35.90124
G1 X61.472 Y86.617 E35.94493
G1 X61.896 Y85.85 E35.98865
G1 X62.403 Y85.134 E36.03242
G1 X62.984 Y84.484 E36.07592
G1 X63.634 Y83.903 E36.11941
G1 X64.35 Y83.396 E36.16318
G1 X65.117 Y82.972 E36.2069
G1 X65.926 Y82.637 E36.25059
G1 X66.763 Y82.396 E36.29404
G1 X67.457 Y82.278 E36.32916
G1 X67.623 Y82.25 E36.33688
G1 X67.876 Y82.237 E36.34709
G1 X68.277 Y82.214 E36.35633
G1 X68.511 Y82.2 E36.35986
G1 X68.689 Y82.2 E36.36252
G1 X70.311 Y82.2 E36.38275
G1 X70.716 Y82.2 E36.38895
G1 X71.112 Y82.2 E36.39936
G1 X71.322 Y82.2 E36.40834
G1 X90 Y82.2 E37.34019
G1 X109.999 Y82.2 E38.33794
G1 X110.086 Y82.2 E38.34162
G1 X128.677 Y82.2 E39.26913
G1 X128.889 Y82.2 E39.27818
G1 X129.285 Y82.2 E39.28855
G1 X129.689 Y82.2 E39.2947
G1 X131.311 Y82.2 E39.31493
G1 X131.489 Y82.2 E39.3176
G1 X131.724 Y82.212 E39.32121
G1 X132.126 Y82.235 E39.33063
G1 X132.377 Y82.25 E39.34081
G1 X132.539 Y82.277 E39.34836
G1 X133.237 Y82.396 E39.38369
G1 X134.074 Y82.637 E39.42714
G1 X134.883 Y82.972 E39.47082
G1 X135.65 Y83.396 E39.51455
G1 X136.366 Y83.903 E39.55832
G1 X137.016 Y84.484 E39.60181
G1 X137.597 Y85.134 E39.64531
G1 X138.104 Y85.85 E39.68908
G1 X138.528 Y86.617 E39.7328
G1 X138.863 Y87.426 E39.77649
G1 X139.104 Y88.263 E39.81994
G1 X139.25 Y89.123 E39.86346
G1 X139.3 Y90.011 E39.90783
G1 X139.3 Y117.8 E41.29423
G1 X133.2 Y117.8 E41.59856
G1 X133.2 Y115.7 E41.70333
G1 X138.2 Y115.7 E41.95278
G0 F3600 X138.2 Y115.5
G0 X138.7 Y115.5
G0 X138.661 Y115.855
G0 X138.51 Y116.49
;TYPE:SKIN
G1 F1050 X138.51 Y117.01 E41.97873
G1 X133.99 Y117.01 E42.20423
G1 X133.99 Y116.49 E42.23017
G1 X138.51 Y116.49 E42.45568
G0 F3600 X138.245 Y116.749
G1 F1050 X137.679 Y116.749 E42.4669
G1 X137.114 Y116.749 E42.47811
G1 X136.548 Y116.749 E42.48933
G1 X135.982 Y116.749 E42.50055
G1 X135.417 Y116.749 E42.51176
G1 X134.851 Y116.749 E42.52298
G1 X134.285 Y116.749 E42.53421
G0 F3600 X134.206 Y116.67
G0 X138.228 Y115.728
G0 X138.228 Y94.772
G0 X133.06 Y83.382
G0 X132.778 Y82.947
G0 X132.489 Y82.667
G0 X132.129 Y82.445
G0 X131.724 Y82.307
G0 X129.687 Y82.261
G0 X129.277 Y82.306
G0 X128.872 Y82.444
G0 X128.512 Y82.666
G0 X128.158 Y83.024
G0 X127.941 Y83.381
G0 X122.772 Y94.772
G0 X122.772 Y115.728
G0 X127.01 Y116.49
G1 F1050 X127.01 Y117.01 E42.56015
G1 X122.49 Y117.01 E42.78565
G1 X122.49 Y116.49 E42.8116
G1 X127.01 Y116.49 E43.0371
G0 F3600 X126.366 Y116.749
G1 F1050 X125.8 Y116.749 E43.0484
G1 X125.234 Y116.749 E43.05969
G1 X124.669 Y116.749 E43.07097
G1 X124.103 Y116.749 E43.08226
G1 X123.537 Y116.749 E43.09356
G1 X122.972 Y116.749 E43.10483
G0 F3600 X122.892 Y116.669
G0 X122.372 Y116.128
G0 X122.372 Y94.372
G0 X122.49 Y94.01
G1 F1050 X122.49 Y88.482 E43.38063
G1 X122.423 Y87.706 E43.41948
G1 X122.223 Y86.964 E43.45782
G1 X121.899 Y86.268 E43.49613
G1 X121.436 Y85.603 E43.53655
G1 X120.889 Y85.058 E43.57508
G1 X120.235 Y84.603 E43.61482
G1 X119.54 Y84.278 E43.6531
G1 X118.777 Y84.072 E43.69253
G1 X118.042 Y84.01 E43.72933
G1 X110.79 Y84.01 E44.09113
G1 X110.789 Y82.99 E44.14202
G1 X127.3 Y82.99 E44.96576
G1 X127.257 Y83.061 E44.9699
G1 X127.068 Y83.62 E44.99934
G1 X127.01 Y84.145 E45.02569
G1 X127.01 Y94.01 E45.51786
G1 X122.49 Y94.01 E45.74336
G0 F3600 X126.953 Y83.396
G1 F1050 X126.728 Y83.17 E45.75927
G0 F3600 X126.162 Y83.17
G1 F1050 X126.859 Y83.867 E45.80845
G1 X126.929 Y83.937
G0 F3600 X126.829 Y84.403
G1 F1050 X125.597 Y83.17 E45.89541
G1 X125.527 Y83.1
G0 F3600 X125.031 Y83.17
G1 F1050 X126.829 Y84.968 E46.02227
G1 X126.899 Y85.038
G0 F3600 X126.829 Y85.534
G1 F1050 X124.465 Y83.17 E46.18906
G1 X124.395 Y83.1
G0 F3600 X123.899 Y83.17
G1 F1050 X126.829 Y86.1 E46.39579
G1 X126.899 Y86.17
G0 F3600 X126.829 Y86.665
G1 F1050 X123.334 Y83.17 E46.64238
G1 X123.264 Y83.1
G0 F3600 X122.768 Y83.17
G1 F1050 X126.829 Y87.231 E46.9289
G1 X126.899 Y87.301
G0 F3600 X126.829 Y87.797
G1 F1050 X122.202 Y83.17 E47.25536
G1 X122.132 Y83.1
G0 F3600 X121.637 Y83.17
G1 F1050 X126.829 Y88.362 E47.62169
G1 X126.899 Y88.432
G0 F3600 X126.829 Y88.928
G1 F1050 X121.071 Y83.17 E48.02795
G1 X121.001 Y83.1
G0 F3600 X120.505 Y83.17
G1 F1050 X126.829 Y89.494 E48.47414
G1 X126.899 Y89.564
G0 F3600 X126.829 Y90.059
G1 F1050 X119.94 Y83.17 E48.96019
G1 X119.87 Y83.1
G0 F3600 X119.374 Y83.17
G1 F1050 X126.829 Y90.625 E49.48618
G1 X126.899 Y90.695
G0 F3600 X126.829 Y91.191
G1 F1050 X122.264 Y86.626 E49.80827
G1 X122.194 Y86.556
G0 F3600 X122.546 Y87.474
G1 F1050 X126.829 Y91.757 E50.11046
G1 X126.899 Y91.827
G0 F3600 X126.829 Y92.322
G1 F1050 X122.639 Y88.132 E50.40609
G1 X122.569 Y88.062
G0 F3600 X122.668 Y88.727
G1 F1050 X126.829 Y92.888 E50.69967
G1 X126.899 Y92.958
G0 F3600 X126.829 Y93.454
G1 F1050 X122.668 Y89.293 E50.99325
G1 X122.598 Y89.223
G0 F3600 X122.668 Y89.859
G1 F1050 X126.639 Y93.83 E51.27342
G1 X126.709 Y93.9
G0 F3600 X126.074 Y93.83
G1 F1050 X122.668 Y90.424 E51.51373
G1 X122.598 Y90.354
G0 F3600 X122.668 Y90.99
G1 F1050 X125.508 Y93.83 E51.71411
G1 X125.578 Y93.9
G0 F3600 X124.942 Y93.83
G1 F1050 X122.668 Y91.556 E51.87455
G1 X122.598 Y91.486
G0 F3600 X122.668 Y92.121
G1 F1050 X124.377 Y93.83 E51.99513
G1 X124.447 Y93.9
G0 F3600 X123.811 Y93.83
G1 F1050 X122.668 Y92.687 E52.07578
G1 X122.598 Y92.617
G0 F3600 X122.668 Y93.253
G1 F1050 X123.245 Y93.83 E52.11649
G1 X123.315 Y93.9
G0 F3600 X122.076 Y87.768
G0 X121.892 Y87.085
G0 X121.594 Y86.444
G0 X121.473 Y86.271
G0 X119.872 Y84.234
G1 F1050 X118.808 Y83.17 E52.19156
G1 X118.738 Y83.1
G0 F3600 X118.243 Y83.17
G1 F1050 X119.023 Y83.951 E52.24663
G1 X119.093 Y84.021
G0 F3600 X118.363 Y83.856
G1 F1050 X117.677 Y83.17 E52.29503
G1 X117.607 Y83.1
G0 F3600 X117.111 Y83.17
G1 F1050 X117.771 Y83.83 E52.3416
G1 X117.841 Y83.9
G0 F3600 X117.205 Y83.83
G1 F1050 X116.546 Y83.17 E52.38813
G1 X116.476 Y83.1
G0 F3600 X115.98 Y83.17
G1 F1050 X116.64 Y83.83 E52.43469
G1 X116.71 Y83.9
G0 F3600 X116.074 Y83.83
G1 F1050 X115.414 Y83.17 E52.48126
G1 X115.344 Y83.1
G0 F3600 X114.848 Y83.17
G1 F1050 X115.508 Y83.83 E52.52783
G1 X115.578 Y83.9
G0 F3600 X114.943 Y83.83
G1 F1050 X114.283 Y83.17 E52.57439
G1 X114.213 Y83.1
G0 F3600 X113.717 Y83.17
G1 F1050 X114.377 Y83.83 E52.62096
G1 X114.447 Y83.9
G0 F3600 X113.811 Y83.83
G1 F1050 X113.151 Y83.17 E52.66753
G1 X113.081 Y83.1
G0 F3600 X112.586 Y83.17
G1 F1050 X113.245 Y83.83 E52.71406
G1 X113.315 Y83.9
G0 F3600 X112.68 Y83.83
G1 F1050 X112.02 Y83.17 E52.76062
G1 X111.95 Y83.1
G0 F3600 X111.454 Y83.17
G1 F1050 X112.114 Y83.83 E52.80719
G1 X112.184 Y83.9
G0 F3600 X111.548 Y83.83
G1 F1050 X110.968 Y83.249 E52.84815
G1 X110.898 Y83.179
G0 F3600 X129.687 Y82.261
G0 X131.724 Y82.307
G0 X131.952 Y82.384
G0 X133.859 Y83.405
G1 F1050 X134.549 Y83.691 E52.88541
G1 X135.233 Y84.068 E52.92438
G1 X135.869 Y84.518 E52.96325
G1 X136.457 Y85.043 E53.00257
G1 X136.982 Y85.631 E53.0419
G1 X137.432 Y86.267 E53.08077
G1 X137.808 Y86.947 E53.11954
G1 X138.12 Y87.699 E53.16016
G1 X138.336 Y88.45 E53.19914
G1 X138.462 Y89.201 E53.23713
G1 X138.51 Y90.033 E53.27871
G1 X138.51 Y94.01 E53.47712
G1 X133.99 Y94.01 E53.70263
G1 X133.99 Y84.145 E54.19479
G1 X133.932 Y83.62 E54.22115
G1 X133.859 Y83.405 E54.23247
G0 F3600 X135.128 Y84.216
G1 F1050 X137.284 Y86.372 E54.38459
G1 X137.354 Y86.442
G0 F3600 X137.839 Y87.493
G1 F1050 X134.128 Y83.782 E54.64642
G1 X134.058 Y83.712
G0 F3600 X134.169 Y84.388
G1 F1050 X138.116 Y88.336 E54.92494
G1 X138.186 Y88.406
G0 F3600 X138.251 Y89.036
G1 F1050 X134.169 Y84.954 E55.21295
G1 X134.099 Y84.884
G0 F3600 X134.169 Y85.52
G1 F1050 X138.307 Y89.658 E55.50491
G1 X138.377 Y89.728
G0 F3600 X138.329 Y90.245
G1 F1050 X134.169 Y86.086 E55.79838
G1 X134.099 Y86.016
G0 F3600 X134.169 Y86.651
G1 F1050 X138.329 Y90.811 E56.09189
G1 X138.399 Y90.881
G0 F3600 X138.329 Y91.377
G1 F1050 X134.169 Y87.217 E56.3854
G1 X134.099 Y87.147
G0 F3600 X134.169 Y87.783
G1 F1050 X138.329 Y91.942 E56.67888
G1 X138.399 Y92.012
G0 F3600 X138.329 Y92.508
G1 F1050 X134.169 Y88.348 E56.97239
G1 X134.099 Y88.278
G0 F3600 X134.169 Y88.914
G1 F1050 X138.329 Y93.074 E57.2659
G1 X138.399 Y93.144
G0 F3600 X138.329 Y93.64
G1 F1050 X134.169 Y89.48 E57.55941
G1 X134.099 Y89.41
G0 F3600 X134.169 Y90.045
G1 F1050 X137.952 Y93.829 E57.82635
G1 X138.022 Y93.899
G0 F3600 X137.387 Y93.829
G1 F1050 X134.169 Y90.611 E58.0534
G1 X134.099 Y90.541
G0 F3600 X134.169 Y91.177
G1 F1050 X136.821 Y93.829 E58.24051
G1 X136.891 Y93.899
G0 F3600 X136.255 Y93.829
G1 F1050 X134.169 Y91.742 E58.38773
G1 X134.099 Y91.672
G0 F3600 X134.169 Y92.308
