;FLAVOR:Marlin
;TIME:7056
;Filament used: 1.61333m
;Layer height: 0.2
;Generated with Cura_SteamEngine 3.4.1
M190 S58
M104 S222
M109 S222
M82 ;absolute extrusion mode
G21 ;metric values
G90 ;absolute positioning
M82 ;set extruder to absolute mode
M107 ;start with the fan off
G28 X0 Y0 ;move X/Y to min endstops
G28 Z0 ;move Z to min endstops
G1 Z15.0 F9000 ;move the platform down 15mm
G92 E0 ;zero the extruded length
G1 F200 E3 ;extrude 3mm of feed stock
G92 E0 ;zero the extruded length again
G1 F9000
;Put printing message on LCD screen
M117 Printing...
G92 E0
;LAYER_COUNT:25
;LAYER:0
M107
G0 F3600 X99.793 Y91.968 Z0.3
;TYPE:WALL-INNER
G1 F360 X100.065 Y92.13 E0.01579
G1 X100.336 Y92.169 E0.02945
G1 X100.517 Y92.152 E0.03852
G1 X100.699 Y92.114 E0.0478
G1 X102.321 Y91.536 E0.13371
G1 X104.313 Y90.941 E0.23743
G1 X104.541 Y90.885 E0.24914
G1 X106.38 Y90.529 E0.34259
G1 X107.979 Y90.366 E0.42278
G1 X109.498 Y90.378 E0.49856
G1 X111.017 Y90.366 E0.57435
G1 X112.616 Y90.529 E0.65454
G1 X114.45 Y90.884 E0.74773
G1 X114.683 Y90.941 E0.7597
G1 X116.676 Y91.536 E0.86347
G1 X118.297 Y92.114 E0.94933
G1 X118.479 Y92.152 E0.9586
G1 X118.66 Y92.169 E0.96767
G1 X118.907 Y92.133 E0.98013
G1 X119.127 Y92.025 E0.99235
G1 X119.301 Y91.847 E1.00477
G1 X119.404 Y91.637 E1.01644
G1 X119.444 Y91.466 E1.0252
G1 X119.459 Y91.271 E1.03496
G1 X119.435 Y90.993 E1.04888
G1 X119.331 Y90.56 E1.0711
G1 X119.17 Y90.14 E1.09354
G1 X118.95 Y89.763 E1.11532
G1 X118.684 Y89.438 E1.13627
G1 X118.201 Y89.001 E1.16877
G1 X117.437 Y88.504 E1.21424
G1 X116.241 Y87.97 E1.27958
G1 X114.728 Y87.535 E1.35812
G1 X112.133 Y86.966 E1.49067
G1 X110.983 Y86.783 E1.54876
G1 X109.934 Y86.745 E1.60113
G1 X109.498 Y86.781 E1.62296
G1 X109.063 Y86.745 E1.64473
G1 X108.013 Y86.783 E1.69715
G1 X106.863 Y86.966 E1.75525
G1 X104.269 Y87.535 E1.88774
G1 X102.755 Y87.97 E1.96633
G1 X101.559 Y88.504 E2.03168
G1 X100.795 Y89.001 E2.07715
G1 X100.311 Y89.438 E2.10968
G1 X100.047 Y89.764 E2.13061
G1 X99.828 Y90.14 E2.15232
G1 X99.665 Y90.559 E2.17475
G1 X99.561 Y90.995 E2.19711
G1 X99.538 Y91.272 E2.21098
G1 X99.553 Y91.485 E2.22163
G1 X99.631 Y91.741 E2.23498
G1 X99.793 Y91.968 E2.24889
G0 F3600 X99.726 Y92.041
G0 X99.976 Y93.873
G0 X99.888 Y93.827
G1 F360 X99.738 Y92.936 E2.29397
G1 X98.703 Y92.818 E2.34594
G1 X98.272 Y92.84 E2.36747
G1 X97.874 Y92.918 E2.38771
G1 X97.529 Y93.043 E2.40601
G1 X97.146 Y93.254 E2.42783
G1 X96.755 Y93.55 E2.4523
G1 X96.332 Y93.998 E2.48304
G1 X96.013 Y94.483 E2.512
G1 X95.77 Y95.03 E2.54186
G1 X95.627 Y95.605 E2.57142
G1 X95.577 Y96.195 E2.60096
G1 X95.631 Y96.862 E2.63435
G1 X95.792 Y97.505 E2.66742
G1 X96.054 Y98.105 E2.70008
G1 X96.413 Y98.658 E2.73297
G1 X96.857 Y99.141 E2.7657
G1 X97.368 Y99.542 E2.79811
G1 X97.915 Y99.84 E2.82919
G1 X98.034 Y99.89 E2.83563
G1 X98.649 Y100.09 E2.86789
G1 X99.275 Y100.186 E2.89949
G1 X99.855 Y100.184 E2.92842
G1 X100.376 Y100.104 E2.95472
G1 X100.839 Y99.959 E2.97893
G1 X101.22 Y99.774 E3.00006
G1 X101.611 Y99.505 E3.02374
G1 X101.983 Y99.155 E3.04922
G1 X102.322 Y98.713 E3.07701
G1 X102.632 Y98.132 E3.10986
G1 X102.844 Y97.494 E3.1434
G1 X102.948 Y96.84 E3.17644
G1 X102.95 Y96.233 E3.20673
G1 X102.87 Y95.696 E3.23381
G1 X102.73 Y95.231 E3.25804
G1 X102.522 Y94.802 E3.28183
G1 X102.271 Y94.444 E3.30364
G1 X101.939 Y94.103 E3.32738
G1 X101.101 Y93.48 E3.37948
G1 X100.384 Y94.023 E3.42435
G1 X100.617 Y94.638 E3.45716
G1 X100.646 Y94.785 E3.46464
G1 X100.65 Y94.942 E3.47247
G1 X100.627 Y95.091 E3.47999
G1 X100.578 Y95.238 E3.48772
G1 X100.507 Y95.371 E3.49525
G1 X100.407 Y95.499 E3.50335
G1 X100.298 Y95.597 E3.51066
G1 X100.169 Y95.679 E3.51829
G1 X100.022 Y95.74 E3.52623
G1 X99.879 Y95.773 E3.53355
G1 X99.721 Y95.78 E3.54144
G1 X99.569 Y95.761 E3.54908
G1 X99.42 Y95.716 E3.55685
G1 X99.283 Y95.648 E3.56448
G1 X99.164 Y95.56 E3.57186
G1 X99.054 Y95.445 E3.5798
G1 X98.969 Y95.319 E3.58738
G1 X98.906 Y95.178 E3.59509
G1 X98.869 Y95.029 E3.60275
G1 X98.856 Y94.873 E3.61056
G1 X98.87 Y94.724 E3.61803
G1 X98.91 Y94.575 E3.62572
G1 X98.976 Y94.434 E3.63349
G1 X99.062 Y94.312 E3.64094
G1 X99.174 Y94.198 E3.64891
G1 X99.297 Y94.11 E3.65645
G1 X99.888 Y93.827 E3.68915
G0 F3600 X99.976 Y93.873
G0 X101.101 Y93.44
G0 X119.191 Y92.864
G0 X119.259 Y92.936
G1 F360 X119.109 Y93.826 E3.73417
G1 X119.704 Y94.112 E3.76711
G1 X119.821 Y94.196 E3.7743
G1 X119.935 Y94.312 E3.78241
G1 X120.023 Y94.438 E3.79008
G1 X120.085 Y94.572 E3.79744
G1 X120.127 Y94.725 E3.80536
G1 X120.141 Y94.875 E3.81288
G1 X120.13 Y95.027 E3.82048
G1 X120.09 Y95.179 E3.82832
G1 X120.03 Y95.316 E3.83578
G1 X119.94 Y95.448 E3.84375
G1 X119.838 Y95.555 E3.85113
G1 X119.709 Y95.651 E3.85915
G1 X119.579 Y95.716 E3.8664
G1 X119.427 Y95.761 E3.87431
G1 X119.275 Y95.78 E3.88195
G1 X119.117 Y95.773 E3.88984
G1 X118.974 Y95.74 E3.89716
G1 X118.827 Y95.679 E3.9051
G1 X118.701 Y95.6 E3.91252
G1 X118.585 Y95.494 E3.92036
G1 X118.488 Y95.371 E3.92818
G1 X118.421 Y95.245 E3.9353
G1 X118.369 Y95.089 E3.9435
G1 X118.347 Y94.941 E3.95097
G1 X118.35 Y94.782 E3.9589
G1 X118.378 Y94.643 E3.96597
G1 X118.613 Y94.023 E3.99905
G1 X117.896 Y93.48 E4.04393
G1 X117.057 Y94.103 E4.09606
G1 X116.727 Y94.444 E4.11974
G1 X116.474 Y94.801 E4.14157
G1 X116.267 Y95.231 E4.16538
G1 X116.126 Y95.696 E4.18962
G1 X116.047 Y96.233 E4.2167
G1 X116.048 Y96.84 E4.24698
G1 X116.152 Y97.495 E4.28007
G1 X116.365 Y98.133 E4.31362
G1 X116.675 Y98.713 E4.34643
G1 X117.014 Y99.155 E4.37423
G1 X117.386 Y99.505 E4.39971
G1 X117.776 Y99.774 E4.42334
G1 X118.158 Y99.959 E4.44452
G1 X118.621 Y100.104 E4.46872
G1 X119.141 Y100.184 E4.49497
G1 X119.722 Y100.186 E4.52396
G1 X120.347 Y100.091 E4.5555
G1 X120.953 Y99.895 E4.58727
G1 X121.078 Y99.843 E4.59403
G1 X121.628 Y99.542 E4.62531
G1 X122.139 Y99.141 E4.65772
G1 X122.584 Y98.658 E4.69048
G1 X122.944 Y98.105 E4.7234
G1 X123.204 Y97.505 E4.75602
G1 X123.366 Y96.862 E4.78911
G1 X123.419 Y96.195 E4.82249
G1 X123.37 Y95.605 E4.85202
G1 X123.226 Y95.03 E4.8816
G1 X122.984 Y94.483 E4.91144
G1 X122.666 Y94 E4.94029
G1 X122.268 Y93.571 E4.96948
G1 X121.876 Y93.268 E4.9942
G1 X121.491 Y93.054 E5.01618
G1 X121.135 Y92.922 E5.03512
G1 X120.726 Y92.84 E5.05593
G1 X120.294 Y92.818 E5.07751
G1 X119.259 Y92.936 E5.12948
G0 F3600 X119.191 Y92.864
G0 X117.896 Y93.44
G0 X117.031 Y94.073
G0 X116.44 Y94.781
G0 X116.123 Y95.597
G0 X112.159 Y126.815
G0 X112.252 Y126.849
G1 F360 X112.129 Y127.309 E5.15324
G1 X112.088 Y127.783 E5.17698
G1 X112.129 Y128.258 E5.20076
G1 X112.252 Y128.717 E5.22447
G1 X112.453 Y129.147 E5.24815
G1 X112.725 Y129.537 E5.27187
G1 X113.062 Y129.874 E5.29565
G1 X113.452 Y130.146 E5.31937
G1 X113.882 Y130.347 E5.34305
G1 X114.341 Y130.47 E5.36676
G1 X114.816 Y130.511 E5.39055
G1 X115.29 Y130.47 E5.41428
G1 X115.75 Y130.347 E5.43804
G1 X116.179 Y130.146 E5.46167
G1 X116.569 Y129.874 E5.48539
G1 X116.906 Y129.537 E5.50917
G1 X117.178 Y129.147 E5.53289
G1 X117.379 Y128.717 E5.55657
G1 X117.502 Y128.258 E5.58028
G1 X117.543 Y127.783 E5.60407
G1 X117.502 Y127.309 E5.6278
G1 X117.379 Y126.849 E5.65156
G1 X117.178 Y126.42 E5.6752
G1 X116.906 Y126.03 E5.69892
G1 X116.569 Y125.693 E5.7227
G1 X116.179 Y125.421 E5.74642
G1 X115.75 Y125.22 E5.77005
G1 X115.29 Y125.097 E5.79381
G1 X114.816 Y125.056 E5.81754
G1 X114.341 Y125.097 E5.84133
G1 X113.882 Y125.22 E5.86504
G1 X113.452 Y125.421 E5.88872
G1 X113.062 Y125.693 E5.91244
G1 X112.725 Y126.03 E5.93622
G1 X112.453 Y126.42 E5.95994
G1 X112.252 Y126.849 E5.98358
G0 F3600 X112.159 Y126.815
G0 X111.041 Y128.987
G0 X110.943 Y129.002
G1 F360 X110.843 Y128.753 E5.99696
G1 X110.713 Y128.591 E6.00733
G1 X110.592 Y128.493 E6.01509
G1 X110.421 Y128.395 E6.02493
G1 X110.185 Y128.302 E6.03758
G1 X109.177 Y127.986 E6.09028
G1 X108.671 Y127.731 E6.11855
G1 X107.846 Y127.22 E6.16697
G1 X106.784 Y126.751 E6.22489
G1 X105.896 Y126.42 E6.27217
G1 X105.754 Y126.343 E6.28023
G1 X105.682 Y126.28 E6.285
G1 X105.643 Y126.22 E6.28857
G1 X105.296 Y125.406 E6.33272
G1 X105.115 Y125.115 E6.34981
G1 X104.945 Y124.918 E6.3628
G1 X104.793 Y124.79 E6.37271
G1 X104.626 Y124.687 E6.3825
G1 X104.436 Y124.609 E6.39275
G1 X104.183 Y124.552 E6.40569
G1 X103.861 Y124.529 E6.42179
G1 X103.392 Y124.51 E6.44521
G1 X103.258 Y124.482 E6.45204
G1 X103.117 Y124.427 E6.45959
G1 X102.968 Y124.342 E6.46815
G1 X102.771 Y124.181 E6.48084
G1 X102.559 Y123.942 E6.49678
G1 X102.309 Y123.564 E6.51939
G1 X102.017 Y122.938 E6.55385
G1 X101.787 Y122.167 E6.59399
G1 X101.693 Y121.359 E6.63457
G1 X101.639 Y120.777 E6.66373
G1 X101.586 Y120.554 E6.67517
G1 X101.493 Y120.306 E6.68838
G1 X101.387 Y120.123 E6.69894
G1 X101.259 Y119.958 E6.70935
G1 X101.097 Y119.81 E6.7203
G1 X100.895 Y119.674 E6.73245
G1 X100.633 Y119.549 E6.74693
G1 X100.297 Y119.444 E6.7645
G1 X99.627 Y119.34 E6.79832
G1 X99.129 Y119.226 E6.82381
G1 X98.57 Y119.005 E6.8538
G1 X97.944 Y118.638 E6.89
G1 X97.193 Y118.026 E6.93833
G1 X96.363 Y117.127 E6.99938
G1 X95.542 Y115.993 E7.06922
G1 X94.617 Y114.452 E7.15889
G1 X93.805 Y113.221 E7.23247
G1 X93.045 Y112.382 E7.28894
G1 X91.915 Y111.426 E7.36279
G1 X91.38 Y110.897 E7.40032
G1 X91.225 Y110.682 E7.41355
G1 X91.15 Y110.53 E7.422
G1 X91.107 Y110.385 E7.42955
G1 X91.069 Y110.11 E7.4434
G1 X91.056 Y109.371 E7.48027
G1 X91.01 Y108.767 E7.51049
G1 X90.909 Y108.34 E7.53239
G1 X90.772 Y108.012 E7.55012
G1 X90.617 Y107.764 E7.56471
G1 X90.451 Y107.573 E7.57734
G1 X90.264 Y107.419 E7.58942
G1 X90.017 Y107.274 E7.60371
G1 X89.661 Y107.133 E7.62281
G1 X89.096 Y106.938 E7.65263
G1 X88.92 Y106.839 E7.66271
G1 X88.765 Y106.721 E7.67243
G1 X88.6 Y106.55 E7.68428
G1 X88.404 Y106.275 E7.70113
G1 X88.201 Y105.879 E7.72333
G1 X87.922 Y105.063 E7.76635
G1 X87.581 Y103.569 E7.84281
G1 X87.329 Y101.871 E7.92845
G1 X87.293 Y100.64 E7.98989
G1 X87.405 Y99.583 E8.04292
G1 X87.661 Y98.597 E8.09374
G1 X88.021 Y97.797 E8.13751
G1 X88.623 Y96.747 E8.19789
G1 X89.099 Y95.732 E8.25382
G1 X89.34 Y94.893 E8.29737
G1 X89.45 Y93.994 E8.34256
G1 X89.409 Y93.157 E8.38437
G1 X88.867 Y90.171 E8.53577
G1 X88.591 Y89.408 E8.57625
G1 X88.176 Y88.456 E8.62807
G1 X88.122 Y88.256 E8.6384
G1 X88.108 Y88.125 E8.64497
G1 X88.12 Y88.035 E8.6495
G1 X88.177 Y87.92 E8.65591
G1 X88.302 Y87.762 E8.66596
G1 X88.806 Y87.224 E8.70274
G1 X89.057 Y86.894 E8.72342
G1 X89.204 Y86.61 E8.73938
G1 X89.297 Y86.326 E8.75429
G1 X89.35 Y86.001 E8.77072
G1 X89.353 Y85.596 E8.79092
G1 X89.282 Y85.04 E8.81889
G1 X89.095 Y84.112 E8.86611
G1 X89.063 Y83.757 E8.8839
G1 X89.08 Y83.537 E8.89491
G1 X89.14 Y83.287 E8.90773
G1 X89.259 Y82.998 E8.92333
G1 X89.435 Y82.704 E8.94042
G1 X89.687 Y82.402 E8.96004
G1 X89.949 Y82.171 E8.97747
G1 X90.191 Y82.013 E8.99189
G1 X90.424 Y81.91 E9.0046
G1 X90.666 Y81.846 E9.01709
G1 X91.147 Y81.803 E9.04118
G1 X92.225 Y81.772 E9.09498
G1 X92.705 Y81.685 E9.11932
G1 X93.147 Y81.529 E9.14271
G1 X93.533 Y81.322 E9.16456
G1 X93.892 Y81.048 E9.18709
G1 X94.18 Y80.738 E9.2082
G1 X94.834 Y79.812 E9.26476
G1 X94.945 Y79.701 E9.27259
G1 X95.086 Y79.6 E9.28124
G1 X95.151 Y79.564 E9.28495
G1 X95.362 Y79.482 E9.29624
G1 X95.669 Y79.412 E9.31195
G1 X96.084 Y79.369 E9.33277
G1 X97.206 Y79.383 E9.38875
G1 X98.867 Y79.384 E9.47162
G1 X100.132 Y79.211 E9.53532
G1 X101.156 Y78.893 E9.58881
G1 X102.043 Y78.44 E9.6385
G1 X103.143 Y77.686 E9.70503
G1 X104.461 Y76.754 E9.78557
G1 X105.289 Y76.312 E9.83239
G1 X105.915 Y76.098 E9.8654
G1 X106.474 Y75.994 E9.89377
G1 X107.012 Y75.974 E9.92063
G1 X107.275 Y76.005 E9.93384
G1 X107.424 Y76.049 E9.94159
G1 X107.617 Y76.143 E9.9523
G1 X108.094 Y76.449 E9.98057
G1 X108.403 Y76.607 E9.99789
G1 X108.669 Y76.692 E10.01182
G1 X108.952 Y76.737 E10.02612
G1 X109.287 Y76.74 E10.04283
G1 X109.873 Y76.684 E10.0722
G1 X110.368 Y76.623 E10.09708
G1 X110.785 Y76.52 E10.11851
G1 X111.17 Y76.354 E10.13943
G1 X111.921 Y75.97 E10.18151
G1 X112.242 Y75.871 E10.19827
G1 X112.716 Y75.805 E10.22214
G1 X113.25 Y75.82 E10.2488
G1 X113.892 Y75.936 E10.28134
G1 X114.541 Y76.163 E10.31565
G1 X115.512 Y76.702 E10.37105
G1 X116.812 Y77.536 E10.44811
G1 X117.81 Y77.997 E10.50296
G1 X119.213 Y78.436 E10.5763
G1 X120.416 Y78.78 E10.63872
G1 X120.982 Y78.854 E10.6672
G1 X122.189 Y78.797 E10.72748
G1 X122.33 Y78.81 E10.73455
G1 X122.394 Y78.826 E10.73784
G1 X122.492 Y78.88 E10.74342
G1 X122.556 Y78.937 E10.7477
G1 X122.655 Y79.054 E10.75534
G1 X122.89 Y79.456 E10.77858
G1 X123.435 Y80.661 E10.84456
G1 X123.763 Y81.21 E10.87646
G1 X124.098 Y81.602 E10.90219
G1 X124.576 Y82.003 E10.93332
G1 X125.17 Y82.359 E10.96786
G1 X126.366 Y82.866 E11.03267
G1 X127.419 Y83.329 E11.09006
G1 X127.853 Y83.607 E11.11578
G1 X128.125 Y83.85 E11.13397
G1 X128.337 Y84.112 E11.15079
G1 X128.491 Y84.374 E11.16595
G1 X128.601 Y84.657 E11.1811
G1 X128.658 Y84.929 E11.19496
G1 X128.68 Y85.359 E11.21644
G1 X128.626 Y86.522 E11.27453
G1 X128.65 Y87.132 E11.30498
G1 X128.732 Y87.542 E11.32584
G1 X128.871 Y87.915 E11.3457
G1 X129.109 Y88.333 E11.3697
G1 X129.523 Y88.861 E11.40317
G1 X130.363 Y89.75 E11.46419
G1 X130.802 Y90.3 E11.4993
G1 X131.13 Y90.893 E11.53311
G1 X131.367 Y91.55 E11.56796
G1 X131.525 Y92.362 E11.60923
G1 X131.563 Y93.38 E11.66005
G1 X131.434 Y94.514 E11.71699
G1 X131.141 Y95.704 E11.77813
G1 X130.778 Y96.981 E11.84437
G1 X130.515 Y98.388 E11.91578
G1 X130.397 Y100.175 E12.00513
G1 X130.438 Y101.106 E12.05162
G1 X130.637 Y101.953 E12.09503
G1 X130.859 Y102.834 E12.14035
G1 X130.899 Y103.319 E12.16463
G1 X130.86 Y103.931 E12.19523
G1 X130.702 Y104.64 E12.23147
G1 X130.338 Y105.58 E12.28176
G1 X129.718 Y106.694 E12.34536
G1 X128.717 Y108.092 E12.43115
G1 X126.795 Y110.447 E12.5828
G1 X125.901 Y111.746 E12.66147
G1 X125.317 Y112.93 E12.72734
G1 X124.931 Y114.212 E12.79413
G1 X124.614 Y115.771 E12.8735
G1 X124.307 Y116.941 E12.93385
G1 X124.036 Y117.558 E12.96747
G1 X123.831 Y117.872 E12.98618
G1 X123.593 Y118.134 E13.00384
G1 X123.192 Y118.454 E13.02943
G1 X122.457 Y118.895 E13.0722
G1 X121.181 Y119.61 E13.14517
G1 X120.441 Y120.149 E13.19084
G1 X119.79 Y120.815 E13.23731
G1 X119.273 Y121.548 E13.28206
G1 X118.888 Y122.34 E13.32599
G1 X118.664 Y123.091 E13.36509
G1 X118.565 Y123.828 E13.40219
G1 X118.583 Y124.649 E13.44316
G1 X118.688 Y125.446 E13.48327
G1 X118.966 Y126.899 E13.55707
G1 X119.084 Y127.943 E13.60949
G1 X119.058 Y128.53 E13.6388
G1 X118.946 Y129.073 E13.66646
G1 X118.718 Y129.678 E13.69872
G1 X118.318 Y130.386 E13.73929
G1 X117.616 Y131.264 E13.79537
G1 X116.775 Y132.03 E13.85213
G1 X115.629 Y132.862 E13.92278
G1 X114.595 Y133.683 E13.98865
G1 X113.928 Y134.412 E14.03795
G1 X113.477 Y135.085 E14.07836
G1 X113.17 Y135.73 E14.114
G1 X112.974 Y136.378 E14.14778
G1 X112.884 Y137.062 E14.1822
G1 X112.94 Y138.296 E14.24382
G1 X113.007 Y138.635 E14.26106
G1 X113.067 Y138.947 E14.27692
G1 X113.182 Y139.27 E14.29402
G1 X112.956 Y139.081 E14.29669
G1 X112.712 Y138.877 E14.30834
G1 X111.121 Y137.547 E14.4118
G1 X110.446 Y137.002 E14.45508
G1 X109.502 Y136.108 E14.51995
G1 X108.847 Y135.285 E14.57242
G1 X108.522 Y134.716 E14.60511
G1 X108.373 Y134.316 E14.62641
G1 X108.317 Y134.034 E14.64075
G1 X108.308 Y133.773 E14.65378
G1 X108.343 Y133.48 E14.6685
G1 X108.448 Y133.111 E14.68764
G1 X108.715 Y132.53 E14.71954
G1 X109.383 Y131.488 E14.7813
G1 X109.72 Y130.688 E14.8246
G1 X109.818 Y130.501 E14.83514
G1 X109.918 Y130.365 E14.84356
G1 X110.095 Y130.195 E14.8558
G1 X110.634 Y129.749 E14.89071
G1 X110.778 Y129.586 E14.90156
G1 X110.917 Y129.338 E14.91574
G1 X110.943 Y129.002 E14.93255
G0 F3600 X110.537 Y129.064
;TYPE:WALL-OUTER
G1 F360 X110.494 Y128.957 E14.93831
G1 X110.428 Y128.875 E14.94356
G1 X110.365 Y128.824 E14.9476
G1 X110.247 Y128.756 E14.9544
G1 X110.052 Y128.679 E14.96486
G1 X109.03 Y128.359 E15.01829
G1 X108.477 Y128.081 E15.04916
G1 X107.659 Y127.575 E15.09715
G1 X106.633 Y127.122 E15.15311
G1 X105.732 Y126.786 E15.20108
G1 X105.536 Y126.68 E15.2122
G1 X105.436 Y126.602 E15.21853
G1 X105.364 Y126.525 E15.22378
G1 X105.289 Y126.41 E15.23063
G1 X104.94 Y125.591 E15.27505
G1 X104.792 Y125.353 E15.28903
G1 X104.663 Y125.204 E15.29886
G1 X104.557 Y125.115 E15.30577
G1 X104.443 Y125.044 E15.31247
G1 X104.316 Y124.992 E15.31932
G1 X104.124 Y124.949 E15.32913
G1 X103.839 Y124.928 E15.34339
