;FLAVOR:Marlin
;TIME:4274
;Filament used: 3.84609m
;Layer height: 0.3
;Generated with Cura_SteamEngine 3.4.1
M190 S64
M104 S200
M109 S200
M82 ;absolute extrusion mode
G21 ;metric values
G90 ;absolute positioning
M82 ;set extruder to absolute mode
M107 ;start with the fan off
G28 X0 Y0 ;move X/Y to min endstops
G28 Z0 ;move Z to min endstops
G1 Z15.0 F9000 ;move the platform down 15mm
G92 E0 ;zero the extruded length
G1 F200 E3 ;extrude 3mm of feed stock
G92 E0 ;zero the extruded length again
G1 F9000
;Put printing message on LCD screen
M117 Printing...
G92 E0
G1 F1500 E-5
;LAYER_COUNT:161
;LAYER:0
M107
G0 F3600 X92.868 Y87.136 Z0.3
;TYPE:SKIRT
G1 F1500 E0
G1 F1050 X93.625 Y86.358 E0.05416
G1 X93.949 Y86.06 E0.07612
G1 X95.703 Y84.615 E0.1895
G1 X96.24 Y84.242 E0.22212
G1 X97.668 Y83.414 E0.30447
G1 X98.175 Y83.165 E0.33265
G1 X98.713 Y82.991 E0.36086
G1 X99.487 Y82.878 E0.39988
G1 X100.022 Y82.853 E0.4266
G1 X100.587 Y82.867 E0.4548
G1 X101.145 Y82.96 E0.48302
G1 X101.684 Y83.131 E0.51124
G1 X101.989 Y83.267 E0.5279
G1 X103.009 Y83.774 E0.58472
G1 X103.571 Y84.113 E0.61747
G1 X104.928 Y85.093 E0.70098
G1 X105.274 Y85.374 E0.72322
G1 X106.552 Y86.534 E0.80932
G1 X106.917 Y86.912 E0.83554
G1 X108.3 Y88.546 E0.94234
G1 X108.579 Y88.917 E0.9655
G1 X109.346 Y90.072 E1.03467
G1 X109.582 Y90.477 E1.05806
G1 X110.492 Y92.273 E1.1585
G1 X110.655 Y92.639 E1.17849
G1 X111.036 Y93.625 E1.23123
G1 X111.157 Y93.988 E1.25032
G1 X111.642 Y95.72 E1.34005
G1 X111.73 Y96.108 E1.3599
G1 X111.933 Y97.265 E1.41851
G1 X111.981 Y97.643 E1.43752
G1 X112.111 Y99.298 E1.52034
G1 X112.121 Y99.73 E1.5419
G1 X112.067 Y101.55 E1.63274
G1 X112.061 Y101.68 E1.63923
G1 X110.618 Y124.781 E2.79399
G1 X110.543 Y125.342 E2.82223
G1 X110.39 Y125.886 E2.85042
G1 X110.256 Y126.212 E2.86801
G1 X109.934 Y126.908 E2.90626
G1 X109.661 Y127.403 E2.93447
G1 X109.321 Y127.854 E2.96265
G1 X109.031 Y128.155 E2.9835
G1 X108.651 Y128.509 E3.00941
G1 X108.211 Y128.864 E3.03761
G1 X107.725 Y129.154 E3.06585
G1 X107.364 Y129.314 E3.08555
G1 X106.654 Y129.588 E3.12352
G1 X106.114 Y129.754 E3.1517
G1 X105.555 Y129.841 E3.17993
G1 X105.226 Y129.856 E3.19636
G1 X95.14 Y129.885 E3.69955
G1 X94.506 Y129.836 E3.73128
G1 X93.864 Y129.735 E3.7637
G1 X93.314 Y129.608 E3.79186
G1 X92.701 Y129.363 E3.8248
G1 X92.284 Y129.155 E3.84805
G1 X91.797 Y128.868 E3.87625
G1 X91.355 Y128.515 E3.90447
G1 X91.094 Y128.25 E3.92302
G1 X90.561 Y127.657 E3.9628
G1 X90.214 Y127.211 E3.991
G1 X89.933 Y126.72 E4.01922
G1 X89.716 Y126.169 E4.04876
G1 X89.525 Y125.554 E4.08089
G1 X89.396 Y125.004 E4.10908
G1 X89.352 Y124.606 E4.12905
G1 X87.884 Y100.023 E5.35769
G1 X87.889 Y99.478 E5.38488
G1 X88.039 Y97.529 E5.48241
G1 X88.109 Y97.031 E5.50749
G1 X88.473 Y95.259 E5.59775
G1 X88.571 Y94.879 E5.61732
G1 X88.928 Y93.728 E5.67745
G1 X89.068 Y93.344 E5.69784
G1 X89.751 Y91.742 E5.78472
G1 X89.96 Y91.323 E5.80808
G1 X90.876 Y89.724 E5.90002
G1 X91.188 Y89.258 E5.928
G1 X92.576 Y87.471 E6.04089
G1 X92.868 Y87.136 E6.06306
G0 F3600 X93.155 Y87.414
G1 F1050 X93.912 Y86.636 E6.11721
G1 X94.203 Y86.368 E6.13695
G1 X95.957 Y84.923 E6.25033
G1 X96.44 Y84.588 E6.27966
G1 X97.868 Y83.76 E6.36201
G1 X98.351 Y83.526 E6.38878
G1 X98.863 Y83.367 E6.41553
G1 X99.506 Y83.278 E6.44792
G1 X100.041 Y83.253 E6.47464
G1 X100.577 Y83.268 E6.50139
G1 X101.105 Y83.362 E6.52814
G1 X101.811 Y83.625 E6.56573
G1 X102.831 Y84.132 E6.62256
G1 X103.337 Y84.437 E6.65204
G1 X104.694 Y85.417 E6.73555
G1 X105.006 Y85.67 E6.75559
G1 X106.284 Y86.83 E6.84169
G1 X106.612 Y87.17 E6.86526
G1 X107.995 Y88.804 E6.97206
G1 X108.246 Y89.138 E6.99291
G1 X109.013 Y90.293 E7.06208
G1 X109.225 Y90.658 E7.08314
G1 X110.135 Y92.454 E7.18359
G1 X110.282 Y92.783 E7.20156
G1 X110.663 Y93.769 E7.2543
G1 X110.772 Y94.096 E7.2715
G1 X111.257 Y95.828 E7.36123
G1 X111.336 Y96.177 E7.37908
G1 X111.539 Y97.334 E7.43769
G1 X111.582 Y97.674 E7.45478
G1 X111.712 Y99.329 E7.53761
G1 X111.721 Y99.718 E7.55702
G1 X111.667 Y101.538 E7.64786
G1 X111.662 Y101.655 E7.6537
G1 X110.219 Y124.756 E8.80846
G1 X110.146 Y125.288 E8.83525
G1 X109.893 Y126.044 E8.87503
G1 X109.571 Y126.74 E8.91329
G1 X109.31 Y127.208 E8.94002
G1 X108.983 Y127.633 E8.96677
G1 X108.758 Y127.862 E8.98279
G1 X108.378 Y128.216 E9.0087
G1 X107.959 Y128.551 E9.03546
G1 X107.496 Y128.821 E9.0622
G1 X107.22 Y128.941 E9.07722
G1 X106.51 Y129.215 E9.11519
G1 X105.997 Y129.37 E9.14192
G1 X105.224 Y129.456 E9.18073
G1 X95.138 Y129.485 E9.68392
G1 X94.569 Y129.441 E9.71239
G1 X93.927 Y129.34 E9.74482
G1 X93.404 Y129.218 E9.77161
G1 X92.879 Y129.005 E9.79988
G1 X92.462 Y128.797 E9.82312
G1 X92.001 Y128.523 E9.84988
G1 X91.587 Y128.183 E9.87661
G1 X91.392 Y127.983 E9.89054
G1 X90.859 Y127.39 E9.93032
G1 X90.531 Y126.965 E9.9571
G1 X90.27 Y126.497 E9.98384
G1 X90.098 Y126.051 E10.00769
G1 X89.907 Y125.436 E10.03982
G1 X89.787 Y124.913 E10.06659
G1 X89.751 Y124.583 E10.08315
G1 X88.283 Y100 E11.31178
G1 X88.288 Y99.509 E11.33628
G1 X88.438 Y97.56 E11.4338
G1 X88.501 Y97.112 E11.45637
G1 X88.865 Y95.34 E11.54663
G1 X88.953 Y94.998 E11.56424
G1 X89.31 Y93.847 E11.62437
G1 X89.436 Y93.501 E11.64274
G1 X90.119 Y91.899 E11.72962
G1 X90.307 Y91.522 E11.75064
G1 X91.223 Y89.923 E11.84258
G1 X91.504 Y89.504 E11.86775
G1 X92.892 Y87.717 E11.98063
G1 X93.155 Y87.414 E12.00065
G0 F3600 X93.442 Y87.693
G1 F1050 X94.199 Y86.915 E12.05481
G1 X94.457 Y86.677 E12.07232
G1 X96.211 Y85.232 E12.1857
G1 X96.641 Y84.934 E12.2118
G1 X98.069 Y84.106 E12.29415
G1 X98.525 Y83.887 E12.31939
G1 X99.01 Y83.744 E12.34462
G1 X99.525 Y83.677 E12.37053
G1 X100.06 Y83.652 E12.39725
G1 X100.565 Y83.669 E12.42246
G1 X101.061 Y83.765 E12.44766
G1 X101.633 Y83.983 E12.4782
G1 X102.653 Y84.49 E12.53503
G1 X103.102 Y84.762 E12.56122
G1 X104.459 Y85.742 E12.64473
G1 X104.737 Y85.967 E12.66257
G1 X106.015 Y87.127 E12.74868
G1 X106.307 Y87.429 E12.76964
G1 X107.69 Y89.063 E12.87644
G1 X107.913 Y89.36 E12.89497
G1 X108.68 Y90.515 E12.96414
G1 X108.868 Y90.839 E12.98283
G1 X109.778 Y92.635 E13.08327
G1 X109.909 Y92.928 E13.09929
G1 X110.29 Y93.914 E13.15202
G1 X110.386 Y94.204 E13.16726
G1 X110.871 Y95.936 E13.257
G1 X110.942 Y96.246 E13.27286
G1 X111.145 Y97.403 E13.33147
G1 X111.183 Y97.705 E13.34665
G1 X111.313 Y99.36 E13.42948
G1 X111.322 Y99.706 E13.44674
G1 X111.268 Y101.526 E13.53758
G1 X111.263 Y101.63 E13.54278
G1 X109.82 Y124.731 E14.69754
G1 X109.748 Y125.232 E14.72279
G1 X109.53 Y125.876 E14.75671
G1 X109.208 Y126.572 E14.79497
G1 X108.96 Y127.012 E14.82017
G1 X108.485 Y127.569 E14.85669
G1 X108.105 Y127.923 E14.8826
G1 X107.709 Y128.238 E14.90785
G1 X107.076 Y128.567 E14.94344
G1 X106.366 Y128.841 E14.9814
G1 X105.882 Y128.986 E15.00661
G1 X105.223 Y129.056 E15.03967
G1 X95.137 Y129.085 E15.54287
G1 X94.631 Y129.046 E15.56819
G1 X93.989 Y128.945 E15.60061
G1 X93.497 Y128.827 E15.62585
G1 X93.058 Y128.648 E15.64951
G1 X92.641 Y128.44 E15.67276
G1 X92.207 Y128.179 E15.69802
G1 X91.689 Y127.715 E15.73272
G1 X91.156 Y127.122 E15.7725
G1 X90.849 Y126.721 E15.79769
G1 X90.609 Y126.276 E15.82292
G1 X90.48 Y125.932 E15.84124
G1 X90.289 Y125.317 E15.87337
G1 X90.178 Y124.824 E15.89858
G1 X90.151 Y124.559 E15.91187
G1 X88.683 Y99.976 E17.14051
G1 X88.686 Y99.539 E17.16231
G1 X88.836 Y97.59 E17.25984
G1 X88.892 Y97.192 E17.27989
G1 X89.256 Y95.42 E17.37014
G1 X89.335 Y95.116 E17.38581
G1 X89.692 Y93.965 E17.44593
G1 X89.804 Y93.658 E17.46224
G1 X90.487 Y92.056 E17.54912
G1 X90.654 Y91.72 E17.56784
G1 X91.57 Y90.121 E17.65978
G1 X91.82 Y89.749 E17.68214
G1 X93.208 Y87.962 E17.79502
G1 X93.442 Y87.693 E17.81281
G1 F1500 E12.81281
G1 F180 Z1.3
G0 F3600 X98.392 Y112.347 Z1.3
;TYPE:WALL-INNER
G1 F180 Z0.3
G1 F1500 E17.81281
G1 F1050 X98.383 Y112.292 E17.81559
G1 X98.379 Y112.27 E17.81671
G1 X98.396 Y112.268
G1 X98.427 Y112.284
G1 X98.446 Y112.304
G1 X98.476 Y112.334 E17.81692
G1 X98.507 Y112.4 E17.82056
G1 X98.523 Y112.496 E17.82541
G1 X98.543 Y112.608 E17.83109
G1 X98.472 Y112.506 E17.83186
G1 X98.437 Y112.438 E17.83208
G1 X98.402 Y112.373 E17.83282
G1 X98.393 Y112.357
G1 X98.392 Y112.347
G0 F3600 X98.433 Y112.359
G0 X102.454 Y116.528
G0 X102.894 Y116.701
G0 X103.128 Y117.073
G0 X103.479 Y117.543
G0 X102.119 Y119.929
G0 X102.106 Y120.028
G1 F1050 X101.83 Y120.039 E17.8466
G1 X101.6 Y120.112 E17.85864
G1 X101.397 Y120.233 E17.87043
G1 X101.235 Y120.389 E17.88165
G1 X101.102 Y120.578 E17.89318
G1 X101.007 Y120.789 E17.90473
G1 X100.953 Y121.008 E17.91598
G1 X100.936 Y121.233 E17.92724
G1 X100.964 Y121.454 E17.93835
G1 X101.032 Y121.667 E17.94951
G1 X101.148 Y121.861 E17.96079
G1 X101.294 Y122.015 E17.97137
G1 X101.398 Y122.091 E17.9778
G1 X101.435 Y122.191 E17.98312
G1 X101.456 Y122.306 E17.98895
G1 X101.463 Y122.423 E17.9948
G1 X101.457 Y122.535 E18.00039
G1 X101.44 Y122.634 E18.00541
G1 X101.408 Y122.742 E18.01102
G1 X101.363 Y122.844 E18.01659
G1 X101.32 Y122.915 E18.02073
G1 X101.262 Y122.991 E18.0255
G1 X101.214 Y123.039 E18.02888
G1 X101.14 Y123.095 E18.03351
G1 X101.039 Y123.153 E18.03932
G1 X100.907 Y123.209 E18.04648
G1 X100.748 Y123.257 E18.05476
G1 X100.564 Y123.295 E18.06414
G1 X100.365 Y123.32 E18.07414
G1 X100.074 Y123.336 E18.08868
G1 X99.781 Y123.333 E18.1033
G1 X99.515 Y123.315 E18.1166
G1 X99.325 Y123.288 E18.12618
G1 X99.153 Y123.25 E18.13497
G1 X99.005 Y123.202 E18.14273
G1 X98.899 Y123.157 E18.14847
G1 X98.797 Y123.099 E18.15433
G1 X98.722 Y123.044 E18.15897
G1 X98.664 Y122.988 E18.16299
G1 X98.615 Y122.925 E18.16697
G1 X98.558 Y122.83 E18.1725
G1 X98.518 Y122.74 E18.17741
G1 X98.489 Y122.645 E18.18237
G1 X98.474 Y122.556 E18.18687
G1 X98.47 Y122.472 E18.19107
G1 X98.484 Y122.359 E18.19675
G1 X98.53 Y122.255 E18.20242
G1 X98.784 Y121.841 E18.22665
G1 X98.885 Y121.639 E18.23792
G1 X98.957 Y121.435 E18.24871
G1 X98.997 Y121.224 E18.25943
G1 X98.997 Y121.004 E18.2704
G1 X98.95 Y120.797 E18.28099
G1 X98.883 Y120.644 E18.28933
G1 X98.758 Y120.461 E18.30038
G1 X98.587 Y120.298 E18.31217
G1 X98.386 Y120.173 E18.32398
G1 X98.256 Y120.123 E18.33093
G1 X98.176 Y120.092 E18.33521
G1 X98.152 Y120.088 E18.33642
G1 X98.076 Y120.075 E18.34027
G1 X98.15 Y120.04 E18.34077
G1 X98.16 Y120.035
G1 X98.237 Y119.977 E18.34263
G1 X98.342 Y119.898 E18.34641
G1 X98.487 Y119.722 E18.35779
G1 X98.586 Y119.521 E18.36897
G1 X98.635 Y119.311 E18.37973
G1 X98.645 Y119.101 E18.39022
G1 X98.628 Y118.882 E18.40117
G1 X98.592 Y118.644 E18.41318
G1 X98.583 Y118.58 E18.41641
G1 X98.569 Y118.433 E18.42378
G1 X98.568 Y118.339 E18.42847
G1 X98.573 Y118.283 E18.43127
G1 X98.603 Y118.285
G1 X98.668 Y118.289 E18.43419
G1 X99.003 Y118.312 E18.45094
G1 X99.286 Y118.317 E18.46506
G1 X99.713 Y118.308 E18.48637
G1 X101.228 Y118.312 E18.56196
G1 X101.925 Y118.3 E18.59674
G1 X102.401 Y118.339 E18.62056
G1 X102.615 Y118.338 E18.63124
G1 X102.822 Y118.3 E18.64174
G1 X103.034 Y118.211 E18.65321
G1 X103.224 Y118.057 E18.66541
G1 X103.357 Y117.876 E18.67662
G1 X103.451 Y117.665 E18.68814
G1 X103.502 Y117.436 E18.69985
G1 X103.512 Y117.206 E18.71133
G1 X103.481 Y116.989 E18.72227
G1 X103.412 Y116.784 E18.73306
G1 X103.288 Y116.582 E18.74488
G1 X103.119 Y116.416 E18.7567
G1 X102.927 Y116.296 E18.768
G1 X102.725 Y116.218 E18.7788
G1 X102.507 Y116.17 E18.78994
G1 X102.275 Y116.153 E18.80154
G1 X101.668 Y116.172 E18.83184
G1 X98.848 Y116.166 E18.97253
G1 X98.769 Y116.166 E18.97647
G1 X98.609 Y116.169 E18.98446
G1 X98.592 Y116.17 E18.98531
G1 X98.592 Y116.155
G1 X98.604 Y115.987 E18.98966
G1 X98.605 Y115.908 E18.99361
G1 X98.61 Y115.651 E19.00643
G1 X98.594 Y115.332 E19.02236
G1 X98.563 Y115.11 E19.03355
G1 X98.509 Y114.912 E19.04379
G1 X98.419 Y114.719 E19.05441
G1 X98.286 Y114.546 E19.0653
G1 X98.126 Y114.415 E19.07561
G1 X98.108 Y114.401 E19.07675
G1 X98.066 Y114.382 E19.07905
G1 X97.988 Y114.345 E19.08336
G1 X98.08 Y114.315 E19.08428
G1 X98.099 Y114.309
G1 X98.144 Y114.285
G1 X98.3 Y114.201 E19.08989
G1 X98.479 Y114.062 E19.1012
G1 X98.623 Y113.903 E19.1119
G1 X98.722 Y113.747 E19.12112
G1 X98.796 Y113.556 E19.13133
G1 X98.801 Y113.542 E19.13208
G1 X98.812 Y113.442 E19.1371
G1 X98.826 Y113.324 E19.14302
G1 X98.922 Y113.418 E19.14484
G1 X98.963 Y113.459 E19.14511
G1 X99.167 Y113.584 E19.15445
G1 X99.181 Y113.589 E19.15519
G1 X99.379 Y113.666 E19.16579
G1 X99.603 Y113.713 E19.17721
G1 X99.828 Y113.716 E19.18843
G1 X100.044 Y113.68 E19.19936
G1 X100.26 Y113.591 E19.21101
G1 X100.45 Y113.437 E19.22321
G1 X100.582 Y113.257 E19.23435
G1 X100.665 Y113.067 E19.24469
G1 X100.716 Y112.869 E19.2549
G1 X100.787 Y112.465 E19.27536
G1 X100.814 Y112.385 E19.27957
G1 X100.859 Y112.289 E19.28486
G1 X100.896 Y112.231 E19.28829
G1 X100.96 Y112.156 E19.29321
G1 X101.033 Y112.089 E19.29816
G1 X101.094 Y112.045 E19.30191
G1 X101.211 Y111.99 E19.30836
G1 X101.227 Y111.983 E19.30923
G1 X101.309 Y111.972 E19.31336
G1 X101.391 Y111.985 E19.3175
G1 X101.47 Y112.025 E19.32192
G1 X101.527 Y112.085 E19.32605
G1 X101.56 Y112.15 E19.32968
G1 X101.567 Y112.182 E19.33132
G1 X101.54 Y112.218 E19.33328
G1 X101.53 Y112.232 E19.33413
G1 X101.331 Y112.496 E19.35062
G1 X101.222 Y112.677 E19.36116
G1 X101.142 Y112.881 E19.3721
G1 X101.099 Y113.068 E19.38167
G1 X101.083 Y113.291 E19.39282
G1 X101.103 Y113.516 E19.40409
G1 X101.163 Y113.732 E19.41528
G1 X101.259 Y113.925 E19.42603
G1 X101.396 Y114.1 E19.43712
G1 X101.582 Y114.249 E19.44901
G1 X101.799 Y114.345 E19.46085
G1 X102.025 Y114.395 E19.47239
G1 X102.26 Y114.396 E19.48412
G1 X102.489 Y114.358 E19.4957
G1 X102.7 Y114.283 E19.50687
G1 X102.882 Y114.185 E19.51718
G1 X103.067 Y114.04 E19.52891
G1 X103.225 Y113.862 E19.54079
G1 X103.346 Y113.676 E19.55186
G1 X103.449 Y113.468 E19.56344
G1 X103.535 Y113.22 E19.57653
G1 X103.615 Y112.863 E19.59478
G1 X103.648 Y112.581 E19.60895
G1 X103.657 Y112.274 E19.62427
G1 X103.647 Y111.983 E19.6388
G1 X103.613 Y111.704 E19.65282
G1 X103.558 Y111.451 E19.66574
G1 X103.477 Y111.207 E19.67856
G1 X103.368 Y110.968 E19.69167
G1 X103.233 Y110.744 E19.70472
G1 X103.076 Y110.539 E19.7176
G1 X102.894 Y110.35 E19.73069
G1 X102.69 Y110.182 E19.74388
G1 X102.466 Y110.034 E19.75727
G1 X102.223 Y109.908 E19.77093
G1 X102.023 Y109.83 E19.78164
G1 X101.974 Y109.811 E19.78426
G1 X101.75 Y109.749 E19.79585
G1 X101.722 Y109.741 E19.79731
G1 X101.476 Y109.701 E19.80974
G1 X101.228 Y109.687 E19.82213
G1 X100.979 Y109.703 E19.83458
G1 X100.726 Y109.745 E19.84738
G1 X100.449 Y109.818 E19.86167
G1 X100.268 Y109.873 E19.87111
G1 X100.113 Y109.921 E19.8792
G1 X99.903 Y110.003 E19.89045
G1 X99.713 Y110.105 E19.90121
G1 X99.541 Y110.234 E19.91193
G1 X99.481 Y110.297 E19.91627
G1 X99.453 Y110.269 E19.91825
G1 X99.263 Y110.141 E19.92968
G1 X99.066 Y110.051 E19.94048
G1 X98.856 Y109.993 E19.95135
G1 X98.611 Y109.956 E19.96371
G1 X98.312 Y109.933 E19.97868
G1 X98.065 Y109.932 E19.991
G1 X97.834 Y109.953 E20.00257
G1 X97.609 Y110.002 E20.01406
G1 X97.39 Y110.083 E20.02571
G1 X97.177 Y110.201 E20.03786
G1 X96.981 Y110.351 E20.05017
G1 X96.808 Y110.524 E20.06238
G1 X96.658 Y110.717 E20.07457
G1 X96.533 Y110.933 E20.08702
G1 X96.432 Y111.174 E20.10006
G1 X96.362 Y111.411 E20.11239
G1 X96.322 Y111.611 E20.12256
G1 X96.284 Y111.907 E20.13745
G1 X96.271 Y112.217 E20.15293
G1 X96.281 Y112.523 E20.16821
G1 X96.303 Y112.73 E20.17859
G1 X96.351 Y112.994 E20.19198
G1 X96.419 Y113.242 E20.20481
G1 X96.514 Y113.479 E20.21755
G1 X96.629 Y113.702 E20.23006
G1 X96.758 Y113.895 E20.24165
G1 X96.875 Y114.028 E20.25048
G1 X96.902 Y114.059 E20.25253
G1 X97.066 Y114.202 E20.26339
G1 X97.152 Y114.25 E20.2683
G1 X97.202 Y114.279 E20.27119
G1 X97.127 Y114.295 E20.27175
G1 X97.109 Y114.302
G1 X97.021 Y114.339 E20.2732
G1 X96.921 Y114.382 E20.27622
G1 X96.888 Y114.406 E20.27826
G1 X96.733 Y114.52 E20.28786
G1 X96.588 Y114.704 E20.29955
G1 X96.498 Y114.906 E20.31058
G1 X96.454 Y115.111 E20.32104
G1 X96.441 Y115.315 E20.33124
G1 X96.45 Y116.028 E20.36681
G1 X96.447 Y117.602 E20.44534
G1 X96.456 Y118.438 E20.48705
G1 X96.447 Y118.663 E20.49829
G1 X96.422 Y118.918 E20.51107
G1 X96.412 Y119.133 E20.52181
G1 X96.43 Y119.339 E20.53212
G1 X96.483 Y119.533 E20.54216
G1 X96.578 Y119.719 E20.55258
G1 X96.728 Y119.898 E20.56423
G1 X96.904 Y120.031 E20.57523
G1 X96.914 Y120.038 E20.57584
