;FLAVOR:Marlin
;TIME:2168
;Filament used: 1.47711m
;Layer height: 0.3
;Generated with Cura_SteamEngine 3.4.1
M190 S64
M104 S200
M109 S200
M82 ;absolute extrusion mode
G21 ;metric values
G90 ;absolute positioning
M82 ;set extruder to absolute mode
M107 ;start with the fan off
G28 X0 Y0 ;move X/Y to min endstops
G28 Z0 ;move Z to min endstops
G1 Z15.0 F9000 ;move the platform down 15mm
G92 E0 ;zero the extruded length
G1 F200 E3 ;extrude 3mm of feed stock
G92 E0 ;zero the extruded length again
G1 F9000
;Put printing message on LCD screen
M117 Printing...
G92 E0
G1 F1500 E-5
;LAYER_COUNT:81
;LAYER:0
M107
G0 F3600 X57.824 Y79.705 Z0.3
;TYPE:SKIRT
G1 F1500 E0
G1 F1050 X58.266 Y79.401 E0.02676
G1 X58.749 Y79.167 E0.05354
G1 X59.261 Y79.007 E0.0803
G1 X59.791 Y78.924 E0.10707
G1 X60.077 Y78.913 E0.12134
G1 X78.058 Y78.914 E1.01842
G1 X78.723 Y78.976 E1.05174
G1 X84.621 Y80.084 E1.35114
G1 X90.031 Y80.776 E1.62325
G1 X95.462 Y81.161 E1.89488
G1 X100.921 Y81.239 E2.16726
G1 X106.377 Y81.007 E2.43971
G1 X111.778 Y80.471 E2.71049
G1 X117.222 Y79.617 E2.98541
G1 X120.368 Y78.984 E3.14551
G1 X121.078 Y78.913 E3.18111
G1 X139.058 Y78.913 E4.07813
G1 X139.593 Y78.953 E4.1049
G1 X140.116 Y79.072 E4.13166
G1 X140.615 Y79.267 E4.15839
G1 X141.08 Y79.535 E4.18516
G1 X141.5 Y79.868 E4.21191
G1 X141.866 Y80.26 E4.23866
G1 X142.169 Y80.702 E4.2654
G1 X142.404 Y81.185 E4.29219
G1 X142.564 Y81.696 E4.31891
G1 X142.647 Y82.226 E4.34567
G1 X142.658 Y82.515 E4.3601
G1 X142.639 Y110.931 E5.77778
G1 X142.591 Y111.516 E5.80707
G1 X142.303 Y113.258 E5.89515
G1 X142.123 Y113.931 E5.92991
G1 X141.639 Y115.226 E5.99888
G1 X141.423 Y115.699 E6.02483
G1 X140.998 Y116.473 E6.06888
G1 X140.762 Y116.846 E6.0909
G1 X140.167 Y117.671 E6.14165
G1 X139.841 Y118.061 E6.16701
G1 X138.995 Y118.94 E6.22787
G1 X138.649 Y119.256 E6.25125
G1 X137.94 Y119.823 E6.29654
G1 X137.522 Y120.111 E6.32187
G1 X136.311 Y120.826 E6.39203
G1 X135.66 Y121.127 E6.42781
G1 X134.027 Y121.693 E6.51404
G1 X133.259 Y121.868 E6.55333
G1 X131.51 Y122.069 E6.64117
G1 X131.098 Y122.093 E6.66176
G1 X67.618 Y122.074 E9.82879
G1 X67.024 Y122.024 E9.85853
G1 X65.282 Y121.732 E9.94665
G1 X64.608 Y121.551 E9.98146
G1 X63.336 Y121.072 E10.04928
G1 X62.868 Y120.856 E10.07499
G1 X62.08 Y120.422 E10.11987
G1 X61.574 Y120.085 E10.1502
G1 X60.182 Y118.976 E10.239
G1 X59.745 Y118.564 E10.26896
G1 X59.136 Y117.885 E10.31446
G1 X58.768 Y117.396 E10.345
G1 X57.821 Y115.889 E10.43379
G1 X57.543 Y115.352 E10.46396
G1 X57.2 Y114.524 E10.50868
G1 X57.017 Y113.95 E10.53873
G1 X56.622 Y112.226 E10.62697
G1 X56.537 Y111.631 E10.65696
G1 X56.481 Y110.67 E10.70498
G1 X56.475 Y110.461 E10.71542
G1 X56.477 Y82.513 E12.10975
G1 X56.517 Y81.978 E12.13651
G1 X56.636 Y81.455 E12.16327
G1 X56.831 Y80.956 E12.19
G1 X57.099 Y80.491 E12.21678
G1 X57.432 Y80.071 E12.24352
G1 X57.824 Y79.705 E12.27027
G0 F3600 X58.213 Y79.912
G1 F1050 X58.646 Y79.651 E12.2955
G1 X59.115 Y79.461 E12.32074
G1 X59.607 Y79.348 E12.34593
G1 X60.077 Y79.313 E12.36944
G1 X78.058 Y79.314 E13.26652
G1 X78.649 Y79.369 E13.29613
G1 X84.565 Y80.48 E13.59644
G1 X89.987 Y81.174 E13.86915
G1 X95.445 Y81.561 E14.14214
G1 X100.932 Y81.639 E14.41591
G1 X106.399 Y81.407 E14.68891
G1 X111.843 Y80.866 E14.96185
G1 X117.271 Y80.015 E15.23596
G1 X120.447 Y79.376 E15.39758
G1 X121.078 Y79.313 E15.42922
G1 X139.058 Y79.313 E16.32625
G1 X139.562 Y79.353 E16.35147
G1 X140.053 Y79.472 E16.37668
G1 X140.52 Y79.666 E16.40191
G1 X140.95 Y79.932 E16.42713
G1 X141.333 Y80.262 E16.45235
G1 X141.659 Y80.649 E16.4776
G1 X141.92 Y81.082 E16.50282
G1 X142.11 Y81.55 E16.52802
G1 X142.223 Y82.043 E16.55326
G1 X142.258 Y82.515 E16.57687
G1 X142.239 Y110.931 E17.99455
G1 X142.196 Y111.451 E18.02058
G1 X141.908 Y113.193 E18.10867
G1 X141.748 Y113.791 E18.13955
G1 X141.264 Y115.086 E18.20852
G1 X141.072 Y115.506 E18.23156
G1 X140.647 Y116.28 E18.27562
G1 X140.437 Y116.612 E18.29522
G1 X139.842 Y117.437 E18.34596
G1 X139.553 Y117.784 E18.36849
G1 X138.707 Y118.663 E18.42936
G1 X138.4 Y118.943 E18.45009
G1 X137.691 Y119.51 E18.49538
G1 X137.319 Y119.767 E18.51794
G1 X136.108 Y120.482 E18.5881
G1 X135.529 Y120.75 E18.61993
G1 X133.896 Y121.316 E18.70616
G1 X133.213 Y121.471 E18.7411
G1 X131.464 Y121.672 E18.82893
G1 X131.098 Y121.693 E18.84722
G1 X67.618 Y121.674 E22.01425
G1 X67.09 Y121.63 E22.04068
G1 X65.348 Y121.338 E22.1288
G1 X64.749 Y121.177 E22.15975
G1 X63.477 Y120.698 E22.22756
G1 X63.061 Y120.506 E22.25042
G1 X62.273 Y120.072 E22.2953
G1 X61.823 Y119.772 E22.32228
G1 X60.431 Y118.663 E22.41108
G1 X60.043 Y118.297 E22.43769
G1 X59.434 Y117.618 E22.48319
G1 X59.107 Y117.184 E22.5103
G1 X58.16 Y115.677 E22.5991
G1 X57.913 Y115.199 E22.62594
G1 X57.57 Y114.371 E22.67065
G1 X57.407 Y113.861 E22.69737
G1 X57.012 Y112.137 E22.78561
G1 X56.936 Y111.608 E22.81227
G1 X56.88 Y110.647 E22.86029
G1 X56.875 Y110.461 E22.86958
G1 X56.877 Y82.513 E24.26391
G1 X56.917 Y82.009 E24.28913
G1 X57.036 Y81.517 E24.31439
G1 X57.231 Y81.051 E24.33959
G1 X57.496 Y80.621 E24.36479
G1 X57.827 Y80.238 E24.39004
G1 X58.213 Y79.912 E24.41525
G1 F1500 E19.41525
G1 F180 Z1.3
G0 F3600 X60.967 Y84.404 Z1.3
;TYPE:WALL-INNER
G1 F180 Z0.3
G1 F1500 E24.41525
G1 F1050 X60.967 Y106.104 E25.49787
G1 X65.967 Y106.104 E25.74732
G1 X65.967 Y116.333 E26.25764
G1 X66.005 Y116.725 E26.27729
G1 X66.056 Y116.924 E26.28754
G1 X66.166 Y117.238 E26.30414
G1 X66.182 Y117.285 E26.30662
G1 X66.457 Y117.724 E26.33246
G1 X66.088 Y117.62 E26.33968
G1 X66.04 Y117.607 E26.34202
G1 X65.632 Y117.491 E26.36318
G1 X64.854 Y117.168 E26.40521
G1 X64.132 Y116.77 E26.44634
G1 X63.447 Y116.283 E26.48827
G1 X62.834 Y115.736 E26.52926
G1 X62.287 Y115.123 E26.57025
G1 X61.803 Y114.441 E26.61197
G1 X61.401 Y113.715 E26.65337
G1 X61.081 Y112.942 E26.69511
G1 X60.852 Y112.147 E26.73639
G1 X60.715 Y111.337 E26.77737
G1 X60.667 Y110.493 E26.81955
G1 X60.667 Y106.104 E27.03852
G1 X60.667 Y84.404 E27.85048
G1 X60.667 Y83.104 E27.91534
G1 X65.967 Y83.104 E28.17975
G1 X65.967 Y84.404 E28.24461
G1 X60.967 Y84.404 E28.49406
G0 F3600 X60.897 Y84.334
G0 X61.339 Y105.732
G0 X66.509 Y117.129
G0 X66.734 Y117.491
G0 X67.081 Y117.839
G0 X67.435 Y118.057
G0 X67.839 Y118.197
G0 X69.88 Y118.243
G0 X70.292 Y118.198
G0 X70.697 Y118.058
G0 X71.06 Y117.835
G0 X71.405 Y117.484
G0 X77.237 Y106.174
G0 X77.167 Y106.104
G1 F1050 X77.167 Y84.404 E29.57668
G1 X72.166 Y84.404 E29.82618
G1 X72.166 Y83.104 E29.89104
G1 X77.467 Y83.104 E30.15551
G1 X77.467 Y84.404 E30.22036
G1 X77.467 Y106.104 E31.03233
G1 X77.467 Y112.011 E31.32703
G1 X77.529 Y112.726 E31.36283
G1 X77.712 Y113.407 E31.39801
G1 X78.008 Y114.045 E31.4331
G1 X78.43 Y114.646 E31.46974
G1 X78.929 Y115.146 E31.50498
G1 X79.524 Y115.561 E31.54117
G1 X80.163 Y115.857 E31.57631
G1 X80.857 Y116.043 E31.61215
G1 X81.54 Y116.104 E31.64636
G1 X89.117 Y116.104 E32.02438
G1 X89.118 Y117.704 E32.10421
G1 X89.118 Y117.904 E32.11418
G1 X88.918 Y117.904 E32.12065
G1 X71.868 Y117.904 E32.97127
G1 X71.7 Y117.904 E32.97965
G1 X71.619 Y117.904 E32.9837
G1 X71.505 Y117.904 E32.98938
G1 X71.619 Y117.792 E32.99188
G1 X71.7 Y117.693 E32.99542
G1 X71.787 Y117.55 E33.00205
G1 X71.951 Y117.283 E33.01768
G1 X72.114 Y116.807 E33.04278
G1 X72.163 Y116.391 E33.06368
G1 X72.167 Y106.104 E33.5769
G1 X77.167 Y106.104 E33.82635
G0 F3600 X77.237 Y106.174
G0 X77.885 Y112.662
G0 X78.052 Y113.283
G0 X78.322 Y113.864
G0 X78.708 Y114.413
G0 X79.162 Y114.868
G0 X79.705 Y115.247
G0 X80.287 Y115.517
G0 X89.49 Y118.137
G0 X109.645 Y118.138
G0 X118.848 Y115.517
G0 X119.447 Y115.237
G0 X119.972 Y114.867
G0 X120.443 Y114.391
G0 X120.811 Y113.864
G0 X121.082 Y113.283
G0 X121.248 Y112.663
G0 X121.264 Y112.474
G0 X121.897 Y84.334
G0 X121.967 Y84.404
G1 F1050 X121.967 Y106.104 E34.90897
G1 X126.967 Y106.104 E35.15842
G1 X126.967 Y116.333 E35.66875
G1 X127.005 Y116.725 E35.68839
G1 X127.056 Y116.924 E35.69864
G1 X127.182 Y117.285 E35.71772
G1 X127.349 Y117.554 E35.73352
G1 X127.447 Y117.714 E35.74288
G1 X127.63 Y117.904 E35.75604
G1 X127.447 Y117.904 E35.75733
G1 X127.259 Y117.904 E35.76457
G1 X110.017 Y117.904 E36.62478
G1 X110.017 Y116.104 E36.71458
G1 X117.603 Y116.104 E37.09304
G1 X118.292 Y116.041 E37.12756
G1 X118.973 Y115.857 E37.16276
G1 X119.628 Y115.55 E37.19885
G1 X120.206 Y115.144 E37.23408
G1 X120.721 Y114.623 E37.27063
G1 X121.125 Y114.046 E37.30577
G1 X121.422 Y113.407 E37.34093
G1 X121.604 Y112.727 E37.37605
G1 X121.667 Y112.011 E37.41191
G1 X121.667 Y106.104 E37.70661
G1 X121.667 Y84.404 E38.51857
G1 X121.667 Y83.104 E38.58343
G1 X126.967 Y83.104 E38.84785
G1 X126.967 Y84.404 E38.91271
G1 X121.967 Y84.404 E39.16216
G0 F3600 X121.897 Y84.334
G0 X122.339 Y105.732
G0 X127.509 Y117.129
G0 X127.734 Y117.491
G0 X128.081 Y117.839
G0 X128.435 Y118.057
G0 X128.839 Y118.197
G0 X130.88 Y118.243
G0 X131.292 Y118.198
G0 X131.697 Y118.058
G0 X132.06 Y117.835
G0 X132.405 Y117.484
G0 X138.237 Y106.174
G0 X138.167 Y106.104
G1 F1050 X138.167 Y84.404 E40.24477
G1 X133.166 Y84.404 E40.49427
G1 X133.166 Y83.104 E40.55913
G1 X138.467 Y83.104 E40.8236
G1 X138.467 Y84.404 E40.88846
G1 X138.467 Y106.104 E41.70042
G1 X138.467 Y110.493 E41.91939
G1 X138.418 Y111.337 E41.96157
G1 X138.281 Y112.151 E42.00275
G1 X138.053 Y112.944 E42.04391
G1 X137.732 Y113.715 E42.08558
G1 X137.334 Y114.438 E42.12676
G1 X136.85 Y115.119 E42.16844
G1 X136.299 Y115.736 E42.20971
G1 X135.679 Y116.29 E42.25119
G1 X135.005 Y116.767 E42.29238
G1 X134.277 Y117.169 E42.33387
G1 X133.507 Y117.49 E42.37549
G1 X133.093 Y117.609 E42.39698
G1 X133.049 Y117.621 E42.39926
G1 X132.714 Y117.718 E42.41666
G1 X132.704 Y117.719 E42.41716
G1 X132.674 Y117.724 E42.41868
G1 X132.693 Y117.701 E42.41877
G1 X132.7 Y117.693
G1 X132.951 Y117.283 E42.43257
G1 X132.965 Y117.24 E42.43471
G1 X133.114 Y116.807 E42.45756
G1 X133.163 Y116.391 E42.47845
G1 X133.167 Y106.104 E42.99167
G1 X138.167 Y106.104 E43.24112
G0 F3600 X138.237 Y106.174
G0 X132.405 Y117.484
G0 X132.06 Y117.835
G0 X131.697 Y118.058
G0 X131.292 Y118.198
G0 X130.137 Y118.223
G0 X110.087 Y117.834
G0 X109.617 Y118.11
;TYPE:WALL-OUTER
G1 F1050 X109.617 Y117.91 E43.2511
G1 X109.617 Y115.704 E43.36116
G1 X117.585 Y115.704 E43.75869
G1 X118.221 Y115.646 E43.79055
G1 X118.835 Y115.48 E43.82228
G1 X119.427 Y115.203 E43.85489
G1 X119.947 Y114.837 E43.88661
G1 X120.413 Y114.366 E43.91967
G1 X120.777 Y113.845 E43.95138
G1 X121.045 Y113.27 E43.98303
G1 X121.209 Y112.657 E44.01468
G1 X121.267 Y111.994 E44.04789
G1 X121.267 Y82.704 E45.50917
G1 X127.367 Y82.704 E45.8135
G1 X127.367 Y84.804 E45.91827
G1 X122.367 Y84.804 E46.16772
G1 X122.367 Y105.704 E47.21043
G1 X127.367 Y105.704 E47.45988
G1 X127.367 Y116.314 E47.98921
G1 X127.4 Y116.656 E48.00636
G1 X127.439 Y116.808 E48.01418
G1 X127.545 Y117.112 E48.03025
G1 X127.765 Y117.467 E48.05108
G1 X128.047 Y117.76 E48.07137
G1 X128.104 Y117.807 E48.07506
G1 X128.277 Y117.913 E48.08518
G1 X128.452 Y118.021 E48.09544
G1 X128.847 Y118.158 E48.1163
G1 X129.256 Y118.204 E48.13683
G1 X130.878 Y118.204 E48.21775
G1 X131.043 Y118.186 E48.22603
G1 X131.284 Y118.159 E48.23813
G1 X131.68 Y118.022 E48.25904
G1 X131.769 Y117.968 E48.26423
G1 X131.914 Y117.879 E48.27272
G1 X132.036 Y117.804 E48.27986
G1 X132.323 Y117.522 E48.29994
G1 X132.373 Y117.461 E48.30387
G1 X132.587 Y117.112 E48.3243
G1 X132.722 Y116.718 E48.34508
G1 X132.763 Y116.368 E48.36266
G1 X132.767 Y105.704 E48.89469
G1 X137.767 Y105.704 E49.14414
G1 X137.767 Y84.804 E50.18684
G1 X132.766 Y84.804 E50.43634
G1 X132.766 Y82.704 E50.54111
G1 X138.867 Y82.704 E50.84549
G1 X138.867 Y110.493 E52.23189
G1 X138.816 Y111.382 E52.27632
G1 X138.671 Y112.24 E52.31973
G1 X138.431 Y113.074 E52.36303
G1 X138.092 Y113.89 E52.40711
G1 X137.671 Y114.654 E52.45063
G1 X137.163 Y115.369 E52.49439
G1 X136.582 Y116.019 E52.53788
G1 X135.933 Y116.6 E52.58134
G1 X135.217 Y117.107 E52.62511
G1 X134.453 Y117.529 E52.66866
G1 X133.637 Y117.868 E52.71274
G1 X132.803 Y118.108 E52.75604
G1 X132.112 Y118.225 E52.791
G1 X131.945 Y118.253 E52.79876
G1 X131.695 Y118.267 E52.80887
G1 X131.292 Y118.29 E52.81823
G1 X131.056 Y118.304 E52.8218
G1 X130.878 Y118.304 E52.82446
G1 X129.256 Y118.304 E52.84469
G1 X128.847 Y118.304 E52.85094
G1 X128.452 Y118.304 E52.86139
G1 X128.246 Y118.304 E52.87022
G1 X109.617 Y118.304 E53.79962
G1 X89.518 Y118.304 E54.80237
G1 X89.416 Y118.304 E54.80745
G1 X70.889 Y118.304 E55.73177
G1 X70.68 Y118.304 E55.7422
G1 X70.284 Y118.304 E55.76195
G1 X69.878 Y118.304 E55.78221
G1 X68.256 Y118.304 E55.86313
G1 X68.078 Y118.304 E55.87201
G1 X67.841 Y118.291 E55.88385
G1 X67.438 Y118.268 E55.90399
G1 X67.189 Y118.253 E55.91644
G1 X67.025 Y118.226 E55.92473
G1 X66.331 Y118.108 E55.95985
G1 X65.496 Y117.868 E56.0032
G1 X64.681 Y117.529 E56.04723
G1 X63.916 Y117.107 E56.09082
G1 X63.202 Y116.6 E56.13451
G1 X62.551 Y116.019 E56.17804
G1 X61.97 Y115.368 E56.22157
G1 X61.463 Y114.654 E56.26526
G1 X61.039 Y113.887 E56.30899
G1 X60.705 Y113.08 E56.35256
G1 X60.462 Y112.237 E56.39633
G1 X60.317 Y111.382 E56.43959
G1 X60.267 Y110.493 E56.48402
G1 X60.267 Y82.704 E57.87042
G1 X66.367 Y82.704 E58.17475
G1 X66.367 Y84.804 E58.27952
G1 X61.367 Y84.804 E58.52897
G1 X61.367 Y105.704 E59.57167
G1 X66.367 Y105.704 E59.82112
G1 X66.367 Y116.314 E60.35046
G1 X66.4 Y116.656 E60.3676
G1 X66.439 Y116.808 E60.37543
G1 X66.545 Y117.112 E60.39149
G1 X66.765 Y117.467 E60.41233
G1 X67.047 Y117.76 E60.43262
G1 X67.104 Y117.807 E60.4363
G1 X67.223 Y117.88 E60.44327
G1 X67.365 Y117.967 E60.45036
G1 X67.452 Y118.021 E60.45313
G1 X67.847 Y118.158 E60.46414
G1 X68.091 Y118.185 E60.46813
G1 X68.256 Y118.204 E60.4702
G1 X69.878 Y118.204 E60.49043
G1 X70.284 Y118.159 E60.49672
G1 X70.68 Y118.022 E60.50829
G1 X70.858 Y117.913 E60.51722
G1 X71.036 Y117.804 E60.52763
G1 X71.323 Y117.522 E60.5477
G1 X71.373 Y117.461 E60.55164
G1 X71.587 Y117.112 E60.57206
G1 X71.722 Y116.718 E60.59284
G1 X71.763 Y116.368 E60.61042
G1 X71.767 Y105.704 E61.14245
G1 X76.767 Y105.704 E61.3919
G1 X76.767 Y84.804 E62.43461
G1 X71.766 Y84.804 E62.68411
G1 X71.766 Y82.704 E62.78888
G1 X77.867 Y82.704 E63.09326
G1 X77.867 Y111.994 E64.55454
G1 X77.924 Y112.656 E64.58769
G1 X78.089 Y113.27 E64.61941
G1 X78.356 Y113.844 E64.651
G1 X78.738 Y114.388 E64.68416
G1 X79.187 Y114.838 E64.71587
G1 X79.724 Y115.213 E64.74855
G1 X80.3 Y115.48 E64.78022
G1 X80.927 Y115.648 E64.81261
G1 X81.558 Y115.704 E64.84421
G1 X89.517 Y115.704 E65.24129
G1 X89.518 Y118.007 E65.35619
G1 X89.518 Y118.109 E65.36036
G1 X109.417 Y118.11 E66.35312
G1 X109.617 Y118.11 E66.35958
G0 F3600 X109.617 Y117.91
G0 X110.087 Y117.834
G0 X110.407 Y117.514
;TYPE:SKIN
G1 F1050 X110.407 Y116.494 E66.41047
G1 X117.621 Y116.494 E66.77038
G1 X118.361 Y116.427 E66.80745
G1 X119.108 Y116.225 E66.84605
G1 X119.825 Y115.889 E66.88556
G1 X120.459 Y115.443 E66.92423
G1 X121.021 Y114.874 E66.96413
G1 X121.464 Y114.241 E67.00268
G1 X121.79 Y113.541 E67.0412
G1 X121.99 Y112.795 E67.07973
G1 X122.057 Y112.028 E67.11814
G1 X122.057 Y106.494 E67.39424
G1 X126.577 Y106.494 E67.61974
G1 X126.577 Y116.352 E68.11156
G1 X126.619 Y116.793 E68.13366
G1 X126.682 Y117.037 E68.14623
G1 X126.827 Y117.454 E68.16826
G1 X126.864 Y117.514 E68.17178
G1 X110.407 Y117.514 E68.99282
G0 F3600 X111.11 Y117.333
G1 F1050 X110.586 Y116.809 E69.02979
G0 F3600 X111.017 Y116.674
G1 F1050 X111.676 Y117.333 E69.07629
G1 X111.746 Y117.403
G0 F3600 X112.241 Y117.333
G1 F1050 X111.582 Y116.674 E69.12278
G1 X111.512 Y116.604
G0 F3600 X112.148 Y116.674
G1 F1050 X112.807 Y117.333 E69.16928
G1 X112.877 Y117.403
G0 F3600 X113.373 Y117.333
G1 F1050 X112.714 Y116.674 E69.21577
G1 X112.644 Y116.604
G0 F3600 X113.279 Y116.674
G1 F1050 X113.938 Y117.333 E69.26227
G1 X114.008 Y117.403
G0 F3600 X114.504 Y117.333
G1 F1050 X113.845 Y116.674 E69.30877
G1 X113.775 Y116.604
G0 F3600 X114.411 Y116.674
G1 F1050 X115.07 Y117.333 E69.35526
G1 X115.14 Y117.403
G0 F3600 X115.636 Y117.333
G1 F1050 X114.976 Y116.674 E69.40179
G1 X114.906 Y116.604
G0 F3600 X115.542 Y116.674
G1 F1050 X116.201 Y117.333 E69.44829
G1 X116.271 Y117.403
G0 F3600 X116.767 Y117.333
G1 F1050 X116.108 Y116.674 E69.49478
G1 X116.038 Y116.604
G0 F3600 X116.674 Y116.674
