;FLAVOR:Marlin
;TIME:9712
;Filament used: 9.18206m
;Layer height: 0.3
;Generated with Cura_SteamEngine 3.4.1
M190 S64
M104 S200
M109 S200
M82 ;absolute extrusion mode
G21 ;metric values
G90 ;absolute positioning
M82 ;set extruder to absolute mode
M107 ;start with the fan off
G28 X0 Y0 ;move X/Y to min endstops
G28 Z0 ;move Z to min endstops
G1 Z15.0 F9000 ;move the platform down 15mm
G92 E0 ;zero the extruded length
G1 F200 E3 ;extrude 3mm of feed stock
G92 E0 ;zero the extruded length again
G1 F9000
;Put printing message on LCD screen
M117 Printing...
G92 E0
G1 F1500 E-5
;LAYER_COUNT:34
;LAYER:0
M107
G0 F3600 X34.969 Y28.01 Z0.3
;TYPE:SKIRT
G1 F1500 E0
G1 F1050 X35.508 Y27.392 E0.04091
G1 X35.915 Y27.001 E0.06907
G1 X36.517 Y26.517 E0.10761
G1 X36.973 Y26.211 E0.135
G1 X37.676 Y25.822 E0.17509
G1 X38.188 Y25.595 E0.20303
G1 X38.944 Y25.336 E0.2429
G1 X39.506 Y25.198 E0.27177
G1 X40.325 Y25.075 E0.31309
G1 X40.792 Y25.04 E0.33645
G1 X67.786 Y24.969 E1.68319
G1 X73.251 Y24.66 E1.95628
G1 X78.71 Y24.039 E2.23039
G1 X84.12 Y23.112 E2.50422
G1 X86.739 Y22.547 E2.63789
G1 X89.408 Y21.893 E2.77499
G1 X94.699 Y20.356 E3.04987
G1 X99.455 Y18.7 E3.30112
G1 X99.719 Y18.62 E3.31488
G1 X100.53 Y18.414 E3.35663
G1 X101.042 Y18.328 E3.38253
G1 X101.874 Y18.256 E3.42419
G1 X102.151 Y18.244 E3.43803
G1 X150.064 Y18.253 E5.82842
G1 X150.459 Y18.278 E5.84816
G1 X151.277 Y18.38 E5.88929
G1 X151.951 Y18.539 E5.92384
G1 X153.324 Y19.026 E5.99652
G1 X153.686 Y19.181 E6.01616
G1 X163.091 Y23.889 E6.54089
G1 X163.337 Y24.025 E6.55491
G1 X164.11 Y24.501 E6.6002
G1 X164.528 Y24.808 E6.62608
G1 X165.217 Y25.405 E6.67156
G1 X165.585 Y25.781 E6.69781
G1 X166.17 Y26.487 E6.74355
G1 X166.468 Y26.912 E6.76945
G1 X166.944 Y27.725 E6.81645
G1 X167.176 Y28.212 E6.84336
G1 X167.501 Y29.073 E6.88927
G1 X167.646 Y29.58 E6.91558
G1 X167.828 Y30.497 E6.96222
G1 X167.889 Y31.068 E6.99087
G1 X167.906 Y32.108 E7.04277
G1 X167.842 Y32.799 E7.07739
G1 X166.448 Y39.64 E7.4257
G1 X166.014 Y42.277 E7.55903
G1 X165.347 Y47.752 E7.8342
G1 X164.994 Y53.196 E8.10637
G1 X164.949 Y58.684 E8.38018
G1 X165.214 Y64.149 E8.65315
G1 X165.786 Y69.589 E8.92605
G1 X166.67 Y75.009 E9.20003
G1 X167.224 Y77.693 E9.33675
G1 X167.839 Y80.648 E9.48734
G1 X167.906 Y81.3 E9.52004
G1 X167.906 Y82.216 E9.56574
G1 X167.864 Y82.731 E9.59152
G1 X167.721 Y83.608 E9.63585
G1 X167.565 Y84.202 E9.66649
G1 X167.152 Y85.32 E9.72595
G1 X166.961 Y85.74 E9.74897
G1 X163.927 Y91.318 E10.06576
G1 X161.584 Y96.284 E10.3397
G1 X159.516 Y101.395 E10.61477
G1 X158.631 Y103.886 E10.74666
G1 X157.002 Y109.165 E11.02229
G1 X155.683 Y114.487 E11.29584
G1 X155.131 Y117.196 E11.43376
G1 X154.673 Y119.837 E11.56749
G1 X148.794 Y164.144 E13.79735
G1 X148.662 Y164.721 E13.82688
G1 X148.29 Y165.854 E13.88638
G1 X148.013 Y166.47 E13.92007
G1 X147.58 Y167.211 E13.96289
G1 X147.177 Y167.758 E13.99679
G1 X146.415 Y168.59 E14.05307
G1 X146.012 Y168.961 E14.0804
G1 X141.604 Y172.367 E14.35832
G1 X137.466 Y175.958 E14.63166
G1 X134.935 Y178.361 E14.80578
G1 X134.579 Y178.653 E14.82875
G1 X133.794 Y179.208 E14.87672
G1 X133.316 Y179.487 E14.90433
G1 X132.412 Y179.915 E14.95423
G1 X131.883 Y180.111 E14.98237
G1 X130.96 Y180.362 E15.03009
G1 X130.415 Y180.46 E15.05772
G1 X129.422 Y180.552 E15.10747
G1 X128.856 Y180.555 E15.13571
G1 X127.866 Y180.471 E15.18528
G1 X127.45 Y180.407 E15.20628
G1 X122.196 Y179.253 E15.47465
G1 X119.559 Y178.792 E15.60821
G1 X114.116 Y178.071 E15.88213
G1 X108.643 Y177.659 E16.15595
G1 X103.191 Y177.558 E16.428
G1 X97.705 Y177.767 E16.7019
G1 X92.242 Y178.285 E16.97567
G1 X86.854 Y179.106 E17.24758
G1 X80.792 Y180.403 E17.55686
G1 X80.417 Y180.46 E17.57578
G1 X79.422 Y180.552 E17.62564
G1 X78.86 Y180.555 E17.65367
G1 X77.904 Y180.475 E17.70154
G1 X77.365 Y180.383 E17.72882
G1 X76.412 Y180.135 E17.77794
G1 X75.878 Y179.944 E17.80624
G1 X74.993 Y179.536 E17.85486
G1 X74.508 Y179.259 E17.88272
G1 X73.674 Y178.68 E17.93338
G1 X73.374 Y178.443 E17.95245
G1 X70.963 Y176.301 E18.11335
G1 X66.705 Y172.843 E18.38701
G1 X61.409 Y169.042 E18.71224
G1 X61.025 Y168.717 E18.73734
G1 X60.473 Y168.171 E18.77607
G1 X60.113 Y167.747 E18.80382
G1 X59.642 Y167.083 E18.84444
G1 X59.36 Y166.602 E18.87225
G1 X59.027 Y165.899 E18.91106
G1 X58.834 Y165.379 E18.93873
G1 X58.618 Y164.595 E18.9793
G1 X58.518 Y164.054 E19.00675
G1 X57.809 Y156.755 E19.37262
G1 X56.942 Y151.33 E19.6467
G1 X56.413 Y148.72 E19.77957
G1 X55.079 Y143.348 E20.05572
G1 X53.467 Y138.129 E20.32823
G1 X51.562 Y133.011 E20.60068
G1 X50.5 Y130.487 E20.7373
G1 X48.156 Y125.524 E21.01113
G1 X45.537 Y120.705 E21.28476
G1 X42.655 Y116.048 E21.55799
G1 X39.527 Y111.581 E21.83006
G1 X34.615 Y105.366 E22.22528
G1 X34.235 Y104.753 E22.26126
G1 X33.896 Y104.038 E22.30074
G1 X33.701 Y103.514 E22.32863
G1 X33.493 Y102.756 E22.36784
G1 X33.393 Y102.207 E22.39569
G1 X33.319 Y101.415 E22.43537
G1 X33.305 Y101.116 E22.4503
G1 X33.334 Y32.368 E25.88016
G1 X33.391 Y31.77 E25.91013
G1 X33.555 Y30.91 E25.9538
G1 X33.712 Y30.359 E25.98239
G1 X33.985 Y29.65 E26.02029
G1 X34.223 Y29.16 E26.04747
G1 X34.633 Y28.473 E26.08738
G1 X34.969 Y28.01 E26.11592
G1 F1500 E21.11592
G1 F180 Z1.3
G0 F3600 X48.849 Y37.666 Z1.3
;TYPE:WALL-INNER
G1 F180 Z0.3
G1 F1500 E26.11592
G1 F1050 X48.243 Y37.834 E26.1473
G1 X47.677 Y38.101 E26.17852
G1 X47.163 Y38.464 E26.20991
G1 X46.722 Y38.911 E26.24124
G1 X46.365 Y39.426 E26.2725
G1 X46.103 Y39.995 E26.30376
G1 X45.943 Y40.602 E26.33507
G1 X45.893 Y41.184 E26.36422
G1 X45.893 Y88.832 E28.74139
G1 X45.94 Y89.404 E28.77002
G1 X46.088 Y89.984 E28.79988
G1 X46.33 Y90.532 E28.82977
G1 X46.658 Y91.032 E28.8596
G1 X47.066 Y91.47 E28.88947
G1 X47.539 Y91.835 E28.91927
G1 X48.068 Y92.117 E28.94918
G1 X48.634 Y92.307 E28.97897
G1 X49.225 Y92.4 E29.00882
G1 X49.824 Y92.396 E29.0387
G1 X50.413 Y92.291 E29.06855
G1 X50.977 Y92.091 E29.0984
G1 X51.478 Y91.811 E29.12704
G1 X132.552 Y37.41 E33.99803
G1 X133.01 Y37.043 E34.02731
G1 X133.415 Y36.586 E34.05778
G1 X133.738 Y36.066 E34.08832
G1 X133.968 Y35.498 E34.11889
G1 X134.098 Y34.901 E34.14937
G1 X134.125 Y34.289 E34.17994
G1 X134.047 Y33.682 E34.21047
G1 X133.87 Y33.098 E34.24091
G1 X133.595 Y32.55 E34.2715
G1 X133.233 Y32.057 E34.30202
G1 X132.79 Y31.635 E34.33254
G1 X132.285 Y31.292 E34.363
G1 X131.727 Y31.04 E34.39354
G1 X131.135 Y30.884 E34.42409
G1 X130.551 Y30.835 E34.45333
G1 X104.169 Y30.835 E35.76953
G1 X103.596 Y30.883 E35.79822
G1 X103.013 Y31.032 E35.82824
G1 X102.486 Y31.266 E35.85701
G1 X94.166 Y35.823 E36.33028
G1 X91.939 Y36.811 E36.45182
G1 X89.607 Y37.408 E36.57192
G1 X87.261 Y37.604 E36.68937
G1 X87.051 Y37.61 E36.69985
G1 X49.45 Y37.611 E38.57577
G1 X48.849 Y37.666 E38.60588
G0 F3600 X48.832 Y37.568
G0 X47.657 Y38.067
G0 X47.138 Y38.434
G0 X46.692 Y38.886
G0 X46.331 Y39.407
G0 X46.066 Y39.982
G0 X45.904 Y40.596
G0 X45.854 Y41.183
G0 X45.854 Y88.833
G0 X45.901 Y89.41
G0 X46.051 Y89.997
G0 X46.295 Y90.551
G0 X46.627 Y91.056
G0 X46.96 Y91.414
G0 X67.556 Y107.82
G0 X67.65 Y107.853
G1 F1050 X67.487 Y108.475 E38.63796
G1 X67.435 Y109.098 E38.66915
G1 X67.488 Y109.709 E38.69975
G1 X67.657 Y110.33 E38.73186
G1 X68.925 Y113.031 E38.88072
G1 X69.568 Y115.319 E38.99929
G1 X69.831 Y117.714 E39.1195
G1 X70.658 Y149.11 E40.68639
G1 X70.72 Y149.673 E40.71465
G1 X70.88 Y150.244 E40.74424
G1 X71.131 Y150.78 E40.77376
G1 X71.467 Y151.269 E40.80336
G1 X71.89 Y151.704 E40.83364
G1 X72.367 Y152.057 E40.86324
G1 X72.895 Y152.325 E40.89278
G1 X73.461 Y152.503 E40.92238
G1 X74.046 Y152.585 E40.95185
G1 X74.637 Y152.571 E40.98135
G1 X75.219 Y152.46 E41.01091
G1 X75.773 Y152.256 E41.04036
G1 X76.253 Y151.985 E41.06786
G1 X135.261 Y112.058 E44.62238
G1 X135.724 Y111.685 E44.65204
G1 X136.127 Y111.225 E44.68255
G1 X136.448 Y110.705 E44.71304
G1 X136.675 Y110.137 E44.74356
G1 X136.804 Y109.524 E44.77481
G1 X136.827 Y108.914 E44.80526
G1 X136.748 Y108.313 E44.83551
G1 X136.572 Y107.741 E44.86536
G1 X136.298 Y107.196 E44.8958
G1 X135.934 Y106.704 E44.92633
G1 X135.492 Y106.281 E44.95685
G1 X134.97 Y105.933 E44.98815
G1 X134.413 Y105.683 E45.01861
G1 X133.821 Y105.533 E45.04908
G1 X133.257 Y105.485 E45.07732
G1 X96.563 Y105.485 E46.90799
G1 X96.072 Y105.52 E46.93255
G1 X95.571 Y105.629 E46.95813
G1 X95.09 Y105.808 E46.98373
G1 X94.641 Y106.053 E47.00925
G1 X93.339 Y107.013 E47.08996
G1 X92.354 Y107.52 E47.14523
G1 X91.307 Y107.863 E47.20019
G1 X90.222 Y108.036 E47.25501
G1 X89.113 Y108.036 E47.31034
G1 X88.026 Y107.863 E47.36525
G1 X86.981 Y107.521 E47.42011
G1 X85.999 Y107.015 E47.47522
G1 X84.682 Y106.046 E47.55679
G1 X84.232 Y105.803 E47.58231
G1 X83.751 Y105.625 E47.6079
G1 X83.248 Y105.518 E47.63355
G1 X82.756 Y105.485 E47.65815
G1 X71.01 Y105.485 E48.24416
G1 X70.41 Y105.537 E48.27421
G1 X69.804 Y105.7 E48.30552
G1 X69.235 Y105.964 E48.33681
G1 X68.721 Y106.324 E48.36812
G1 X68.277 Y106.768 E48.39945
G1 X67.916 Y107.282 E48.43078
G1 X67.65 Y107.853 E48.46221
G0 F3600 X67.556 Y107.82
G0 X67.395 Y109.098
G0 X70.681 Y149.68
G0 X76.041 Y172.87
G0 X76.281 Y173.385
G0 X76.607 Y173.852
G0 X77.011 Y174.255
G0 X77.388 Y174.519
G0 X78.532 Y175.03
G0 X78.549 Y174.932
G1 F1050 X79.11 Y174.979 E48.4903
G1 X79.671 Y174.932 E48.51838
G1 X80.215 Y174.785 E48.5465
G1 X80.724 Y174.548 E48.57451
G1 X81.185 Y174.225 E48.60259
G1 X81.583 Y173.827 E48.63067
G1 X81.906 Y173.366 E48.65876
G1 X82.143 Y172.855 E48.68686
G1 X82.288 Y172.313 E48.71485
G1 X82.338 Y171.752 E48.74295
G1 X82.288 Y171.192 E48.771
G1 X82.143 Y170.65 E48.79899
G1 X81.906 Y170.139 E48.82709
G1 X81.583 Y169.678 E48.85518
G1 X81.185 Y169.28 E48.88326
G1 X80.724 Y168.957 E48.91134
G1 X80.215 Y168.72 E48.93935
G1 X79.671 Y168.574 E48.96745
G1 X79.11 Y168.524 E48.99555
G1 X78.549 Y168.574 E49.02365
G1 X78.005 Y168.72 E49.05175
G1 X77.497 Y168.957 E49.07972
G1 X77.036 Y169.28 E49.1078
G1 X76.637 Y169.678 E49.13592
G1 X76.315 Y170.139 E49.16397
G1 X76.078 Y170.648 E49.19198
G1 X75.932 Y171.192 E49.22008
G1 X75.882 Y171.752 E49.24813
G1 X75.932 Y172.313 E49.27623
G1 X76.078 Y172.857 E49.30433
G1 X76.315 Y173.366 E49.33235
G1 X76.637 Y173.827 E49.3604
G1 X77.036 Y174.225 E49.38852
G1 X77.497 Y174.548 E49.4166
G1 X78.005 Y174.785 E49.44457
G1 X78.549 Y174.932 E49.47268
G0 F3600 X78.532 Y175.03
G0 X82.923 Y174.961
G0 X86.36 Y169.166
G0 X86.808 Y168.527
G0 X87.381 Y167.954
G0 X88.044 Y167.49
G0 X88.777 Y167.148
G0 X89.559 Y166.939
G0 X90.337 Y166.871
G0 X117.883 Y166.871
G0 X118.662 Y166.939
G0 X119.443 Y167.148
G0 X120.176 Y167.49
G0 X120.839 Y167.954
G0 X121.412 Y168.527
G0 X121.86 Y169.166
G0 X124.688 Y173.915
G0 X128.532 Y175.03
G0 X128.549 Y174.932
G1 F1050 X129.11 Y174.979 E49.50077
G1 X129.671 Y174.932 E49.52885
G1 X130.215 Y174.785 E49.55697
G1 X130.724 Y174.548 E49.58498
G1 X131.185 Y174.225 E49.61306
G1 X131.583 Y173.827 E49.64114
G1 X131.906 Y173.366 E49.66923
G1 X132.143 Y172.855 E49.69733
G1 X132.288 Y172.313 E49.72532
G1 X132.338 Y171.752 E49.75342
G1 X132.288 Y171.192 E49.78147
G1 X132.143 Y170.65 E49.80946
G1 X131.906 Y170.139 E49.83756
G1 X131.583 Y169.678 E49.86564
G1 X131.185 Y169.28 E49.89373
G1 X130.724 Y168.957 E49.92181
G1 X130.215 Y168.72 E49.94982
G1 X129.671 Y168.574 E49.97792
G1 X129.11 Y168.524 E50.00602
G1 X128.549 Y168.574 E50.03412
G1 X128.005 Y168.72 E50.06222
G1 X127.497 Y168.957 E50.09019
G1 X127.036 Y169.28 E50.11827
G1 X126.637 Y169.678 E50.14639
G1 X126.315 Y170.139 E50.17444
G1 X126.078 Y170.648 E50.20245
G1 X125.932 Y171.192 E50.23055
G1 X125.882 Y171.752 E50.2586
G1 X125.932 Y172.313 E50.2867
G1 X126.078 Y172.857 E50.3148
G1 X126.315 Y173.366 E50.34282
G1 X126.637 Y173.827 E50.37087
G1 X127.036 Y174.225 E50.39899
G1 X127.497 Y174.548 E50.42707
G1 X128.005 Y174.785 E50.45504
G1 X128.549 Y174.932 E50.48315
G0 F3600 X128.532 Y175.03
G0 X129.677 Y174.971
G0 X130.228 Y174.822
G0 X130.743 Y174.582
G0 X131.21 Y174.255
G0 X137.381 Y167.954
G0 X137.568 Y167.823
G0 X138.756 Y167.092
G0 X138.79 Y167.185
G1 F1050 X138.063 Y167.524 E50.52317
G1 X137.406 Y167.984 E50.56318
G1 X136.838 Y168.552 E50.60326
G1 X136.393 Y169.187 E50.64194
G1 X133.502 Y174.199 E50.93061
G1 X132.96 Y174.979 E50.978
G1 X132.344 Y175.595 E51.02146
G1 X131.617 Y176.104 E51.06573
G1 X130.826 Y176.473 E51.10928
G1 X129.98 Y176.7 E51.15298
G1 X129.11 Y176.776 E51.19655
G1 X128.24 Y176.7 E51.24012
G1 X127.391 Y176.473 E51.28396
G1 X126.602 Y176.104 E51.32742
G1 X125.883 Y175.6 E51.37123
G1 X125.263 Y174.981 E51.41493
G1 X124.738 Y174.231 E51.46061
G1 X121.827 Y169.187 E51.75116
G1 X121.382 Y168.552 E51.78984
G1 X120.814 Y167.984 E51.82992
G1 X120.157 Y167.524 E51.86993
G1 X119.43 Y167.185 E51.90995
G1 X118.656 Y166.978 E51.94992
G1 X117.882 Y166.91 E51.98869
G1 X90.338 Y166.91 E53.36286
G1 X89.565 Y166.978 E53.40158
G1 X88.79 Y167.185 E53.4416
G1 X88.063 Y167.524 E53.48162
G1 X87.406 Y167.984 E53.52163
G1 X86.838 Y168.552 E53.5617
G1 X86.393 Y169.187 E53.60039
G1 X83.489 Y174.221 E53.89033
G1 X82.953 Y174.986 E53.93693
G1 X82.344 Y175.595 E53.9799
G1 X81.617 Y176.104 E54.02418
G1 X80.826 Y176.473 E54.06772
G1 X79.98 Y176.7 E54.11142
G1 X79.11 Y176.776 E54.15499
G1 X78.24 Y176.7 E54.19856
G1 X77.391 Y176.473 E54.24241
G1 X76.602 Y176.104 E54.28586
G1 X75.883 Y175.6 E54.32967
G1 X75.263 Y174.981 E54.37338
G1 X74.738 Y174.231 E54.41905
G1 X71.814 Y169.169 E54.7107
G1 X71.364 Y168.534 E54.74953
G1 X70.794 Y167.971 E54.7895
G1 X70.135 Y167.514 E54.82951
G1 X69.408 Y167.179 E54.86944
G1 X68.633 Y166.975 E54.90943
G1 X67.882 Y166.91 E54.94703
G1 X66.213 Y166.91 E55.0303
G1 X65.504 Y166.848 E55.06581
G1 X64.835 Y166.669 E55.10036
G1 X64.215 Y166.38 E55.13449
G1 X63.638 Y165.975 E55.16966
G1 X63.151 Y165.489 E55.20398
G1 X62.751 Y164.917 E55.2388
G1 X62.46 Y164.294 E55.27311
G1 X62.281 Y163.625 E55.30766
G1 X62.219 Y162.915 E55.34322
G1 X61.029 Y117.867 E57.59145
G1 X60.933 Y117.001 E57.63492
G1 X60.703 Y116.159 E57.67847
G1 X60.333 Y115.345 E57.72308
G1 X59.837 Y114.599 E57.76777
G1 X59.227 Y113.94 E57.81257
G1 X58.522 Y113.39 E57.85718
G1 X57.759 Y112.969 E57.90066
G1 X39.444 Y104.713 E58.90295
G1 X39.094 Y104.534 E58.92256
G1 X38.511 Y104.126 E58.95806
G1 X38.027 Y103.642 E58.99221
G1 X37.625 Y103.067 E59.02721
G1 X37.334 Y102.445 E59.06147
G1 X37.154 Y101.772 E59.09623
G1 X37.093 Y101.073 E59.13123
G1 X37.093 Y32.797 E62.53754
G1 X37.155 Y32.093 E62.57279
G1 X37.334 Y31.428 E62.60715
G1 X37.627 Y30.8 E62.64173
G1 X38.027 Y30.228 E62.67655
G1 X38.511 Y29.744 E62.7107
G1 X39.083 Y29.344 E62.74552
G1 X39.711 Y29.051 E62.78009
G1 X40.375 Y28.872 E62.8144
G1 X41.095 Y28.81 E62.85046
G1 X87.269 Y28.808 E65.15409
G1 X88.176 Y28.727 E65.19952
G1 X89.079 Y28.492 E65.24607
G1 X89.886 Y28.133 E65.29013
G1 X100.002 Y22.593 E65.86555
G1 X100.705 Y22.281 E65.90392
G1 X101.419 Y22.098 E65.9407
G1 X102.173 Y22.035 E65.97844
G1 X149.849 Y22.035 E68.35701
G1 X150.54 Y22.088 E68.39158
G1 X151.208 Y22.247 E68.42584
G1 X151.851 Y22.508 E68.46046
G1 X161.332 Y27.246 E68.98925
G1 X162.065 Y27.691 E69.03203
G1 X162.693 Y28.234 E69.07345
G1 X163.226 Y28.875 E69.11504
G1 X163.647 Y29.596 E69.15669
G1 X163.939 Y30.371 E69.19801
G1 X164.1 Y31.181 E69.23921
G1 X164.126 Y32.022 E69.28119
G1 X164.014 Y32.84 E69.32238
G1 X163.768 Y33.633 E69.3638
G1 X163.391 Y34.381 E69.40559
G1 X162.902 Y35.047 E69.44682
G1 X162.307 Y35.628 E69.4883
G1 X161.596 Y36.121 E69.53147
G1 X156.549 Y39.034 E69.8222
G1 X155.999 Y39.408 E69.85538
G1 X155.494 Y39.877 E69.88976
G1 X155.066 Y40.414 E69.92402
G1 X154.722 Y41.01 E69.95835
G1 X154.47 Y41.65 E69.99267
G1 X154.317 Y42.321 E70.02701
G1 X154.268 Y42.984 E70.06017
G1 X154.268 Y70.52 E71.43395
G1 X154.317 Y71.183 E71.46712
G1 X154.47 Y71.854 E71.50145
G1 X154.722 Y72.495 E71.53582
G1 X155.066 Y73.091 E71.57015
G1 X155.494 Y73.628 E71.60441
G1 X155.999 Y74.097 E71.63879
G1 X156.549 Y74.471 E71.67197
G1 X161.595 Y77.384 E71.96266
G1 X162.29 Y77.863 E72.00477
G1 X162.869 Y78.42 E72.04485
G1 X163.356 Y79.068 E72.08529
G1 X163.731 Y79.783 E72.12557
G1 X163.988 Y80.551 E72.16598
G1 X164.117 Y81.347 E72.20621
G1 X164.117 Y82.158 E72.24667
G1 X163.988 Y82.954 E72.2869
G1 X163.731 Y83.722 E72.3273
G1 X163.358 Y84.434 E72.3674
G1 X162.869 Y85.083 E72.40794
