;FLAVOR:Marlin
;TIME:9459
;Filament used: 2.99081m
;Layer height: 0.3
;Generated with Cura_SteamEngine 3.4.1
M190 S58
M104 S222
M109 S222
M82 ;absolute extrusion mode
G21 ;metric values
G90 ;absolute positioning
M82 ;set extruder to absolute mode
M107 ;start with the fan off
G28 X0 Y0 ;move X/Y to min endstops
G28 Z0 ;move Z to min endstops
G1 Z15.0 F9000 ;move the platform down 15mm
G92 E0 ;zero the extruded length
G1 F200 E3 ;extrude 3mm of feed stock
G92 E0 ;zero the extruded length again
G1 F9000
;Put printing message on LCD screen
M117 Printing...
G92 E0
;LAYER_COUNT:9
;LAYER:0
M107
G0 F3600 X35.153 Y29.05 Z0.3
;TYPE:SKIRT
G1 F360 X35.485 Y28.669 E0.02521
G1 X35.873 Y28.344 E0.05046
G1 X36.307 Y28.085 E0.07568
G1 X36.98 Y27.841 E0.11139
G1 X40.607 Y26.972 E0.29747
G1 X43.238 Y26.253 E0.43354
G1 X48.475 Y24.578 E0.70785
G1 X53.596 Y22.615 E0.98147
G1 X58.573 Y20.376 E1.25374
G1 X63.762 Y17.672 E1.54566
G1 X64.228 Y17.475 E1.5709
G1 X64.718 Y17.353 E1.5961
G1 X65.01 Y17.318 E1.61077
G1 X67.313 Y17.152 E1.72596
G1 X72.761 Y16.541 E1.99947
G1 X78.162 Y15.623 E2.27279
G1 X83.499 Y14.403 E2.54592
G1 X86.132 Y13.682 E2.68212
G1 X91.352 Y12.012 E2.95555
G1 X97.707 Y9.537 E3.2958
G1 X98.191 Y9.391 E3.32102
G1 X98.692 Y9.324 E3.34624
G1 X99.197 Y9.336 E3.37144
G1 X99.695 Y9.428 E3.3967
G1 X100.171 Y9.596 E3.42189
G1 X100.467 Y9.747 E3.43847
G1 X104.784 Y12.237 E3.6871
G1 X105.2 Y12.523 E3.71229
G1 X105.567 Y12.872 E3.73755
G1 X105.874 Y13.274 E3.76279
G1 X106.113 Y13.719 E3.78799
G1 X106.28 Y14.196 E3.8132
G1 X106.369 Y14.694 E3.83844
G1 X106.379 Y15.199 E3.86364
G1 X106.31 Y15.7 E3.88887
G1 X106.162 Y16.183 E3.91408
G1 X106.025 Y16.483 E3.93053
G1 X103.905 Y20.566 E4.16005
G1 X101.484 Y25.537 E4.43591
G1 X99.271 Y30.798 E4.72065
G1 X97.39 Y36.08 E5.00038
G1 X96.462 Y39.059 E5.15605
G1 X95.13 Y44.098 E5.41608
G1 X93.913 Y49.932 E5.71341
G1 X93.403 Y53.111 E5.87404
G1 X92.752 Y58.609 E6.15025
G1 X92.517 Y61.805 E6.31013
G1 X92.338 Y67.318 E6.58532
G1 X92.364 Y70.032 E6.72073
G1 X92.625 Y75.534 E6.99553
G1 X92.92 Y78.728 E7.15556
G1 X93.655 Y84.215 E7.43175
G1 X94.219 Y87.353 E7.59082
G1 X95.399 Y92.682 E7.86312
G1 X96.915 Y98.107 E8.14414
G1 X98.738 Y103.452 E8.42589
G1 X99.875 Y106.39 E8.58306
G1 X101.945 Y111.121 E8.8407
G1 X103.324 Y113.97 E8.99861
G1 X105.943 Y118.819 E9.27356
G1 X107.551 Y121.529 E9.43077
G1 X110.526 Y126.077 E9.7019
G1 X112.348 Y128.632 E9.85846
G1 X115.717 Y132.942 E10.13139
G1 X117.751 Y135.34 E10.28826
G1 X121.397 Y139.275 E10.5559
G1 X125.684 Y143.43 E10.85375
G1 X127.946 Y145.428 E11.00432
G1 X132.232 Y148.924 E11.28026
G1 X134.776 Y150.816 E11.43844
G1 X139.305 Y153.91 E11.71208
G1 X141.793 Y155.457 E11.85825
G1 X146.55 Y158.164 E12.13131
G1 X149.46 Y159.65 E12.29432
G1 X154.478 Y161.961 E12.56995
G1 X157.098 Y163.034 E12.7112
G1 X157.105 Y163.036 E12.71156
G1 X162.342 Y164.945 E12.98965
G1 X165.317 Y165.882 E13.14526
G1 X170.656 Y167.329 E13.42124
G1 X176.303 Y168.527 E13.70924
G1 X181.76 Y169.367 E13.98469
G1 X184.913 Y169.724 E14.143
G1 X190.199 Y170.09 E14.40735
G1 X194.834 Y170.296 E14.63882
G1 X195.336 Y170.358 E14.66406
G1 X195.822 Y170.499 E14.6893
G1 X196.279 Y170.714 E14.7145
G1 X196.725 Y171.022 E14.74154
G1 X198.464 Y172.453 E14.8539
G1 X198.825 Y172.8 E14.87888
G1 X199.116 Y173.128 E14.90076
G1 X199.42 Y173.532 E14.92598
G1 X199.737 Y174.18 E14.96197
G1 X199.94 Y174.751 E14.99221
G1 X200.071 Y175.239 E15.01741
G1 X200.125 Y175.833 E15.04717
G1 X200.124 Y176.162 E15.06358
G1 X200.083 Y176.666 E15.08881
G1 X199.994 Y177.056 E15.10877
G1 X199.87 Y177.477 E15.13067
G1 X199.689 Y177.949 E15.15589
G1 X199.497 Y178.295 E15.17563
G1 X199.324 Y178.566 E15.19167
G1 X199.019 Y178.969 E15.21688
G1 X198.687 Y179.293 E15.24003
G1 X196.75 Y180.922 E15.3663
G1 X196.338 Y181.216 E15.39155
G1 X195.886 Y181.441 E15.41674
G1 X195.403 Y181.593 E15.442
G1 X194.922 Y181.665 E15.46626
G1 X192.375 Y181.85 E15.59367
G1 X186.92 Y182.476 E15.86761
G1 X181.541 Y183.404 E16.13993
G1 X176.179 Y184.643 E16.41449
G1 X173.582 Y185.36 E16.5489
G1 X168.355 Y187.047 E16.82292
G1 X162.221 Y189.447 E17.15154
G1 X161.807 Y189.577 E17.17319
G1 X157.922 Y190.516 E17.37259
G1 X152.635 Y192.058 E17.64735
G1 X147.494 Y193.879 E17.91945
G1 X142.437 Y195.999 E18.19302
G1 X137.474 Y198.418 E18.46847
G1 X135.055 Y199.725 E18.60565
G1 X134.593 Y199.93 E18.63086
G1 X134.104 Y200.059 E18.65609
G1 X133.404 Y200.107 E18.6911
G1 X124.419 Y199.741 E19.13973
G1 X124.16 Y199.72 E19.1527
G1 X115.284 Y198.633 E19.59883
G1 X115.031 Y198.592 E19.61162
G1 X106.412 Y196.828 E20.05053
G1 X106.167 Y196.768 E20.06312
G1 X98.299 Y194.499 E20.47165
G1 X98.071 Y194.423 E20.48364
G1 X89.721 Y191.318 E20.92809
G1 X89.483 Y191.219 E20.94096
G1 X81.441 Y187.466 E21.38371
G1 X81.213 Y187.348 E21.39652
G1 X73.398 Y182.906 E21.84499
G1 X73.177 Y182.768 E21.85799
G1 X65.835 Y177.765 E22.30124
G1 X65.629 Y177.612 E22.31404
G1 X58.692 Y172.02 E22.75858
G1 X58.498 Y171.851 E22.77141
G1 X52.07 Y165.755 E23.21339
G1 X51.891 Y165.571 E23.22619
G1 X45.878 Y158.873 E23.67526
G1 X45.712 Y158.673 E23.68823
G1 X40.339 Y151.611 E24.13093
G1 X40.192 Y151.4 E24.14376
G1 X35.391 Y143.908 E24.5877
G1 X35.261 Y143.686 E24.60054
G1 X31.081 Y135.842 E25.04397
G1 X30.963 Y135.596 E25.05758
G1 X26.969 Y126.259 E25.56424
G1 X26.87 Y125.996 E25.57826
G1 X24.068 Y117.445 E26.02719
G1 X24.001 Y117.21 E26.03938
G1 X22.003 Y109.044 E26.4588
G1 X21.952 Y108.795 E26.47148
G1 X20.547 Y100.119 E26.90997
G1 X20.516 Y99.864 E26.92278
G1 X19.799 Y90.981 E27.3674
G1 X19.789 Y90.724 E27.38023
G1 X19.789 Y81.814 E27.82475
G1 X19.799 Y81.556 E27.83763
G1 X20.516 Y72.679 E28.28195
G1 X20.547 Y72.424 E28.29477
G1 X21.976 Y63.631 E28.73921
G1 X22.027 Y63.383 E28.75184
G1 X23.988 Y55.379 E29.16297
G1 X24.055 Y55.145 E29.17511
G1 X26.832 Y46.659 E29.62057
G1 X26.922 Y46.417 E29.63345
G1 X30.334 Y38.274 E30.07393
G1 X30.445 Y38.037 E30.08699
G1 X34.886 Y29.479 E30.56801
G1 X35.153 Y29.05 E30.59322
G1 F180 Z1.3
G0 F3600 X133.358 Y193.836 Z1.3
;TYPE:WALL-INNER
G1 F180 Z0.3
G1 F360 X133.775 Y193.875 E30.61412
G1 X134.128 Y193.701 E30.63375
G1 X134.245 Y193.665 E30.63986
G1 X134.378 Y193.648 E30.64655
G1 X134.511 Y193.654 E30.65319
G1 X134.646 Y193.683 E30.66008
G1 X134.763 Y193.729 E30.66635
G1 X134.873 Y193.797 E30.6728
G1 X134.969 Y193.882 E30.6792
G1 X135.055 Y193.989 E30.68605
G1 X135.118 Y194.1 E30.69242
G1 X135.164 Y194.231 E30.69935
G1 X135.185 Y194.352 E30.70547
G1 X135.185 Y194.487 E30.71221
G1 X135.164 Y194.608 E30.71833
G1 X135.118 Y194.739 E30.72526
G1 X135.055 Y194.85 E30.73163
G1 X134.97 Y194.955 E30.73837
G1 X134.872 Y195.042 E30.74491
G1 X134.762 Y195.11 E30.75136
G1 X134.64 Y195.158 E30.7579
G1 X134.512 Y195.186 E30.76444
G1 X134.38 Y195.191 E30.77103
G1 X134.245 Y195.174 E30.77781
G1 X134.128 Y195.138 E30.78392
G1 X133.829 Y194.99 E30.80057
G1 X133.53 Y194.963 E30.81554
G1 X133.198 Y195.11 E30.83366
G1 X133.005 Y195.348 E30.84895
G1 X132.94 Y195.598 E30.86183
G1 X132.94 Y196.087 E30.88623
G1 X132.94 Y196.088 E30.88628
G1 X132.94 Y196.295 E30.89661
G1 X132.733 Y196.287 E30.90322
G1 X124.683 Y195.961 E31.30517
G1 X115.884 Y194.893 E31.74737
G1 X107.197 Y193.12 E32.1897
G1 X98.695 Y190.657 E32.63131
G1 X90.401 Y187.511 E33.07387
G1 X82.392 Y183.711 E33.51613
G1 X74.729 Y179.287 E33.95758
G1 X67.426 Y174.246 E34.4003
G1 X60.568 Y168.647 E34.84199
G1 X54.167 Y162.5 E35.28475
G1 X48.293 Y155.868 E35.72674
G1 X42.971 Y148.786 E36.16871
G1 X38.233 Y141.292 E36.61104
G1 X34.116 Y133.448 E37.05301
G1 X30.642 Y125.294 E37.49519
G1 X27.832 Y116.88 E37.93776
G1 X25.713 Y108.279 E38.3797
G1 X24.292 Y99.537 E38.82156
G1 X23.579 Y90.705 E39.26363
G1 X23.579 Y81.834 E39.7062
G1 X24.292 Y73.002 E40.14827
G1 X25.713 Y64.26 E40.59013
G1 X27.832 Y55.659 E41.03207
G1 X30.643 Y47.242 E41.47479
G1 X34.116 Y39.091 E41.91682
G1 X37.173 Y33.267 E42.24498
G1 X37.206 Y33.203 E42.24857
G1 X37.332 Y32.963 E42.26209
G1 X37.472 Y32.697 E42.27709
G1 X37.488 Y32.666 E42.27883
G1 X37.481 Y32.7
G1 X37.465 Y33.032 E42.28303
G1 X37.507 Y33.362 E42.29403
G1 X37.527 Y33.432 E42.2974
G1 X37.601 Y33.678 E42.31022
G1 X37.75 Y33.976 E42.32684
G1 X37.944 Y34.243 E42.34331
G1 X38.181 Y34.476 E42.35989
G1 X38.454 Y34.665 E42.37646
G1 X38.752 Y34.805 E42.39288
G1 X39.071 Y34.894 E42.4094
G1 X39.402 Y34.929 E42.42601
G1 X39.732 Y34.908 E42.44251
G1 X40.054 Y34.833 E42.459
G1 X40.245 Y34.751 E42.46937
G1 X40.36 Y34.703 E42.47559
G1 X40.639 Y34.526 E42.49207
G1 X40.886 Y34.303 E42.50868
G1 X40.986 Y34.175 E42.51678
G1 X40.913 Y34.316 E42.51699
G1 X40.768 Y34.593 E42.52097
G1 X40.636 Y34.845 E42.53024
G1 X40.579 Y34.955 E42.53576
G1 X37.402 Y41.031 E42.87783
G1 X33.953 Y49.233 E43.32174
G1 X31.202 Y57.696 E43.76571
G1 X29.171 Y66.36 E44.20967
G1 X27.871 Y75.163 E44.65362
G1 X27.313 Y84.045 E45.09762
G1 X27.498 Y92.941 E45.54154
G1 X28.429 Y101.79 E45.98545
G1 X30.096 Y110.532 E46.42945
G1 X32.489 Y119.103 E46.87341
G1 X35.591 Y127.444 E47.31739
G1 X39.38 Y135.495 E47.76132
G1 X43.829 Y143.202 E48.20529
G1 X48.908 Y150.508 E48.64921
G1 X54.579 Y157.365 E49.09315
G1 X60.806 Y163.723 E49.53714
G1 X67.542 Y169.538 E49.9811
G1 X74.741 Y174.768 E50.42504
G1 X82.353 Y179.377 E50.86899
G1 X90.324 Y183.335 E51.31299
G1 X98.597 Y186.61 E51.7569
G1 X107.115 Y189.182 E52.20081
G1 X115.82 Y191.032 E52.64481
G1 X124.648 Y192.147 E53.08874
G1 X132.942 Y192.496 E53.50289
G1 X132.944 Y193.339 E53.54495
G1 X133.079 Y193.605 E53.55983
G1 X133.358 Y193.836 E53.5779
G0 F3600 X133.518 Y193.449
;TYPE:WALL-OUTER
G1 F360 X133.7 Y193.466 E53.58702
G1 X133.976 Y193.33 E53.60237
G1 X134.165 Y193.272 E53.61224
G1 X134.361 Y193.247 E53.62209
G1 X134.561 Y193.255 E53.63208
G1 X134.759 Y193.298 E53.64219
G1 X134.945 Y193.371 E53.65216
G1 X135.113 Y193.475 E53.66201
G1 X135.259 Y193.604 E53.67173
G1 X135.386 Y193.761 E53.68181
G1 X135.484 Y193.936 E53.69182
G1 X135.552 Y194.127 E53.70193
G1 X135.585 Y194.32 E53.7117
G1 X135.585 Y194.519 E53.72163
G1 X135.552 Y194.712 E53.7314
G1 X135.484 Y194.903 E53.74151
G1 X135.386 Y195.078 E53.75152
G1 X135.261 Y195.232 E53.76141
G1 X135.113 Y195.364 E53.77131
G1 X134.94 Y195.47 E53.78143
G1 X134.759 Y195.542 E53.79115
G1 X134.561 Y195.585 E53.80126
G1 X134.361 Y195.592 E53.81124
G1 X134.165 Y195.567 E53.8211
G1 X133.976 Y195.509 E53.83096
G1 X133.729 Y195.387 E53.8447
G1 X133.719 Y195.382 E53.84526
G1 X133.597 Y195.371 E53.85137
G1 X133.448 Y195.437 E53.8595
G1 X133.37 Y195.533 E53.86568
G1 X133.367 Y195.544 E53.86624
G1 X133.34 Y195.649 E53.87165
G1 X133.34 Y196.504 E53.91431
G1 X133.34 Y196.505 E53.91436
G1 X133.34 Y196.712 E53.92469
G1 X133.133 Y196.704 E53.9313
G1 X124.656 Y196.361 E54.35457
G1 X115.817 Y195.288 E54.79878
G1 X107.106 Y193.51 E55.24234
G1 X98.564 Y191.035 E55.68603
G1 X90.251 Y187.882 E56.12959
G1 X82.204 Y184.064 E56.57396
G1 X74.515 Y179.625 E57.0169
G1 X67.181 Y174.563 E57.46149
G1 X60.301 Y168.945 E57.90463
G1 X53.885 Y162.784 E58.34841
G1 X47.979 Y156.117 E58.79277
G1 X42.641 Y149.013 E59.23609
G1 X37.887 Y141.494 E59.67991
G1 X33.753 Y133.617 E60.12373
G1 X30.269 Y125.44 E60.56716
G1 X27.448 Y116.991 E61.01156
G1 X25.32 Y108.354 E61.45535
G1 X23.894 Y99.584 E61.89863
G1 X23.179 Y90.725 E62.34205
G1 X23.179 Y81.814 E62.78662
G1 X23.894 Y72.955 E63.23003
G1 X25.32 Y64.185 E63.67332
G1 X27.448 Y55.548 E64.1171
G1 X30.27 Y47.096 E64.56166
G1 X33.753 Y38.922 E65.00494
G1 X37.698 Y31.407 E65.42838
G1 X37.794 Y31.223 E65.43874
G1 X37.974 Y31.327 E65.44535
G1 X38.385 Y31.565 E65.46905
G1 X38.465 Y31.611 E65.47365
G1 X38.543 Y31.657 E65.47817
G1 X38.342 Y31.823 E65.48592
G1 X38.282 Y31.893 E65.48983
G1 X38.169 Y32.023 E65.49842
G1 X38.031 Y32.248 E65.51159
G1 X37.934 Y32.494 E65.52478
G1 X37.879 Y32.752 E65.53794
G1 X37.866 Y33.016 E65.55113
G1 X37.9 Y33.279 E65.56436
G1 X37.975 Y33.531 E65.57748
G1 X38.093 Y33.768 E65.59069
G1 X38.248 Y33.981 E65.60383
G1 X38.437 Y34.167 E65.61706
G1 X38.654 Y34.317 E65.63022
G1 X38.892 Y34.429 E65.64334
G1 X39.146 Y34.5 E65.6565
G1 X39.41 Y34.528 E65.66975
G1 X39.673 Y34.511 E65.68289
G1 X39.93 Y34.451 E65.69606
G1 X40.173 Y34.348 E65.70923
G1 X40.396 Y34.206 E65.72242
G1 X40.593 Y34.029 E65.73563
G1 X40.756 Y33.821 E65.74882
G1 X40.883 Y33.589 E65.76201
G1 X40.939 Y33.428 E65.77051
G1 X40.969 Y33.34 E65.77515
G1 X41.012 Y33.083 E65.78815
G1 X41.09 Y33.127
G1 X41.171 Y33.173 E65.7921
G1 X41.778 Y33.523 E65.82706
G1 X37.764 Y41.201 E66.25931
G1 X34.328 Y49.373 E66.70158
G1 X31.588 Y57.804 E67.14386
G1 X29.564 Y66.435 E67.58615
G1 X28.269 Y75.205 E68.02843
G1 X27.713 Y84.053 E68.47073
G1 X27.898 Y92.916 E68.913
G1 X28.825 Y101.732 E69.35526
G1 X30.486 Y110.441 E69.79758
G1 X32.87 Y118.979 E70.23984
G1 X35.96 Y127.289 E70.68216
G1 X39.735 Y135.31 E71.12443
G1 X44.167 Y142.987 E71.56668
G1 X49.227 Y150.266 E72.00896
G1 X54.877 Y157.097 E72.45123
G1 X61.08 Y163.431 E72.89353
G1 X67.791 Y169.224 E73.33583
G1 X74.963 Y174.435 E73.77811
G1 X82.546 Y179.026 E74.22036
G1 X90.487 Y182.969 E74.66269
G1 X98.729 Y186.232 E75.10494
G1 X107.215 Y188.794 E75.54718
G1 X115.887 Y190.637 E75.98949
G1 X124.682 Y191.748 E76.43176
G1 X133.341 Y192.112 E76.86414
G1 X133.344 Y193.243 E76.92057
G1 X133.398 Y193.35 E76.92655
G1 X133.518 Y193.449 E76.93431
G0 F3600 X133.7 Y193.466
G0 X133.716 Y193.459
G0 X133.936 Y193.906
G0 X134.266 Y194.066
;TYPE:SKIN
G1 F360 X134.387 Y194.039 E76.9405
G1 X134.46 Y194.042 E76.94414
G1 X134.588 Y194.079 E76.95079
G1 X134.633 Y194.107 E76.95343
G1 X134.691 Y194.158 E76.95729
G1 X134.762 Y194.262 E76.96357
G1 X134.785 Y194.33 E76.96715
G1 X134.795 Y194.385 E76.96994
G1 X134.795 Y194.454 E76.97338
G1 X134.786 Y194.508 E76.97611
G1 X134.762 Y194.577 E76.97976
G1 X134.732 Y194.628 E76.98271
G1 X134.687 Y194.684 E76.98629
G1 X134.636 Y194.729 E76.98969
G1 X134.587 Y194.76 E76.99258
G1 X134.525 Y194.784 E76.9959
G1 X134.464 Y194.798 E76.99902
G1 X134.391 Y194.8 E77.00266
G1 X134.273 Y194.775 E77.00868
G1 X133.937 Y194.608 E77.0274
G1 X133.464 Y194.565 E77.0511
G1 X132.954 Y194.792 E77.07895
G1 X132.648 Y195.168 E77.10313
G1 X132.55 Y195.548 E77.12271
G1 X132.55 Y195.889 E77.13972
G1 X124.721 Y195.571 E77.53064
G1 X115.934 Y194.505 E77.97223
G1 X107.286 Y192.741 E78.41257
G1 X98.827 Y190.289 E78.85196
G1 X90.558 Y187.153 E79.29318
G1 X82.57 Y183.363 E79.73428
G1 X74.938 Y178.957 E80.17394
G1 X67.654 Y173.929 E80.61551
G1 X60.835 Y168.362 E81.05469
G1 X54.446 Y162.227 E81.49659
G1 X48.591 Y155.616 E81.93717
G1 X43.297 Y148.571 E82.37683
G1 X38.567 Y141.089 E82.81844
G1 X34.469 Y133.283 E83.25829
G1 X31.006 Y125.153 E83.69916
G1 X28.202 Y116.757 E84.14078
G1 X26.095 Y108.201 E84.58039
G1 X24.678 Y99.484 E85.02099
G1 X23.969 Y90.705 E85.46041
G1 X23.969 Y81.834 E85.90298
G1 X24.678 Y73.055 E86.34239
G1 X26.095 Y64.338 E86.783
G1 X28.202 Y55.782 E87.22261
G1 X31.008 Y47.379 E87.66459
G1 X34.471 Y39.252 E88.10532
G1 X37.278 Y33.905 E88.40661
G1 X37.415 Y34.179 E88.4219
G1 X37.648 Y34.498 E88.4416
G1 X37.931 Y34.778 E88.46147
G1 X38.259 Y35.004 E88.48134
G1 X38.616 Y35.172 E88.50102
G1 X38.997 Y35.278 E88.52075
G1 X39.394 Y35.321 E88.54067
G1 X39.789 Y35.296 E88.56042
G1 X39.985 Y35.25 E88.57047
G1 X37.049 Y40.865 E88.88658
G1 X33.587 Y49.097 E89.33212
G1 X30.826 Y57.591 E89.77771
G1 X28.787 Y66.287 E90.22332
G1 X27.483 Y75.122 E90.66888
G1 X26.923 Y84.037 E91.11453
G1 X27.108 Y92.966 E91.56009
G1 X28.043 Y101.847 E92.00562
G1 X29.716 Y110.621 E92.45124
G1 X32.118 Y119.224 E92.89686
G1 X35.231 Y127.596 E93.34248
G1 X39.034 Y135.676 E93.78801
G1 X43.499 Y143.411 E94.23359
G1 X48.598 Y150.744 E94.67919
G1 X54.289 Y157.626 E95.12472
G1 X60.539 Y164.008 E95.57037
G1 X67.3 Y169.844 E96.01596
G1 X74.525 Y175.093 E96.4615
G1 X82.165 Y179.719 E96.90709
G1 X90.166 Y183.692 E97.35277
G1 X98.468 Y186.979 E97.79824
G1 X107.018 Y189.56 E98.24381
G1 X115.755 Y191.417 E98.68944
G1 X124.615 Y192.535 E99.13497
G1 X132.552 Y192.87 E99.5313
G1 X132.554 Y193.433 E99.55939
G1 X132.767 Y193.854 E99.58293
G1 X133.202 Y194.213 E99.61107
G1 X133.849 Y194.273 E99.64349
G1 X134.266 Y194.066 E99.66671
G0 F3600 X115.814 Y191.071
G0 X107.106 Y189.22
G0 X98.584 Y186.647
G0 X90.308 Y183.371
