;FLAVOR:Marlin
;TIME:5034
;Filament used: 1.62375m
;Layer height: 0.3
;Generated with Cura_SteamEngine 3.4.1
M190 S58
M104 S222
M109 S222
M82 ;absolute extrusion mode
G21 ;metric values
G90 ;absolute positioning
M82 ;set extruder to absolute mode
M107 ;start with the fan off
G28 X0 Y0 ;move X/Y to min endstops
G28 Z0 ;move Z to min endstops
G1 Z15.0 F9000 ;move the platform down 15mm
G92 E0 ;zero the extruded length
G1 F200 E3 ;extrude 3mm of feed stock
G92 E0 ;zero the extruded length again
G1 F9000
;Put printing message on LCD screen
M117 Printing...
G92 E0
;LAYER_COUNT:7
;LAYER:0
M107
G0 F3600 X32.6 Y38.874 Z0.3
;TYPE:SKIRT
G1 F360 X40.191 Y31.33 E0.53393
G1 X40.439 Y31.108 E0.55054
G1 X48.639 Y24.5 E1.07594
G1 X48.901 Y24.31 E1.09209
G1 X57.483 Y18.722 E1.60301
G1 X57.771 Y18.555 E1.61962
G1 X67.321 Y13.668 E2.15483
G1 X67.624 Y13.533 E2.17138
G1 X77.404 Y9.747 E2.69459
G1 X77.714 Y9.645 E2.71087
G1 X87.772 Y6.89 E3.23115
G1 X88.012 Y6.834 E3.24344
G1 X93.105 Y5.854 E3.5022
G1 X93.271 Y5.826 E3.51059
G1 X98.538 Y5.097 E3.77587
G1 X98.779 Y5.073 E3.78795
G1 X109.065 Y4.434 E4.30211
G1 X109.392 Y4.431 E4.31843
G1 X119.876 Y4.853 E4.8419
G1 X120.204 Y4.883 E4.85833
G1 X130.558 Y6.376 E5.38024
G1 X130.881 Y6.44 E5.39667
G1 X141.082 Y9.004 E5.92143
G1 X141.397 Y9.1 E5.93786
G1 X151.241 Y12.684 E6.46051
G1 X151.544 Y12.813 E6.47694
G1 X160.983 Y17.398 E7.00047
G1 X161.282 Y17.563 E7.01751
G1 X170.596 Y23.39 E7.56563
G1 X170.867 Y23.58 E7.58214
G1 X179.1 Y30.003 E8.1031
G1 X179.35 Y30.219 E8.11959
G1 X186.903 Y37.479 E8.64226
G1 X187.124 Y37.714 E8.65835
G1 X193.777 Y45.545 E9.171
G1 X193.977 Y45.807 E9.18744
G1 X199.921 Y54.473 E9.71172
G1 X200.093 Y54.754 E9.72816
G1 X205.102 Y63.961 E10.25107
G1 X205.244 Y64.258 E10.2675
G1 X209.286 Y73.949 E10.79135
G1 X209.397 Y74.26 E10.80783
G1 X212.42 Y84.314 E11.33161
G1 X212.499 Y84.633 E11.348
G1 X214.471 Y94.936 E11.87135
G1 X214.516 Y95.258 E11.88757
G1 X215.413 Y105.454 E12.39822
G1 X215.425 Y105.78 E12.41449
G1 X215.275 Y116.254 E12.9371
G1 X215.252 Y116.593 E12.95405
G1 X213.937 Y127.453 E13.49981
G1 X213.879 Y127.781 E13.51643
G1 X211.537 Y138.022 E14.04055
G1 X211.449 Y138.335 E14.05677
G1 X208.138 Y148.115 E14.5719
G1 X208.019 Y148.415 E14.588
G1 X203.784 Y157.713 E15.09773
G1 X203.634 Y158.004 E15.11406
G1 X198.34 Y167.047 E15.63685
G1 X198.159 Y167.321 E15.65323
G1 X191.96 Y175.782 E16.17652
G1 X191.752 Y176.038 E16.19298
G1 X184.716 Y183.815 E16.7162
G1 X184.483 Y184.047 E16.7326
G1 X176.691 Y191.054 E17.25541
G1 X176.43 Y191.265 E17.27216
G1 X167.705 Y197.595 E17.80994
G1 X167.427 Y197.776 E17.82649
G1 X158.381 Y203.002 E18.3477
G1 X158.087 Y203.152 E18.36416
G1 X148.495 Y207.446 E18.88847
G1 X148.188 Y207.565 E18.9049
G1 X138.208 Y210.848 E19.42905
G1 X137.896 Y210.933 E19.44518
G1 X127.91 Y213.131 E19.95531
G1 X127.577 Y213.186 E19.97215
G1 X116.747 Y214.395 E20.51582
G1 X116.42 Y214.415 E20.53216
G1 X106.116 Y214.506 E21.04625
G1 X105.787 Y214.492 E21.06268
G1 X95.317 Y213.503 E21.58736
G1 X94.997 Y213.456 E21.60349
G1 X84.933 Y211.464 E22.11533
G1 X84.615 Y211.384 E22.13169
G1 X74.615 Y208.314 E22.65357
G1 X74.301 Y208.199 E22.67026
G1 X64.392 Y203.981 E23.20754
G1 X64.094 Y203.836 E23.22408
G1 X54.94 Y198.762 E23.74624
G1 X54.659 Y198.587 E23.76275
G1 X46.014 Y192.55 E24.28881
G1 X45.759 Y192.352 E24.30491
G1 X38.043 Y185.712 E24.81278
G1 X37.809 Y185.489 E24.82891
G1 X31.074 Y178.394 E25.31696
G1 X30.984 Y178.295 E25.32364
G1 X30.215 Y177.414 E25.38198
G1 X30.079 Y177.248 E25.39269
G1 X23.711 Y168.878 E25.91739
G1 X23.525 Y168.605 E25.93387
G1 X18.061 Y159.637 E26.45779
G1 X17.905 Y159.347 E26.47421
G1 X13.397 Y149.877 E26.99747
G1 X13.273 Y149.58 E27.01353
G1 X9.824 Y139.937 E27.52447
G1 X9.731 Y139.627 E27.54062
G1 X7.27 Y129.672 E28.05222
G1 X7.206 Y129.34 E28.06909
G1 X5.718 Y118.509 E28.61453
G1 X5.69 Y118.176 E28.6312
G1 X5.35 Y107.666 E29.15582
G1 X5.355 Y107.344 E29.17189
G1 X6.055 Y97.127 E29.68281
G1 X6.095 Y96.8 E29.69925
G1 X7.889 Y86.439 E30.22385
G1 X7.96 Y86.123 E30.24001
G1 X10.711 Y76.283 E30.74975
G1 X10.819 Y75.963 E30.7666
G1 X14.87 Y65.769 E31.31387
G1 X15.007 Y65.471 E31.33023
G1 X19.764 Y56.349 E31.8435
G1 X19.928 Y56.07 E31.85964
G1 X25.559 Y47.51 E32.37082
G1 X25.752 Y47.247 E32.38709
G1 X32.376 Y39.122 E32.91009
G1 X32.6 Y38.874 E32.92677
G1 F180 Z1.3
G0 F3600 X26.486 Y56.05 Z1.3
;TYPE:WALL-INNER
G1 F180 Z0.3
G1 F360 X21.359 Y65.115 E33.44634
G1 X17.205 Y74.667 E33.96601
G1 X14.073 Y84.6 E34.48562
G1 X11.997 Y94.805 E35.00518
G1 X10.999 Y105.172 E35.52478
G1 X11.09 Y115.586 E36.04435
G1 X12.269 Y125.934 E36.56396
G1 X14.524 Y136.103 E37.08362
G1 X17.828 Y145.979 E37.60317
G1 X22.147 Y155.456 E38.12277
G1 X27.434 Y164.431 E38.64245
G1 X33.628 Y172.802 E39.16198
G1 X40.665 Y180.481 E39.68162
G1 X48.465 Y187.382 E40.2012
G1 X56.944 Y193.43 E40.72081
G1 X66.009 Y198.558 E41.24041
G1 X75.561 Y202.712 E41.76008
G1 X85.494 Y205.843 E42.27967
G1 X95.699 Y207.919 E42.79923
G1 X106.066 Y208.917 E43.31883
G1 X116.48 Y208.827 E43.83841
G1 X126.829 Y207.648 E44.35806
G1 X136.997 Y205.393 E44.87767
G1 X146.873 Y202.088 E45.39724
G1 X156.35 Y197.769 E45.91684
G1 X165.325 Y192.483 E46.43649
G1 X173.696 Y186.288 E46.95605
G1 X181.376 Y179.251 E47.47573
G1 X188.276 Y171.451 E47.99528
G1 X194.324 Y162.972 E48.51489
G1 X199.452 Y153.907 E49.03449
G1 X203.606 Y144.356 E49.55411
G1 X206.737 Y134.423 E50.0737
G1 X208.813 Y124.218 E50.59326
G1 X209.811 Y113.85 E51.11291
G1 X209.721 Y103.437 E51.63244
G1 X208.542 Y93.088 E52.15209
G1 X206.287 Y82.919 E52.67175
G1 X202.982 Y73.043 E53.19132
G1 X198.663 Y63.566 E53.71092
G1 X193.377 Y54.592 E54.23053
G1 X187.182 Y46.22 E54.75013
G1 X180.146 Y38.541 E55.26973
G1 X172.345 Y31.641 E55.78932
G1 X163.866 Y25.592 E56.30896
G1 X154.801 Y20.465 E56.82854
G1 X145.25 Y16.311 E57.34815
G1 X135.317 Y13.179 E57.86776
G1 X125.112 Y11.103 E58.38732
G1 X114.744 Y10.105 E58.90697
G1 X104.331 Y10.196 E59.4265
G1 X93.982 Y11.375 E59.94615
G1 X83.813 Y13.629 E60.4658
G1 X73.937 Y16.934 E60.98538
G1 X64.46 Y21.253 E61.50497
G1 X55.486 Y26.54 E62.02461
G1 X47.114 Y32.734 E62.54417
G1 X39.435 Y39.771 E63.06381
G1 X32.535 Y47.571 E63.58337
G1 X26.486 Y56.05 E64.103
G0 F3600 X26.402 Y55.997
G0 X32.504 Y47.547
G0 X39.407 Y39.743
G0 X47.089 Y32.704
G0 X55.464 Y26.507
G0 X64.442 Y21.218
G0 X73.923 Y16.897
G0 X83.803 Y13.591
G0 X93.976 Y11.336
G0 X102.361 Y10.382
G0 X119.675 Y8.737
G0 X119.684 Y8.638
G1 F360 X130.005 Y10.126 E64.62324
G1 X140.118 Y12.667 E65.14347
G1 X149.918 Y16.236 E65.6638
G1 X159.302 Y20.795 E66.1843
G1 X168.167 Y26.293 E66.70473
G1 X176.405 Y32.664 E67.22429
G1 X183.967 Y39.869 E67.74539
G1 X190.734 Y47.795 E68.26534
G1 X196.659 Y56.39 E68.78616
G1 X201.661 Y65.534 E69.30615
G1 X205.699 Y75.148 E69.82638
G1 X208.727 Y85.129 E70.34675
G1 X210.713 Y95.374 E70.86739
G1 X211.635 Y105.75 E71.38709
G1 X211.484 Y116.186 E71.9078
G1 X210.262 Y126.549 E72.42839
G1 X207.984 Y136.714 E72.9481
G1 X204.667 Y146.611 E73.46886
G1 X200.352 Y156.104 E73.9891
G1 X195.083 Y165.11 E74.50966
G1 X188.921 Y173.518 E75.02972
G1 X181.926 Y181.25 E75.54991
G1 X174.168 Y188.226 E76.07042
G1 X165.737 Y194.364 E76.59071
G1 X156.716 Y199.605 E77.11121
G1 X147.215 Y203.886 E77.63111
G1 X137.305 Y207.174 E78.15203
G1 X127.125 Y209.421 E78.67214
G1 X116.765 Y210.61 E79.19239
G1 X106.33 Y210.729 E79.71303
G1 X95.948 Y209.774 E80.23318
G1 X85.718 Y207.757 E80.75338
G1 X75.748 Y204.698 E81.27367
G1 X66.145 Y200.63 E81.79398
G1 X57.011 Y195.596 E82.3143
G1 X48.44 Y189.647 E82.83482
G1 X40.528 Y182.851 E83.35517
G1 X33.363 Y175.284 E83.87508
G1 X27.004 Y167.006 E84.39586
G1 X21.533 Y158.123 E84.91634
G1 X17.007 Y148.732 E85.43644
G1 X13.468 Y138.919 E85.95687
G1 X10.959 Y128.802 E86.4769
G1 X9.504 Y118.476 E86.99716
G1 X9.117 Y108.046 E87.51787
G1 X9.805 Y97.635 E88.03841
G1 X11.557 Y87.365 E88.55819
G1 X14.361 Y77.305 E89.07921
G1 X18.175 Y67.617 E89.59866
G1 X22.977 Y58.346 E90.11955
G1 X28.7 Y49.63 E90.63975
G1 X35.291 Y41.545 E91.16016
G1 X42.672 Y34.187 E91.68012
G1 X50.781 Y27.618 E92.20077
G1 X59.515 Y21.924 E92.72093
G1 X68.793 Y17.153 E93.24143
G1 X78.505 Y13.366 E93.7615
G1 X88.578 Y10.591 E94.28276
G1 X93.687 Y9.601 E94.54239
G1 X98.839 Y8.874 E94.80197
G1 X109.257 Y8.22 E95.32275
G1 X119.684 Y8.638 E95.84337
G0 F3600 X119.718 Y8.239
;TYPE:WALL-OUTER
G1 F360 X130.081 Y9.733 E96.36573
G1 X140.238 Y12.285 E96.88822
G1 X150.075 Y15.867 E97.41051
G1 X159.494 Y20.443 E97.93295
G1 X168.393 Y25.962 E98.45537
G1 X176.67 Y32.363 E98.97739
G1 X184.256 Y39.591 E99.50015
G1 X191.05 Y47.549 E100.02218
G1 X197.002 Y56.183 E100.54537
G1 X202.023 Y65.361 E101.0673
G1 X206.076 Y75.012 E101.58953
G1 X209.116 Y85.034 E102.11202
G1 X211.109 Y95.311 E102.6343
G1 X212.035 Y105.74 E103.15665
G1 X211.884 Y116.21 E103.67905
G1 X210.657 Y126.615 E104.20176
G1 X208.369 Y136.823 E104.72367
G1 X205.038 Y146.761 E105.24659
G1 X200.709 Y156.286 E105.76857
G1 X195.416 Y165.332 E106.29146
G1 X189.231 Y173.771 E106.81345
G1 X182.213 Y181.529 E107.33537
G1 X174.419 Y188.537 E107.85828
G1 X165.95 Y194.703 E108.38093
G1 X156.899 Y199.961 E108.90315
G1 X147.359 Y204.26 E109.42519
G1 X137.411 Y207.56 E109.9481
G1 X127.198 Y209.815 E110.4699
G1 X116.786 Y211.01 E110.99276
G1 X106.317 Y211.129 E111.5151
G1 X95.893 Y210.17 E112.03735
G1 X85.62 Y208.145 E112.55974
G1 X75.609 Y205.073 E113.08217
G1 X65.97 Y200.99 E113.60443
G1 X56.795 Y195.933 E114.1271
G1 X48.198 Y189.966 E114.64919
G1 X40.254 Y183.143 E115.17163
G1 X33.056 Y175.541 E115.69394
G1 X26.672 Y167.23 E116.21678
G1 X21.184 Y158.321 E116.73882
G1 X16.638 Y148.887 E117.26128
G1 X13.085 Y139.037 E117.78369
G1 X10.566 Y128.876 E118.30597
G1 X9.105 Y118.508 E118.82834
G1 X8.716 Y108.046 E119.35065
G1 X9.407 Y97.59 E119.87344
G1 X11.166 Y87.278 E120.39534
G1 X13.982 Y77.178 E120.91845
G1 X17.811 Y67.449 E121.44007
G1 X22.632 Y58.143 E121.96295
G1 X28.378 Y49.392 E122.48524
G1 X34.99 Y41.281 E123.00732
G1 X42.41 Y33.884 E123.53003
G1 X50.541 Y27.298 E124.05207
G1 X59.319 Y21.575 E124.57486
G1 X68.628 Y16.788 E125.09709
G1 X78.38 Y12.985 E125.61931
G1 X88.487 Y10.201 E126.14233
G1 X93.614 Y9.207 E126.40288
G1 X98.796 Y8.476 E126.66397
G1 X109.258 Y7.819 E127.18695
G1 X119.718 Y8.239 E127.70922
G0 F3600 X119.915 Y8.267
G0 X119.843 Y8.76
G0 X135.327 Y13.141
G0 X145.264 Y16.274
G0 X154.818 Y20.43
G0 X163.887 Y25.559
G0 X172.369 Y31.61
G0 X180.174 Y38.513
G0 X187.212 Y46.195
G0 X193.41 Y54.57
G0 X198.698 Y63.548
G0 X203.019 Y73.029
G0 X206.325 Y82.909
G0 X208.581 Y93.082
G0 X209.76 Y103.435
G0 X209.85 Y113.851
G0 X208.852 Y124.223
G0 X206.775 Y134.433
G0 X203.688 Y144.415
G0 X203.231 Y144.216
G1 F360 X206.349 Y134.323 E128.22672
G1 X208.417 Y124.159 E128.74419
G1 X209.411 Y113.833 E129.26174
G1 X209.321 Y103.461 E129.77922
G1 X208.147 Y93.154 E130.29676
G1 X205.901 Y83.026 E130.81433
G1 X202.609 Y73.19 E131.3318
G1 X198.308 Y63.751 E131.8493
G1 X193.043 Y54.813 E132.36683
G1 X186.873 Y46.475 E132.88432
G1 X179.865 Y38.827 E133.40185
G1 X172.096 Y31.954 E133.91935
G1 X163.651 Y25.93 E134.43688
G1 X154.622 Y20.823 E134.9544
G1 X145.11 Y16.686 E135.4719
G1 X135.217 Y13.567 E135.98941
G1 X125.053 Y11.499 E136.50688
G1 X114.727 Y10.505 E137.02443
G1 X104.355 Y10.596 E137.54191
G1 X94.048 Y11.77 E138.05946
G1 X83.92 Y14.015 E138.57701
G1 X74.084 Y17.307 E139.09448
G1 X64.645 Y21.608 E139.61198
G1 X55.707 Y26.874 E140.12954
G1 X47.369 Y33.043 E140.647
G1 X39.721 Y40.052 E141.16456
G1 X32.848 Y47.82 E141.68202
G1 X26.824 Y56.265 E142.19955
G1 X21.717 Y65.294 E142.71707
G1 X17.58 Y74.807 E143.23462
G1 X14.461 Y84.7 E143.75213
G1 X12.393 Y94.864 E144.2696
G1 X11.399 Y105.189 E144.7871
G1 X11.49 Y115.562 E145.30463
G1 X12.664 Y125.868 E145.82212
G1 X14.91 Y135.996 E146.33969
G1 X18.201 Y145.832 E146.85715
G1 X22.502 Y155.271 E147.37464
G1 X27.768 Y164.21 E147.89225
G1 X33.937 Y172.547 E148.40967
G1 X40.946 Y180.195 E148.92722
G1 X48.714 Y187.069 E149.44472
G1 X57.159 Y193.092 E149.96222
G1 X66.188 Y198.2 E150.47977
G1 X75.701 Y202.337 E150.99731
G1 X85.594 Y205.455 E151.51481
G1 X95.758 Y207.523 E152.03228
G1 X106.083 Y208.517 E152.54978
G1 X116.456 Y208.427 E153.06731
G1 X126.763 Y207.253 E153.58485
G1 X136.89 Y205.007 E154.10237
G1 X146.726 Y201.715 E154.61984
G1 X156.165 Y197.414 E155.13734
G1 X165.104 Y192.149 E155.65492
G1 X173.441 Y185.979 E156.17237
G1 X181.09 Y178.97 E156.68996
G1 X187.963 Y171.202 E157.20743
G1 X193.986 Y162.757 E157.72493
G1 X199.094 Y153.728 E158.24248
G1 X203.231 Y144.216 E158.75997
G0 F3600 X203.291 Y144.026
G0 X203.767 Y144.177
G0 X203.972 Y144.493
;TYPE:SKIN
G1 F360 X207.115 Y134.521 E159.2816
G1 X209.199 Y124.276 E159.8032
G1 X210.201 Y113.867 E160.3249
G1 X210.111 Y103.413 E160.84647
G1 X208.928 Y93.024 E161.36813
G1 X206.663 Y82.814 E161.8899
G1 X203.345 Y72.9 E162.41147
G1 X199.01 Y63.386 E162.93308
G1 X193.703 Y54.376 E163.45477
G1 X187.484 Y45.972 E163.97636
G1 X180.419 Y38.262 E164.49809
G1 X172.588 Y31.335 E165.01969
G1 X164.076 Y25.263 E165.54133
G1 X154.975 Y20.116 E166.06296
G1 X145.387 Y15.945 E166.58461
G1 X135.415 Y12.801 E167.10626
G1 X125.17 Y10.717 E167.62785
G1 X114.761 Y9.715 E168.14956
G1 X104.307 Y9.806 E168.67113
G1 X93.918 Y10.989 E169.19279
G1 X83.708 Y13.253 E169.71454
G1 X73.794 Y16.571 E170.23612
G1 X64.28 Y20.906 E170.75773
G1 X55.27 Y26.214 E171.27944
G1 X46.866 Y32.432 E171.80101
G1 X39.156 Y39.498 E172.32276
G1 X32.229 Y47.328 E172.84433
G1 X26.157 Y55.84 E173.36597
G1 X21.01 Y64.941 E173.8876
G1 X16.839 Y74.53 E174.4093
G1 X13.695 Y84.502 E174.93095
G1 X11.611 Y94.747 E175.45254
G1 X10.609 Y105.155 E175.9742
G1 X10.7 Y115.61 E176.49582
G1 X11.883 Y125.998 E177.01743
G1 X14.148 Y136.208 E177.53919
G1 X17.465 Y146.122 E178.06075
G1 X21.8 Y155.636 E178.58236
G1 X27.108 Y164.647 E179.10412
G1 X33.326 Y173.05 E179.62564
G1 X40.392 Y180.76 E180.1474
G1 X48.222 Y187.688 E180.669
G1 X56.734 Y193.759 E181.19061
G1 X65.835 Y198.907 E181.71227
G1 X75.424 Y203.078 E182.23396
G1 X85.396 Y206.221 E182.75559
G1 X95.641 Y208.305 E183.27718
G1 X106.049 Y209.307 E183.79884
G1 X116.504 Y209.217 E184.32046
G1 X126.893 Y208.034 E184.84212
G1 X137.102 Y205.769 E185.36384
G1 X147.016 Y202.451 E185.88541
G1 X156.53 Y198.116 E186.40702
G1 X165.541 Y192.809 E186.92875
G1 X173.944 Y186.59 E187.45031
G1 X181.655 Y179.524 E187.9721
G1 X188.582 Y171.694 E188.49367
G1 X194.653 Y163.182 E189.01528
G1 X199.801 Y154.081 E189.53694
G1 X203.972 Y144.493 E190.05859
G0 F3600 X204.304 Y146.468
G1 F360 X200.005 Y155.923 E190.57677
G1 X194.751 Y164.905 E191.09592
G1 X188.62 Y173.27 E191.61334
G1 X181.658 Y180.966 E192.13109
G1 X173.927 Y187.918 E192.6498
G1 X165.512 Y194.044 E193.16909
G1 X156.538 Y199.258 E193.68689
G1 X147.078 Y203.521 E194.20456
G1 X137.203 Y206.797 E194.72362
G1 X127.065 Y209.034 E195.24158
G1 X116.734 Y210.22 E195.76038
G1 X106.341 Y210.339 E196.27892
G1 X96.003 Y209.388 E196.79686
G1 X85.821 Y207.38 E197.31463
G1 X75.877 Y204.33 E197.83355
G1 X66.316 Y200.279 E198.3516
G1 X57.214 Y195.262 E198.87011
G1 X48.684 Y189.341 E199.38815
G1 X40.8 Y182.571 E199.90661
G1 X33.663 Y175.033 E200.4245
G1 X27.323 Y166.779 E200.94375
G1 X21.871 Y157.928 E201.46238
G1 X17.369 Y148.584 E201.97984
G1 X13.84 Y138.801 E202.4987
G1 X11.343 Y128.731 E203.01631
G1 X9.894 Y118.445 E203.53455
G1 X9.507 Y108.058 E204.05312
G1 X10.195 Y97.667 E204.57266
G1 X11.937 Y87.458 E205.08935
G1 X14.733 Y77.423 E205.60907
G1 X18.529 Y67.781 E206.12605
G1 X23.317 Y58.539 E206.64534
G1 X29.018 Y49.858 E207.16348
G1 X35.575 Y41.813 E207.68127
G1 X42.933 Y34.478 E208.19961
G1 X51.011 Y27.934 E208.71827
G1 X59.714 Y22.261 E209.23656
G1 X68.955 Y17.508 E209.755
G1 X78.627 Y13.737 E210.27292
G1 X88.667 Y10.971 E210.79248
G1 X93.751 Y9.986 E211.05084
G1 X98.866 Y9.264 E211.30856
G1 X109.266 Y8.611 E211.82844
G1 X119.651 Y9.028 E212.34696
G1 X129.932 Y10.51 E212.86519
G1 X139.998 Y13.039 E213.38299
G1 X149.769 Y16.597 E213.90178
G1 X159.119 Y21.14 E214.4204
G1 X167.946 Y26.613 E214.93856
G1 X176.141 Y32.952 E215.45545
G1 X183.692 Y40.146 E215.97577
G1 X190.419 Y48.026 E216.49268
G1 X196.33 Y56.6 E217.01224
