;FLAVOR:Marlin
;TIME:5054
;Filament used: 1.62438m
;Layer height: 0.3
;Generated with Cura_SteamEngine 3.4.1
M190 S58
M104 S222
M109 S222
M82 ;absolute extrusion mode
G21 ;metric values
G90 ;absolute positioning
M82 ;set extruder to absolute mode
M107 ;start with the fan off
G28 X0 Y0 ;move X/Y to min endstops
G28 Z0 ;move Z to min endstops
G1 Z15.0 F9000 ;move the platform down 15mm
G92 E0 ;zero the extruded length
G1 F200 E3 ;extrude 3mm of feed stock
G92 E0 ;zero the extruded length again
G1 F9000
;Put printing message on LCD screen
M117 Printing...
G92 E0
;LAYER_COUNT:7
;LAYER:0
M107
G0 F3600 X35.704 Y30.802 Z0.3
;TYPE:SKIRT
G1 F360 X35.767 Y30.742 E0.00434
G1 X36.416 Y30.129 E0.04888
G1 X36.605 Y29.963 E0.06143
G1 X44.824 Y23.339 E0.58807
G1 X45.087 Y23.149 E0.60426
G1 X53.668 Y17.565 E1.11503
G1 X53.95 Y17.401 E1.1313
G1 X63.266 Y12.614 E1.65385
G1 X63.572 Y12.477 E1.67058
G1 X73.592 Y8.59 E2.20677
G1 X73.903 Y8.487 E2.22312
G1 X83.937 Y5.738 E2.74216
G1 X84.177 Y5.682 E2.75446
G1 X89.293 Y4.696 E3.01439
G1 X89.457 Y4.669 E3.02269
G1 X94.515 Y3.963 E3.27748
G1 X94.756 Y3.938 E3.28956
G1 X105.234 Y3.279 E3.81335
G1 X105.57 Y3.276 E3.83011
G1 X116.324 Y3.729 E4.36711
G1 X116.654 Y3.76 E4.38364
G1 X127.003 Y5.279 E4.90549
G1 X127.326 Y5.344 E4.92193
G1 X137.528 Y7.937 E5.44709
G1 X137.838 Y8.032 E5.46326
G1 X147.453 Y11.544 E5.97396
G1 X147.753 Y11.672 E5.99023
G1 X157.161 Y16.243 E6.51206
G1 X157.461 Y16.408 E6.52914
G1 X166.797 Y22.251 E7.07862
G1 X167.068 Y22.441 E7.09513
G1 X175.285 Y28.855 E7.61518
G1 X175.533 Y29.071 E7.63159
G1 X183.08 Y36.324 E8.15381
G1 X183.302 Y36.56 E8.16997
G1 X189.962 Y44.402 E8.68326
G1 X190.162 Y44.664 E8.69971
G1 X196.11 Y53.341 E9.22455
G1 X196.279 Y53.616 E9.24065
G1 X201.181 Y62.592 E9.7509
G1 X201.323 Y62.887 E9.76723
G1 X205.381 Y72.551 E10.29015
G1 X205.493 Y72.861 E10.3066
G1 X208.538 Y82.896 E10.82979
G1 X208.617 Y83.215 E10.84618
G1 X210.616 Y93.518 E11.36979
G1 X210.662 Y93.845 E11.38626
G1 X211.589 Y104.29 E11.90941
G1 X211.601 Y104.631 E11.92643
G1 X211.402 Y115.629 E12.47522
G1 X211.379 Y115.961 E12.49182
G1 X210.104 Y126.346 E13.01382
G1 X210.048 Y126.669 E13.03017
G1 X207.722 Y136.847 E13.55105
G1 X207.631 Y137.165 E13.56755
G1 X204.233 Y147.147 E14.09362
G1 X204.114 Y147.447 E14.10972
G1 X199.854 Y156.758 E14.62056
G1 X199.702 Y157.05 E14.63698
G1 X194.373 Y166.107 E15.16125
G1 X194.191 Y166.383 E15.17774
G1 X187.951 Y174.849 E15.70245
G1 X187.743 Y175.103 E15.71883
G1 X180.716 Y182.831 E16.23994
G1 X180.482 Y183.062 E16.25634
G1 X172.661 Y190.062 E16.77999
G1 X172.408 Y190.267 E16.79624
G1 X164.113 Y196.296 E17.30784
G1 X163.84 Y196.474 E17.3241
G1 X154.767 Y201.746 E17.84762
G1 X154.473 Y201.897 E17.86411
G1 X144.915 Y206.201 E18.38708
G1 X144.609 Y206.32 E18.40346
G1 X134.649 Y209.625 E18.92701
G1 X134.331 Y209.713 E18.94347
G1 X124.087 Y211.976 E19.46687
G1 X123.756 Y212.031 E19.48361
G1 X113.056 Y213.238 E20.02082
G1 X112.73 Y213.258 E20.03711
G1 X102.491 Y213.362 E20.54796
G1 X102.165 Y213.349 E20.56424
G1 X91.779 Y212.395 E21.08458
G1 X91.448 Y212.347 E21.10127
G1 X80.861 Y210.241 E21.6398
G1 X80.544 Y210.16 E21.65613
G1 X70.782 Y207.156 E22.16569
G1 X70.474 Y207.044 E22.18204
G1 X60.806 Y202.947 E22.70591
G1 X60.506 Y202.801 E22.72255
G1 X51.112 Y197.603 E23.25818
G1 X50.829 Y197.427 E23.27481
G1 X42.187 Y191.393 E23.80066
G1 X41.932 Y191.194 E23.81679
G1 X34.22 Y184.557 E24.32441
G1 X33.98 Y184.329 E24.34093
G1 X26.62 Y176.535 E24.87575
G1 X26.404 Y176.28 E24.89242
G1 X19.985 Y167.876 E25.42001
G1 X19.799 Y167.605 E25.43641
G1 X14.34 Y158.69 E25.95794
G1 X14.185 Y158.405 E25.97412
G1 X9.753 Y149.184 E26.48454
G1 X9.628 Y148.887 E26.50062
G1 X6.3 Y139.69 E26.98857
G1 X6.268 Y139.598 E26.99343
G1 X5.974 Y138.701 E27.04053
G1 X5.909 Y138.472 E27.0524
G1 X3.448 Y128.517 E27.56401
G1 X3.384 Y128.189 E27.58068
G1 X1.901 Y117.494 E28.11937
G1 X1.873 Y117.169 E28.13564
G1 X1.507 Y106.979 E28.64435
G1 X1.512 Y106.653 E28.66061
G1 X2.202 Y96.206 E29.18295
G1 X2.242 Y95.873 E29.19969
G1 X4.07 Y85.272 E29.73638
G1 X4.141 Y84.954 E29.75263
G1 X6.896 Y75.103 E30.26296
G1 X7.004 Y74.784 E30.27976
G1 X11.023 Y64.663 E30.82305
G1 X11.162 Y64.359 E30.83973
G1 X16.063 Y55.005 E31.36658
G1 X16.228 Y54.727 E31.38271
G1 X21.871 Y46.18 E31.89367
G1 X22.065 Y45.916 E31.91002
G1 X28.7 Y37.812 E32.43255
G1 X28.916 Y37.573 E32.44863
G1 X35.704 Y30.802 E32.92696
G1 F180 Z1.3
G0 F3600 X115.861 Y7.484 Z1.3
;TYPE:WALL-INNER
G1 F180 Z0.3
G1 F360 X126.182 Y8.972 E33.4472
G1 X136.295 Y11.513 E33.96742
G1 X146.095 Y15.081 E34.48774
G1 X155.479 Y19.64 E35.00824
G1 X164.345 Y25.139 E35.52873
G1 X172.583 Y31.509 E36.04827
G1 X180.145 Y38.714 E36.56937
G1 X186.912 Y46.641 E37.08935
G1 X192.836 Y55.235 E37.6101
G1 X197.839 Y64.379 E38.13011
G1 X201.877 Y73.993 E38.65035
G1 X204.905 Y83.974 E39.17071
G1 X206.891 Y94.219 E39.69135
G1 X207.813 Y104.596 E40.2111
G1 X207.662 Y115.031 E40.73176
G1 X206.439 Y125.394 E41.25236
G1 X204.161 Y135.56 E41.77212
G1 X200.843 Y145.46 E42.29304
G1 X196.532 Y154.947 E42.81292
G1 X191.261 Y163.956 E43.33366
G1 X185.098 Y172.364 E43.85376
G1 X178.103 Y180.095 E44.37391
G1 X170.346 Y187.071 E44.89438
G1 X161.914 Y193.209 E45.41471
G1 X152.894 Y198.451 E45.93519
G1 X143.393 Y202.731 E46.45508
G1 X133.483 Y206.019 E46.97599
G1 X123.302 Y208.266 E47.49615
G1 X112.941 Y209.456 E48.01646
G1 X102.508 Y209.574 E48.53699
G1 X92.125 Y208.62 E49.05719
G1 X81.895 Y206.602 E49.5774
G1 X71.925 Y203.544 E50.09768
G1 X62.323 Y199.475 E50.61796
G1 X53.189 Y194.441 E51.13828
G1 X44.618 Y188.493 E51.65877
G1 X36.705 Y181.696 E52.1792
G1 X29.54 Y174.129 E52.6991
G1 X23.182 Y165.851 E53.21985
G1 X17.71 Y156.969 E53.74032
G1 X13.185 Y147.577 E54.26043
G1 X9.646 Y137.764 E54.78087
G1 X7.137 Y127.647 E55.3009
G1 X5.681 Y117.321 E55.82116
G1 X5.295 Y106.891 E56.34187
G1 X5.983 Y96.481 E56.86236
G1 X7.735 Y86.211 E57.38214
G1 X10.539 Y76.15 E57.90321
G1 X14.353 Y66.462 E58.42266
G1 X19.155 Y57.192 E58.94351
G1 X24.878 Y48.476 E59.46371
G1 X31.469 Y40.39 E59.98416
G1 X38.85 Y33.032 E60.50412
G1 X46.958 Y26.463 E61.02473
G1 X55.692 Y20.769 E61.54489
G1 X64.971 Y15.998 E62.06543
G1 X74.683 Y12.212 E62.58548
G1 X84.757 Y9.436 E63.1068
G1 X89.865 Y8.446 E63.36639
G1 X95.017 Y7.72 E63.62596
G1 X105.434 Y7.065 E64.14669
G1 X115.861 Y7.484 E64.66732
G0 F3600 X115.852 Y7.583
G0 X100.506 Y9.002
G0 X90.154 Y10.181
G0 X79.981 Y12.437
G0 X70.101 Y15.743
G0 X60.62 Y20.064
G0 X51.642 Y25.352
G0 X43.267 Y31.549
G0 X35.585 Y38.588
G0 X28.681 Y46.393
G0 X22.631 Y54.874
G0 X17.501 Y63.943
G0 X13.346 Y73.498
G0 X10.213 Y83.435
G0 X8.136 Y93.645
G0 X7.138 Y104.017
G0 X7.228 Y114.433
G0 X8.407 Y124.786
G0 X10.663 Y134.958
G0 X13.969 Y144.838
G0 X18.29 Y154.319
G0 X23.578 Y163.298
G0 X29.776 Y171.672
G0 X36.815 Y179.355
G0 X44.619 Y186.258
G0 X53.069 Y192.36
G0 X53.122 Y192.276
G1 F360 X62.187 Y197.403 E65.18689
G1 X71.738 Y201.557 E65.70651
G1 X81.671 Y204.689 E66.22612
G1 X91.877 Y206.764 E66.74572
G1 X102.244 Y207.762 E67.26532
G1 X112.658 Y207.672 E67.7849
G1 X123.006 Y206.493 E68.3045
G1 X133.175 Y204.238 E68.82416
G1 X143.051 Y200.933 E69.34373
G1 X152.528 Y196.614 E69.86333
G1 X161.502 Y191.328 E70.38294
G1 X169.874 Y185.134 E70.90251
G1 X177.553 Y178.097 E71.42215
G1 X184.454 Y170.296 E71.94177
G1 X190.502 Y161.818 E72.46134
G1 X195.629 Y152.753 E72.98091
G1 X199.783 Y143.201 E73.50058
G1 X202.915 Y133.268 E74.02019
G1 X204.991 Y123.063 E74.53975
G1 X205.989 Y112.695 E75.0594
G1 X205.898 Y102.282 E75.57893
G1 X204.719 Y91.933 E76.09858
G1 X202.465 Y81.765 E76.61818
G1 X199.16 Y71.889 E77.13775
G1 X194.841 Y62.412 E77.65735
G1 X189.555 Y53.437 E78.177
G1 X183.36 Y45.066 E78.69656
G1 X176.323 Y37.386 E79.21624
G1 X168.523 Y30.486 E79.73579
G1 X160.044 Y24.438 E80.25539
G1 X150.979 Y19.31 E80.775
G1 X141.428 Y15.156 E81.29461
G1 X131.495 Y12.024 E81.81423
G1 X121.289 Y9.949 E82.33382
G1 X110.922 Y8.951 E82.85342
G1 X100.508 Y9.041 E83.373
G1 X90.16 Y10.22 E83.8926
G1 X79.991 Y12.475 E84.41226
G1 X70.115 Y15.78 E84.93184
G1 X60.638 Y20.099 E85.45143
G1 X51.664 Y25.385 E85.97104
G1 X43.292 Y31.579 E86.49061
G1 X35.613 Y38.616 E87.01025
G1 X28.712 Y46.417 E87.52987
G1 X22.664 Y54.895 E88.04944
G1 X17.536 Y63.96 E88.56904
G1 X13.383 Y73.512 E89.08869
G1 X10.251 Y83.445 E89.6083
G1 X8.175 Y93.65 E90.12785
G1 X7.177 Y104.018 E90.64751
G1 X7.267 Y114.431 E91.16703
G1 X8.446 Y124.78 E91.68669
G1 X10.701 Y134.948 E92.20629
G1 X14.006 Y144.824 E92.72587
G1 X18.325 Y154.301 E93.24546
G1 X23.611 Y163.276 E93.76512
G1 X29.806 Y171.647 E94.28467
G1 X36.843 Y179.327 E94.80435
G1 X44.643 Y186.227 E95.3239
G1 X53.122 Y192.276 E95.84354
G0 F3600 X53.337 Y191.938
;TYPE:WALL-OUTER
G1 F360 X62.366 Y197.045 E96.36106
G1 X71.878 Y201.182 E96.87856
G1 X81.771 Y204.301 E97.39607
G1 X91.936 Y206.368 E97.91358
G1 X102.261 Y207.362 E98.43108
G1 X112.634 Y207.272 E98.94861
G1 X122.94 Y206.098 E99.46611
G1 X133.068 Y203.852 E99.98367
G1 X142.904 Y200.56 E100.50114
G1 X152.343 Y196.259 E101.01864
G1 X161.281 Y190.994 E101.53617
G1 X169.619 Y184.825 E102.05364
G1 X177.267 Y177.816 E102.57119
G1 X184.141 Y170.047 E103.08873
G1 X190.164 Y161.603 E103.60619
G1 X195.271 Y152.574 E104.12371
G1 X199.408 Y143.061 E104.64125
G1 X202.527 Y133.168 E105.15876
G1 X204.595 Y123.004 E105.67624
G1 X205.589 Y112.678 E106.19379
G1 X205.498 Y102.306 E106.71127
G1 X204.324 Y91.999 E107.22881
G1 X202.079 Y81.872 E107.74631
G1 X198.787 Y72.036 E108.26379
G1 X194.486 Y62.597 E108.78129
G1 X189.221 Y53.658 E109.29886
G1 X183.051 Y45.321 E109.81631
G1 X176.042 Y37.672 E110.33391
G1 X168.274 Y30.799 E110.85137
G1 X159.829 Y24.776 E111.36887
G1 X150.8 Y19.668 E111.88642
G1 X141.288 Y15.531 E112.40392
G1 X131.395 Y12.412 E112.92143
G1 X121.23 Y10.345 E113.43894
G1 X110.905 Y9.351 E113.95644
G1 X100.532 Y9.441 E114.47397
G1 X90.226 Y10.615 E114.99146
G1 X80.098 Y12.861 E115.50903
G1 X70.262 Y16.153 E116.0265
G1 X60.823 Y20.454 E116.544
G1 X51.885 Y25.719 E117.06153
G1 X43.547 Y31.888 E117.57899
G1 X35.899 Y38.897 E118.09655
G1 X29.025 Y46.666 E118.61409
G1 X23.002 Y55.11 E119.13154
G1 X17.894 Y64.139 E119.64909
G1 X13.758 Y73.652 E120.16661
G1 X10.639 Y83.545 E120.68413
G1 X8.571 Y93.709 E121.2016
G1 X7.577 Y104.035 E121.71915
G1 X7.667 Y114.407 E122.23663
G1 X8.841 Y124.714 E122.75417
G1 X11.087 Y134.841 E123.27169
G1 X14.379 Y144.677 E123.78916
G1 X18.68 Y154.116 E124.30666
G1 X23.945 Y163.055 E124.82423
G1 X30.115 Y171.392 E125.34169
G1 X37.124 Y179.041 E125.85928
G1 X44.892 Y185.914 E126.37674
G1 X53.337 Y191.938 E126.89427
G0 F3600 X53.511 Y192.036
G0 X53.264 Y192.471
G0 X44.619 Y186.258
G0 X36.815 Y179.355
G0 X29.776 Y171.672
G0 X23.578 Y163.298
G0 X18.29 Y154.319
G0 X13.969 Y144.838
G0 X10.663 Y134.958
G0 X8.407 Y124.786
G0 X7.228 Y114.433
G0 X7.138 Y104.017
G0 X8.136 Y93.645
G0 X10.213 Y83.435
G0 X13.346 Y73.498
G0 X17.501 Y63.943
G0 X22.631 Y54.874
G0 X28.681 Y46.393
G0 X35.585 Y38.588
G0 X43.267 Y31.549
G0 X51.642 Y25.352
G0 X60.62 Y20.064
G0 X70.101 Y15.743
G0 X79.981 Y12.437
G0 X90.154 Y10.181
G0 X98.538 Y9.227
G0 X115.852 Y7.583
G0 X115.895 Y7.085
G1 F360 X126.258 Y8.579 E127.41663
G1 X136.415 Y11.131 E127.93912
G1 X146.252 Y14.712 E128.46139
G1 X155.671 Y19.288 E128.98383
G1 X164.571 Y24.808 E129.50632
G1 X172.848 Y31.208 E130.02831
G1 X180.434 Y38.436 E130.55107
G1 X187.228 Y46.395 E131.07314
G1 X193.179 Y55.028 E131.59626
G1 X198.201 Y64.206 E132.11821
G1 X202.254 Y73.857 E132.64044
G1 X205.294 Y83.879 E133.16294
G1 X207.287 Y94.156 E133.68521
G1 X208.213 Y104.586 E134.20761
G1 X208.062 Y115.055 E134.72997
G1 X206.834 Y125.46 E135.25268
G1 X204.546 Y135.669 E135.77464
G1 X201.216 Y145.606 E136.2975
G1 X196.887 Y155.132 E136.81952
G1 X191.594 Y164.178 E137.34241
G1 X185.408 Y172.617 E137.86443
G1 X178.39 Y180.374 E138.38631
G1 X170.597 Y187.382 E138.90919
G1 X162.127 Y193.548 E139.43187
G1 X153.077 Y198.807 E139.95408
G1 X143.537 Y203.105 E140.4761
G1 X133.589 Y206.405 E140.999
G1 X123.375 Y208.66 E141.52085
G1 X112.963 Y209.856 E142.04373
G1 X102.495 Y209.974 E142.56601
G1 X92.07 Y209.016 E143.08831
G1 X81.797 Y206.99 E143.6107
G1 X71.786 Y203.919 E144.13312
G1 X62.148 Y199.835 E144.65535
G1 X52.973 Y194.778 E145.17802
G1 X44.376 Y188.812 E145.70009
G1 X36.431 Y181.988 E146.2226
G1 X29.233 Y174.386 E146.74491
G1 X22.85 Y166.075 E147.26772
G1 X17.361 Y157.167 E147.78974
G1 X12.816 Y147.732 E148.31222
G1 X9.263 Y137.882 E148.83463
G1 X6.744 Y127.721 E149.35691
G1 X5.282 Y117.353 E149.87929
G1 X4.894 Y106.891 E150.4016
G1 X5.585 Y96.436 E150.92434
G1 X7.344 Y86.124 E151.44624
G1 X10.16 Y76.023 E151.9694
G1 X13.989 Y66.294 E152.49102
G1 X18.81 Y56.989 E153.01385
G1 X24.556 Y48.238 E153.53615
G1 X31.168 Y40.126 E154.05826
G1 X38.588 Y32.729 E154.58097
G1 X46.718 Y26.143 E155.10297
G1 X55.496 Y20.42 E155.62576
G1 X64.806 Y15.633 E156.14804
G1 X74.558 Y11.831 E156.67024
G1 X84.665 Y9.046 E157.19327
G1 X89.792 Y8.052 E157.45382
G1 X94.974 Y7.322 E157.71491
G1 X105.435 Y6.664 E158.23784
G1 X115.895 Y7.085 E158.76011
G0 F3600 X116.092 Y7.113
G0 X116.02 Y7.606
G0 X115.828 Y7.874
;TYPE:SKIN
G1 F360 X126.109 Y9.356 E159.27833
G1 X136.175 Y11.885 E159.79614
G1 X145.946 Y15.442 E160.31491
G1 X155.296 Y19.985 E160.83353
G1 X164.124 Y25.459 E161.35176
G1 X172.319 Y31.797 E161.86862
G1 X179.864 Y38.985 E162.38852
G1 X186.602 Y46.878 E162.90627
G1 X192.507 Y55.445 E163.42538
G1 X197.489 Y64.551 E163.94323
G1 X201.51 Y74.122 E164.46115
G1 X204.525 Y84.065 E164.97952
G1 X206.506 Y94.281 E165.49869
G1 X207.423 Y104.606 E166.01583
G1 X207.272 Y115 E166.53445
G1 X206.053 Y125.337 E167.05373
G1 X203.786 Y135.45 E167.5708
G1 X200.48 Y145.317 E168.08996
G1 X196.185 Y154.766 E168.60779
G1 X190.929 Y163.751 E169.12711
G1 X184.797 Y172.116 E169.64457
G1 X177.835 Y179.811 E170.16228
G1 X170.105 Y186.763 E170.68095
G1 X161.689 Y192.889 E171.20028
G1 X152.716 Y198.104 E171.71806
G1 X143.256 Y202.366 E172.23571
G1 X133.381 Y205.642 E172.75478
G1 X123.242 Y207.879 E173.27278
G1 X112.91 Y209.066 E173.79164
G1 X102.519 Y209.184 E174.31008
G1 X92.18 Y208.234 E174.82807
G1 X81.998 Y206.225 E175.34584
G1 X72.054 Y203.176 E175.86475
G1 X62.494 Y199.124 E176.38277
G1 X53.392 Y194.107 E176.90129
G1 X44.862 Y188.187 E177.4193
G1 X36.977 Y181.416 E177.93782
G1 X29.84 Y173.878 E178.45571
G1 X23.501 Y165.624 E178.97493
G1 X18.048 Y156.774 E179.49355
G1 X13.547 Y147.429 E180.01103
G1 X10.018 Y137.646 E180.52989
G1 X7.521 Y127.576 E181.0475
G1 X6.071 Y117.29 E181.56574
G1 X5.685 Y106.903 E182.08431
G1 X6.373 Y96.513 E182.60381
G1 X8.115 Y86.304 E183.1205
G1 X10.911 Y76.268 E183.64026
G1 X14.707 Y66.626 E184.15724
G1 X19.495 Y57.385 E184.67649
G1 X25.196 Y48.704 E185.19463
G1 X31.753 Y40.658 E185.71246
G1 X39.111 Y33.323 E186.23079
G1 X47.188 Y26.779 E186.74942
G1 X55.891 Y21.106 E187.26771
G1 X65.133 Y16.353 E187.7862
G1 X74.805 Y12.583 E188.3041
G1 X84.846 Y9.816 E188.82372
G1 X89.929 Y8.831 E189.08203
G1 X95.044 Y8.11 E189.33974
G1 X105.443 Y7.456 E189.85957
G1 X115.828 Y7.874 E190.3781
G0 F3600 X110.939 Y8.561
G1 F360 X100.484 Y8.651 E190.89972
G1 X90.096 Y9.834 E191.42133
G1 X79.886 Y12.099 E191.94309
G1 X69.972 Y15.417 E192.46467
G1 X60.458 Y19.752 E192.98628
G1 X51.448 Y25.059 E193.50797
G1 X43.044 Y31.277 E194.02953
G1 X35.334 Y38.343 E194.55129
G1 X28.406 Y46.174 E195.07293
G1 X22.335 Y54.685 E195.5945
G1 X17.187 Y63.786 E196.11615
G1 X13.017 Y73.375 E196.63783
G1 X9.873 Y83.347 E197.15948
G1 X7.789 Y93.592 E197.68107
G1 X6.787 Y104.001 E198.20278
G1 X6.877 Y114.455 E198.72435
G1 X8.06 Y124.844 E199.24601
G1 X10.325 Y135.053 E199.76772
G1 X13.643 Y144.967 E200.2893
G1 X17.978 Y154.481 E200.8109
G1 X23.285 Y163.492 E201.33264
G1 X29.504 Y171.895 E201.85419
G1 X36.57 Y179.606 E202.37598
G1 X44.4 Y186.533 E202.89755
G1 X52.912 Y192.605 E203.41919
G1 X62.013 Y197.752 E203.94083
G1 X71.601 Y201.923 E204.46247
G1 X81.573 Y205.067 E204.98412
G1 X91.819 Y207.15 E205.50575
G1 X102.227 Y208.152 E206.02741
G1 X112.682 Y208.062 E206.54903
G1 X123.07 Y206.879 E207.07064
G1 X133.28 Y204.614 E207.5924
G1 X143.194 Y201.296 E208.11398
G1 X152.708 Y196.961 E208.63559
