;FLAVOR:Marlin
;TIME:11705
;Filament used: 3.94596m
;Layer height: 0.3
;Generated with Cura_SteamEngine 3.4.1
M190 S58
M104 S222
M109 S222
M82 ;absolute extrusion mode
G21 ;metric values
G90 ;absolute positioning
M82 ;set extruder to absolute mode
M107 ;start with the fan off
G28 X0 Y0 ;move X/Y to min endstops
G28 Z0 ;move Z to min endstops
G1 Z15.0 F9000 ;move the platform down 15mm
G92 E0 ;zero the extruded length
G1 F200 E3 ;extrude 3mm of feed stock
G92 E0 ;zero the extruded length again
G1 F9000
;Put printing message on LCD screen
M117 Printing...
G92 E0
;LAYER_COUNT:14
;LAYER:0
M107
G0 F3600 X40.807 Y33.984 Z0.3
;TYPE:WALL-INNER
G1 F360 X41.092 Y34.178 E0.0172
G1 X41.679 Y34.335 E0.04752
G1 X39.868 Y42.434 E0.46155
G1 X38.66 Y51.249 E0.90545
G1 X38.195 Y60.136 E1.34943
G1 X38.474 Y69.03 E1.79337
G1 X39.497 Y77.87 E2.23734
G1 X41.256 Y86.594 E2.68134
G1 X43.739 Y95.139 E3.12529
G1 X46.928 Y103.445 E3.56917
G1 X50.801 Y111.458 E4.01319
G1 X55.33 Y119.117 E4.4571
G1 X60.486 Y126.37 E4.90107
G1 X66.229 Y133.167 E5.34501
G1 X72.522 Y139.459 E5.78898
G1 X79.318 Y145.203 E6.23292
G1 X86.571 Y150.358 E6.67686
G1 X94.231 Y154.887 E7.12082
G1 X102.243 Y158.76 E7.56479
G1 X110.55 Y161.949 E8.00872
G1 X119.095 Y164.432 E8.45266
G1 X127.818 Y166.191 E8.89662
G1 X136.658 Y167.214 E9.34059
G1 X145.552 Y167.493 E9.78453
G1 X154.439 Y167.028 E10.22851
G1 X163.255 Y165.82 E10.67245
G1 X170.291 Y164.249 E11.03212
G1 X170.302 Y164.247 E11.03268
G1 X170.569 Y164.187 E11.04634
G1 X170.861 Y164.121 E11.06127
G1 X171.09 Y164.069 E11.07299
G1 X170.875 Y164.182 E11.07418
G1 X170.613 Y164.385 E11.08042
G1 X170.388 Y164.628 E11.0932
G1 X170.382 Y164.638 E11.09378
G1 X170.207 Y164.907 E11.10979
G1 X170.075 Y165.211 E11.12633
G1 X169.996 Y165.533 E11.14287
G1 X169.971 Y165.863 E11.15938
G1 X170.002 Y166.192 E11.17587
G1 X170.087 Y166.513 E11.19243
G1 X170.225 Y166.814 E11.20895
G1 X170.412 Y167.089 E11.22554
G1 X170.642 Y167.327 E11.24206
G1 X170.908 Y167.526 E11.25863
G1 X171.022 Y167.583 E11.26499
G1 X171.205 Y167.675 E11.27521
G1 X171.522 Y167.773 E11.29176
G1 X171.775 Y167.807 E11.3045
G1 X171.542 Y167.859 E11.30558
G1 X171.261 Y167.922 E11.31287
G1 X171.062 Y167.967 E11.32129
G1 X164.28 Y169.495 E11.66813
G1 X155.504 Y170.74 E12.11035
G1 X146.656 Y171.276 E12.55259
G1 X137.794 Y171.097 E12.9948
G1 X128.974 Y170.206 E13.43707
G1 X120.258 Y168.609 E13.87916
G1 X111.7 Y166.316 E14.32118
G1 X103.352 Y163.341 E14.76332
G1 X95.264 Y159.7 E15.20583
G1 X87.519 Y155.435 E15.64694
G1 X80.104 Y150.534 E16.09038
G1 X73.139 Y145.076 E16.53185
G1 X66.623 Y139.065 E16.97413
G1 X60.612 Y132.549 E17.41642
G1 X55.154 Y125.582 E17.85796
G1 X50.251 Y118.166 E18.3015
G1 X45.988 Y110.424 E18.74243
G1 X42.347 Y102.336 E19.18495
G1 X39.373 Y93.988 E19.62707
G1 X37.079 Y85.43 E20.0691
G1 X35.481 Y76.709 E20.51144
G1 X34.591 Y67.895 E20.95341
G1 X34.412 Y59.032 E21.39567
G1 X34.948 Y50.181 E21.83806
G1 X36.193 Y41.408 E22.28013
G1 X37.963 Y33.553 E22.68185
G1 X38.008 Y33.351 E22.69217
G1 X38.207 Y33.404 E22.69873
G1 X38.208 Y33.405 E22.6988
G1 X38.524 Y33.49 E22.71512
G1 X38.797 Y33.49 E22.72874
G1 X39.112 Y33.33 E22.74637
G1 X39.309 Y33.025 E22.76448
G1 X39.341 Y32.654 E22.78306
G1 X39.369 Y32.535 E22.78916
G1 X39.426 Y32.405 E22.79624
G1 X39.495 Y32.298 E22.80259
G1 X39.577 Y32.208 E22.80867
G1 X39.682 Y32.126 E22.81531
G1 X39.796 Y32.065 E22.82176
G1 X39.917 Y32.024 E22.82814
G1 X40.049 Y32.003 E22.83481
G1 X40.175 Y32.005 E22.84109
G1 X40.308 Y32.028 E22.84783
G1 X40.421 Y32.069 E22.85382
G1 X40.54 Y32.137 E22.86066
G1 X40.638 Y32.217 E22.86697
G1 X40.727 Y32.317 E22.87365
G1 X40.796 Y32.428 E22.88017
G1 X40.841 Y32.539 E22.88615
G1 X40.869 Y32.663 E22.89249
G1 X40.876 Y32.805 E22.89958
G1 X40.861 Y32.93 E22.90587
G1 X40.825 Y33.053 E22.91226
G1 X40.683 Y33.354 E22.92886
G1 X40.663 Y33.641 E22.94322
G1 X40.807 Y33.984 E22.96178
G0 F3600 X41.13 Y33.72
;TYPE:WALL-OUTER
G1 F360 X41.261 Y33.809 E22.96968
G1 X42.153 Y34.048 E23.01575
G1 X40.262 Y42.505 E23.44809
G1 X39.059 Y51.287 E23.89032
G1 X38.595 Y60.14 E24.3326
G1 X38.873 Y69.001 E24.7749
G1 X39.892 Y77.807 E25.21716
G1 X41.645 Y86.498 E25.65949
G1 X44.118 Y95.011 E26.10176
G1 X47.295 Y103.286 E26.54398
G1 X51.154 Y111.269 E26.98635
G1 X55.666 Y118.899 E27.42859
G1 X60.802 Y126.125 E27.87088
G1 X66.524 Y132.896 E28.31316
G1 X72.793 Y139.164 E28.75543
G1 X79.563 Y144.887 E29.1977
G1 X86.789 Y150.022 E29.63997
G1 X94.42 Y154.534 E30.08225
G1 X102.402 Y158.393 E30.52457
G1 X110.678 Y161.57 E30.96684
G1 X119.191 Y164.043 E31.40911
G1 X127.881 Y165.796 E31.85139
G1 X136.687 Y166.815 E32.29366
G1 X145.548 Y167.093 E32.73595
G1 X154.401 Y166.629 E33.17823
G1 X163.184 Y165.426 E33.62051
G1 X171.64 Y163.536 E34.05279
G1 X171.827 Y164.244 E34.08933
G1 X171.834 Y164.268 E34.09057
G1 X171.575 Y164.312 E34.0992
G1 X171.326 Y164.396 E34.11231
G1 X171.093 Y164.519 E34.12545
G1 X170.884 Y164.681 E34.13864
G1 X170.705 Y164.875 E34.15181
G1 X170.56 Y165.097 E34.16504
G1 X170.455 Y165.339 E34.1782
G1 X170.392 Y165.596 E34.1914
G1 X170.372 Y165.859 E34.20456
G1 X170.397 Y166.121 E34.21769
G1 X170.465 Y166.377 E34.23091
G1 X170.575 Y166.617 E34.24408
G1 X170.724 Y166.836 E34.2573
G1 X170.907 Y167.026 E34.27046
G1 X171.119 Y167.184 E34.28365
G1 X171.355 Y167.303 E34.29683
G1 X171.608 Y167.381 E34.31004
G1 X171.869 Y167.416 E34.32318
G1 X172.133 Y167.407 E34.33636
G1 X172.392 Y167.355 E34.34954
G1 X172.636 Y167.261 E34.36258
G1 X172.642 Y167.286
G1 X172.776 Y167.778 E34.38802
G1 X172.777 Y167.779 E34.38809
G1 X172.831 Y167.979 E34.39843
G1 X172.628 Y168.024 E34.40504
G1 X164.35 Y169.889 E34.82839
G1 X155.547 Y171.138 E35.27197
G1 X146.66 Y171.676 E35.71615
G1 X137.771 Y171.497 E36.15972
G1 X128.924 Y170.603 E36.60335
G1 X120.167 Y168.999 E37.0475
G1 X111.577 Y166.697 E37.49118
G1 X103.202 Y163.712 E37.93476
G1 X95.09 Y160.061 E38.37857
G1 X87.303 Y155.772 E38.82209
G1 X79.872 Y150.861 E39.26647
G1 X72.884 Y145.385 E39.7094
G1 X66.34 Y139.348 E40.15359
G1 X60.303 Y132.804 E40.59778
G1 X54.827 Y125.814 E41.04078
G1 X49.914 Y118.382 E41.48526
G1 X45.627 Y110.598 E41.9286
G1 X41.976 Y102.486 E42.37242
G1 X38.992 Y94.111 E42.81598
G1 X36.689 Y85.521 E43.25967
G1 X35.084 Y76.759 E43.70408
G1 X34.191 Y67.918 E44.1474
G1 X34.012 Y59.032 E44.59082
G1 X34.55 Y50.138 E45.03535
G1 X35.799 Y41.338 E45.47878
G1 X37.664 Y33.059 E45.90218
G1 X37.709 Y32.857 E45.9125
G1 X37.908 Y32.91 E45.91905
G1 X37.91 Y32.911 E45.91917
G1 X38.576 Y33.09 E45.95357
G1 X38.577 Y33.09 E45.95362
G1 X38.701 Y33.09 E45.95981
G1 X38.835 Y33.022 E45.9673
G1 X38.919 Y32.892 E45.97503
G1 X38.919 Y32.891 E45.97508
G1 X38.944 Y32.593 E45.99
G1 X38.989 Y32.405 E45.99964
G1 X39.07 Y32.219 E46.00976
G1 X39.175 Y32.055 E46.01948
G1 X39.307 Y31.911 E46.02922
G1 X39.461 Y31.791 E46.03896
G1 X39.639 Y31.696 E46.04903
G1 X39.818 Y31.635 E46.05846
G1 X40.02 Y31.603 E46.06867
G1 X40.213 Y31.605 E46.0783
G1 X40.41 Y31.64 E46.08828
G1 X40.592 Y31.706 E46.09794
G1 X40.766 Y31.805 E46.10792
G1 X40.917 Y31.928 E46.11764
G1 X41.048 Y32.076 E46.1275
G1 X41.152 Y32.243 E46.13732
G1 X41.226 Y32.424 E46.14707
G1 X41.267 Y32.609 E46.15653
G1 X41.277 Y32.813 E46.16672
G1 X41.254 Y33.011 E46.17666
G1 X41.2 Y33.197 E46.18632
G1 X41.077 Y33.457 E46.20067
G1 X41.069 Y33.574 E46.20652
G1 X41.13 Y33.72 E46.21442
G0 F3600 X41.261 Y33.809
G0 X41.301 Y33.819
G0 X41.172 Y34.302
G0 X41.217 Y34.615
;TYPE:SKIN
G1 F360 X39.484 Y42.365 E46.61062
G1 X38.272 Y51.212 E47.05612
G1 X37.805 Y60.132 E47.50175
G1 X38.084 Y69.059 E47.94734
G1 X39.111 Y77.931 E48.39292
G1 X40.877 Y86.687 E48.83855
G1 X43.369 Y95.264 E49.28416
G1 X46.569 Y103.6 E49.72963
G1 X50.457 Y111.643 E50.17532
G1 X55.003 Y119.33 E50.62087
G1 X60.178 Y126.61 E51.06649
G1 X65.942 Y133.431 E51.51202
G1 X72.258 Y139.746 E51.95761
G1 X79.078 Y145.511 E52.40314
G1 X86.358 Y150.685 E52.84873
G1 X94.046 Y155.231 E53.29432
G1 X102.087 Y159.119 E53.73992
G1 X110.425 Y162.319 E54.18549
G1 X119.002 Y164.811 E54.63109
G1 X127.757 Y166.577 E55.07668
G1 X136.629 Y167.604 E55.52226
G1 X145.556 Y167.883 E55.96785
G1 X154.476 Y167.416 E56.41348
G1 X163.324 Y166.204 E56.85903
G1 X169.852 Y164.745 E57.19275
G1 X169.704 Y165.086 E57.21129
G1 X169.61 Y165.471 E57.23106
G1 X169.579 Y165.867 E57.25088
G1 X169.616 Y166.26 E57.27057
G1 X169.719 Y166.645 E57.29046
G1 X169.884 Y167.007 E57.31031
G1 X170.108 Y167.336 E57.33016
G1 X170.383 Y167.621 E57.34992
G1 X170.486 Y167.698 E57.35634
G1 X164.213 Y169.111 E57.67714
G1 X155.475 Y170.35 E58.11744
G1 X146.641 Y170.886 E58.55898
G1 X137.816 Y170.707 E58.99935
G1 X129.033 Y169.82 E59.43977
G1 X120.343 Y168.228 E59.88053
G1 X111.809 Y165.941 E60.32132
G1 X103.494 Y162.978 E60.7617
G1 X95.438 Y159.351 E61.20248
G1 X87.731 Y155.107 E61.64142
G1 X80.322 Y150.21 E62.0845
G1 X73.4 Y144.785 E62.52327
G1 X66.9 Y138.788 E62.96449
G1 X60.903 Y132.288 E63.40571
G1 X55.47 Y125.353 E63.84523
G1 X50.581 Y117.959 E64.28747
G1 X46.337 Y110.25 E64.7265
G1 X42.71 Y102.194 E65.16727
G1 X39.748 Y93.879 E65.60764
G1 X37.459 Y85.342 E66.0486
G1 X35.865 Y76.639 E66.49002
G1 X34.981 Y67.873 E66.92957
G1 X34.802 Y59.055 E67.3696
G1 X35.338 Y50.204 E67.81198
G1 X36.578 Y41.47 E68.25209
G1 X38.299 Y33.833 E68.64266
G1 X38.473 Y33.88 E68.65165
G1 X38.89 Y33.88 E68.67246
G1 X39.383 Y33.63 E68.70003
G1 X39.689 Y33.155 E68.72822
G1 X39.725 Y32.725 E68.74975
G1 X39.742 Y32.656 E68.7533
G1 X39.803 Y32.538 E68.75992
G1 X39.841 Y32.497 E68.76271
G1 X39.899 Y32.452 E68.76637
G1 X40.007 Y32.405 E68.77225
G1 X40.08 Y32.393 E68.77594
G1 X40.208 Y32.406 E68.78236
G1 X40.324 Y32.463 E68.78881
G1 X40.412 Y32.549 E68.79495
G1 X40.449 Y32.608 E68.79842
G1 X40.481 Y32.712 E68.80385
G1 X40.484 Y32.79 E68.80774
G1 X40.477 Y32.854 E68.81096
G1 X40.459 Y32.914 E68.81408
G1 X40.299 Y33.254 E68.83283
G1 X40.267 Y33.707 E68.85549
G1 X40.493 Y34.242 E68.88446
G1 X40.928 Y34.537 E68.91068
G1 X41.217 Y34.615 E68.92562
G0 F3600 X40.861 Y34.125
G0 X40.262 Y32.908
G0 X40.118 Y32.764
G1 F360 X39.993 Y33.205 E68.94425
G1 X39.935 Y33.712 E68.96952
G0 F3600 X39.453 Y33.796
G1 F360 X40.893 Y35.236 E69.07112
G1 X40.963 Y35.306
G0 F3600 X40.79 Y35.698
G1 F360 X39.077 Y33.986 E69.19195
G1 X39.007 Y33.916
G0 F3600 X38.585 Y34.059
G1 F360 X40.686 Y36.161 E69.34022
G1 X40.756 Y36.231
G0 F3600 X40.582 Y36.623
G1 F360 X38.355 Y34.395 E69.49738
G1 X38.285 Y34.325
G0 F3600 X38.25 Y34.856
G1 F360 X40.479 Y37.085 E69.65465
G1 X40.549 Y37.155
G0 F3600 X40.376 Y37.548
G1 F360 X38.146 Y35.318 E69.81199
G1 X38.076 Y35.248
G0 F3600 X38.043 Y35.78
G1 F360 X40.273 Y38.01 E69.96933
G1 X40.343 Y38.08
G0 F3600 X40.17 Y38.472
G1 F360 X37.939 Y36.242 E70.1267
G1 X37.869 Y36.172
G0 F3600 X37.835 Y36.703
G1 F360 X40.066 Y38.935 E70.28415
G1 X40.136 Y39.005
G0 F3600 X39.963 Y39.397
G1 F360 X37.731 Y37.165 E70.44163
G1 X37.661 Y37.095
G0 F3600 X37.627 Y37.627
G1 F360 X39.859 Y39.859 E70.59911
G1 X39.929 Y39.929
G0 F3600 X39.756 Y40.322
G1 F360 X37.523 Y38.089 E70.75666
G1 X37.453 Y38.019
G0 F3600 X37.419 Y38.55
G1 F360 X39.653 Y40.784 E70.91428
G1 X39.723 Y40.854
G0 F3600 X39.549 Y41.246
G1 F360 X37.315 Y39.012 E71.0719
G1 X37.245 Y38.942
G0 F3600 X37.211 Y39.474
G1 F360 X39.446 Y41.709 E71.22959
G1 X39.516 Y41.779
G0 F3600 X39.343 Y42.171
G1 F360 X37.107 Y39.935 E71.38735
G1 X37.037 Y39.865
G0 F3600 X37.003 Y40.397
G1 F360 X39.262 Y42.656 E71.54674
G1 X39.332 Y42.726
G0 F3600 X39.194 Y43.154
G1 F360 X36.899 Y40.859 E71.70866
G1 X36.829 Y40.789
G0 F3600 X36.795 Y41.32
G1 F360 X39.126 Y43.651 E71.87312
G1 X39.196 Y43.721
G0 F3600 X39.058 Y44.149
G1 F360 X36.712 Y41.803 E72.03865
G1 X36.642 Y41.733
G0 F3600 X36.641 Y42.298
G1 F360 X38.989 Y44.646 E72.20431
G1 X39.059 Y44.716
G0 F3600 X38.921 Y45.144
G1 F360 X36.571 Y42.794 E72.37012
G1 X36.501 Y42.724
G0 F3600 X36.5 Y43.289
G1 F360 X38.853 Y45.641 E72.5361
G1 X38.923 Y45.711
G0 F3600 X38.785 Y46.139
G1 F360 X36.43 Y43.784 E72.70226
G1 X36.36 Y43.714
G0 F3600 X36.36 Y44.279
G1 F360 X38.717 Y46.637 E72.86859
G1 X38.787 Y46.707
G0 F3600 X38.649 Y47.134
G1 F360 X36.29 Y44.775 E73.03503
G1 X36.22 Y44.705
G0 F3600 X36.219 Y45.27
G1 F360 X38.581 Y47.632 E73.20168
G1 X38.651 Y47.702
G0 F3600 X38.513 Y48.129
G1 F360 X36.149 Y45.766 E73.36844
G1 X36.079 Y45.696
G0 F3600 X36.078 Y46.261
G1 F360 X38.444 Y48.627 E73.53537
G1 X38.514 Y48.697
G0 F3600 X38.376 Y49.124
G1 F360 X36.008 Y46.756 E73.70245
G1 X35.938 Y46.686
G0 F3600 X35.937 Y47.251
G1 F360 X38.308 Y49.621 E73.8697
G1 X38.378 Y49.691
G0 F3600 X38.24 Y50.119
G1 F360 X35.867 Y47.747 E74.03709
G1 X35.797 Y47.677
G0 F3600 X35.797 Y48.242
G1 F360 X38.172 Y50.617 E74.20466
G1 X38.242 Y50.687
G0 F3600 X38.103 Y51.114
G1 F360 X35.727 Y48.738 E74.3723
G1 X35.657 Y48.668
G0 F3600 X35.656 Y49.233
G1 F360 X38.069 Y51.645 E74.54252
G1 X38.139 Y51.715
G0 F3600 X38.04 Y52.183
G1 F360 X35.586 Y49.728 E74.7157
G1 X35.516 Y49.658
G0 F3600 X35.516 Y50.224
G1 F360 X38.012 Y52.72 E74.8918
G1 X38.082 Y52.79
G0 F3600 X37.985 Y53.258
G1 F360 X35.484 Y50.758 E75.06823
G1 X35.414 Y50.688
G0 F3600 X35.452 Y51.291
G1 F360 X37.956 Y53.795 E75.2449
G1 X38.026 Y53.865
G0 F3600 X37.928 Y54.333
G1 F360 X35.419 Y51.824 E75.42192
G1 X35.349 Y51.754
G0 F3600 X35.387 Y52.358
G1 F360 X37.9 Y54.87 E75.59919
G1 X37.97 Y54.94
G0 F3600 X37.871 Y55.408
G1 F360 X35.355 Y52.891 E75.77674
G1 X35.285 Y52.821
G0 F3600 X35.322 Y53.424
G1 F360 X37.844 Y55.946 E75.95468
G1 X37.914 Y56.016
G0 F3600 X37.816 Y56.483
G1 F360 X35.29 Y53.958 E76.13287
G1 X35.22 Y53.888
G0 F3600 X35.258 Y54.491
G1 F360 X37.787 Y57.021 E76.31134
G1 X37.857 Y57.091
G0 F3600 X37.759 Y57.558
G1 F360 X35.225 Y55.024 E76.49013
G1 X35.155 Y54.954
G0 F3600 X35.194 Y55.558
G1 F360 X37.731 Y58.095 E76.66913
G1 X37.801 Y58.165
G0 F3600 X37.702 Y58.633
G1 F360 X35.161 Y56.091 E76.84844
G1 X35.091 Y56.021
G0 F3600 X35.129 Y56.625
G1 F360 X37.675 Y59.171 E77.02808
G1 X37.745 Y59.241
G0 F3600 X37.647 Y59.708
G1 F360 X35.097 Y57.158 E77.20799
G1 X35.027 Y57.088
G0 F3600 X35.064 Y57.692
G1 F360 X37.628 Y60.256 E77.3889
G1 X37.698 Y60.326
G0 F3600 X37.647 Y60.84
G1 F360 X35.032 Y58.225 E77.5734
G1 X34.962 Y58.155
G0 F3600 X35 Y58.759
G1 F360 X37.665 Y61.424 E77.76143
G1 X37.735 Y61.494
G0 F3600 X37.683 Y62.007
G1 F360 X34.986 Y59.311 E77.95168
G1 X34.916 Y59.241
G0 F3600 X34.998 Y59.888
G1 F360 X37.701 Y62.591 E78.1424
G1 X37.771 Y62.661
G0 F3600 X37.719 Y63.175
G1 F360 X35.01 Y60.466 E78.33353
G1 X34.94 Y60.396
G0 F3600 X35.021 Y61.043
G1 F360 X37.738 Y63.759 E78.52519
G1 X37.808 Y63.829
G0 F3600 X37.756 Y64.343
G1 F360 X35.033 Y61.62 E78.71732
G1 X34.963 Y61.55
G0 F3600 X35.045 Y62.198
G1 F360 X37.774 Y64.927 E78.90986
G1 X37.844 Y64.997
G0 F3600 X37.792 Y65.511
G1 F360 X35.056 Y62.775 E79.1029
G1 X34.986 Y62.705
G0 F3600 X35.068 Y63.353
G1 F360 X37.811 Y66.095 E79.2964
G1 X37.881 Y66.165
G0 F3600 X37.829 Y66.679
G1 F360 X35.08 Y63.93 E79.49036
G1 X35.01 Y63.86
G0 F3600 X35.092 Y64.507
G1 F360 X37.847 Y67.263 E79.68477
G1 X37.917 Y67.333
G0 F3600 X37.865 Y67.846
G1 F360 X35.104 Y65.085 E79.87958
G1 X35.034 Y65.015
G0 F3600 X35.115 Y65.662
G1 F360 X37.883 Y68.43 E80.07487
G1 X37.953 Y68.5
G0 F3600 X37.902 Y69.015
G1 F360 X35.127 Y66.24 E80.27066
G1 X35.057 Y66.17
G0 F3600 X35.138 Y66.817
G1 F360 X37.97 Y69.649 E80.47048
G1 X38.04 Y69.719
G0 F3600 X38.045 Y70.289
G1 F360 X35.15 Y67.395 E80.6747
G1 X35.08 Y67.325
G0 F3600 X35.172 Y67.982
G1 F360 X38.119 Y70.929 E80.88263
G1 X38.189 Y70.999
G0 F3600 X38.193 Y71.569
G1 F360 X35.235 Y68.611 E81.09133
G1 X35.165 Y68.541
G0 F3600 X35.299 Y69.24
G1 F360 X38.267 Y72.208 E81.30074
G1 X38.337 Y72.278
G0 F3600 X38.341 Y72.848
G1 F360 X35.363 Y69.869 E81.51089
G1 X35.293 Y69.799
G0 F3600 X35.426 Y70.498
G1 F360 X38.415 Y73.488 E81.72181
G1 X38.485 Y73.558
G0 F3600 X38.489 Y74.128
G1 F360 X35.489 Y71.127 E81.93351
G1 X35.419 Y71.057
G0 F3600 X35.553 Y71.757
G1 F360 X38.564 Y74.768 E82.14596
G1 X38.634 Y74.838
G0 F3600 X38.638 Y75.407
G1 F360 X35.616 Y72.385 E82.35917
G1 X35.546 Y72.315
G0 F3600 X35.679 Y73.015
G1 F360 X38.712 Y76.047 E82.57313
G1 X38.782 Y76.117
G0 F3600 X38.786 Y76.687
G1 F360 X35.743 Y73.644 E82.78783
G1 X35.673 Y73.574
