;FLAVOR:Marlin
;TIME:4938
;Filament used: 1.59168m
;Layer height: 0.3
;Generated with Cura_SteamEngine 3.4.1
M190 S58
M104 S222
M109 S222
M82 ;absolute extrusion mode
G21 ;metric values
G90 ;absolute positioning
M82 ;set extruder to absolute mode
M107 ;start with the fan off
G28 X0 Y0 ;move X/Y to min endstops
G28 Z0 ;move Z to min endstops
G1 Z15.0 F9000 ;move the platform down 15mm
G92 E0 ;zero the extruded length
G1 F200 E3 ;extrude 3mm of feed stock
G92 E0 ;zero the extruded length again
G1 F9000
;Put printing message on LCD screen
M117 Printing...
G92 E0
;LAYER_COUNT:7
;LAYER:0
M107
G0 F3600 X113.113 Y7.573 Z0.3
;TYPE:WALL-INNER
G1 F360 X123.434 Y9.062 E0.52025
G1 X133.547 Y11.603 E1.04047
G1 X143.347 Y15.171 E1.56079
G1 X152.731 Y19.73 E2.08129
G1 X161.596 Y25.228 E2.60172
G1 X169.834 Y31.599 E3.12128
G1 X177.397 Y38.804 E3.64241
G1 X184.163 Y46.731 E4.16236
G1 X190.088 Y55.325 E4.68314
G1 X195.09 Y64.469 E5.20313
G1 X199.128 Y74.083 E5.72337
G1 X202.156 Y84.065 E6.24378
G1 X204.143 Y94.309 E6.76438
G1 X205.065 Y104.686 E7.28413
G1 X204.913 Y115.121 E7.80479
G1 X203.691 Y125.484 E8.32539
G1 X201.413 Y135.649 E8.8451
G1 X198.094 Y145.55 E9.36608
G1 X193.784 Y155.037 E9.88594
G1 X188.513 Y164.045 E10.40664
G1 X182.35 Y172.454 E10.92677
G1 X175.355 Y180.185 E11.44692
G1 X167.598 Y187.161 E11.9674
G1 X159.166 Y193.299 E12.48772
G1 X150.146 Y198.54 E13.00818
G1 X140.644 Y202.821 E13.52813
G1 X130.735 Y206.109 E14.049
G1 X120.554 Y208.356 E14.56915
G1 X110.194 Y209.545 E15.08941
G1 X99.759 Y209.664 E15.61005
G1 X89.377 Y208.71 E16.13019
G1 X79.147 Y206.692 E16.6504
G1 X69.177 Y203.633 E17.17069
G1 X59.575 Y199.565 E17.69096
G1 X50.44 Y194.531 E18.21132
G1 X41.869 Y188.583 E18.73181
G1 X33.957 Y181.786 E19.2522
G1 X26.792 Y174.219 E19.7721
G1 X20.433 Y165.941 E20.29288
G1 X14.962 Y157.058 E20.81337
G1 X10.436 Y147.667 E21.33346
G1 X6.898 Y137.854 E21.85388
G1 X4.389 Y127.737 E22.37391
G1 X2.933 Y117.411 E22.89417
G1 X2.546 Y106.981 E23.41489
G1 X3.234 Y96.571 E23.93538
G1 X4.987 Y86.301 E24.45516
G1 X7.791 Y76.24 E24.97623
G1 X11.605 Y66.552 E25.49568
G1 X16.406 Y57.282 E26.0165
G1 X22.129 Y48.565 E26.53675
G1 X28.72 Y40.48 E27.05716
G1 X36.102 Y33.122 E27.57715
G1 X44.21 Y26.553 E28.09776
G1 X52.944 Y20.859 E28.61793
G1 X62.223 Y16.088 E29.13847
G1 X71.934 Y12.302 E29.65847
G1 X82.009 Y9.526 E30.17984
G1 X87.116 Y8.536 E30.43938
G1 X92.268 Y7.809 E30.69896
G1 X102.686 Y7.155 E31.21974
G1 X113.113 Y7.573 E31.74036
G0 F3600 X113.104 Y7.672
G0 X97.758 Y9.092
G0 X87.405 Y10.271
G0 X77.233 Y12.527
G0 X67.353 Y15.832
G0 X57.872 Y20.154
G0 X48.893 Y25.442
G0 X40.519 Y31.639
G0 X32.836 Y38.678
G0 X25.933 Y46.483
G0 X19.883 Y54.964
G0 X14.753 Y64.033
G0 X10.597 Y73.588
G0 X7.465 Y83.525
G0 X5.388 Y93.735
G0 X4.39 Y104.106
G0 X4.48 Y114.523
G0 X5.659 Y124.876
G0 X7.915 Y135.048
G0 X11.221 Y144.928
G0 X15.542 Y154.409
G0 X20.83 Y163.388
G0 X27.028 Y171.762
G0 X34.024 Y179.488
G0 X34.094 Y179.417
G1 F360 X41.895 Y186.317 E32.25995
G1 X50.374 Y192.365 E32.77955
G1 X59.439 Y197.493 E33.29916
G1 X68.99 Y201.647 E33.81878
G1 X78.923 Y204.779 E34.33839
G1 X89.128 Y206.854 E34.85793
G1 X99.496 Y207.852 E35.37759
G1 X109.909 Y207.762 E35.89711
G1 X120.258 Y206.583 E36.41677
G1 X130.426 Y204.328 E36.93637
G1 X140.303 Y201.023 E37.45599
G1 X149.779 Y196.704 E37.97554
G1 X158.754 Y191.418 E38.4952
G1 X167.126 Y185.223 E39.0148
G1 X174.805 Y178.187 E39.5344
G1 X181.705 Y170.386 E40.05399
G1 X187.754 Y161.907 E40.57363
G1 X192.881 Y152.842 E41.09321
G1 X197.035 Y143.291 E41.61282
G1 X200.167 Y133.358 E42.13244
G1 X202.242 Y123.153 E42.65198
G1 X203.241 Y112.785 E43.17164
G1 X203.15 Y102.372 E43.69117
G1 X201.971 Y92.023 E44.21082
G1 X199.716 Y81.855 E44.73043
G1 X196.412 Y71.978 E45.25003
G1 X192.093 Y62.502 E45.76958
G1 X186.806 Y53.527 E46.28926
G1 X180.612 Y45.155 E46.80883
G1 X173.575 Y37.476 E47.32847
G1 X165.775 Y30.576 E47.84802
G1 X157.296 Y24.527 E48.36766
G1 X148.231 Y19.4 E48.88724
G1 X138.679 Y15.246 E49.4069
G1 X128.746 Y12.114 E49.92651
G1 X118.541 Y10.039 E50.44606
G1 X108.174 Y9.04 E50.96567
G1 X97.76 Y9.131 E51.48524
G1 X87.411 Y10.31 E52.0049
G1 X77.243 Y12.565 E52.52451
G1 X67.367 Y15.869 E53.04406
G1 X57.89 Y20.189 E53.56368
G1 X48.915 Y25.475 E54.08333
G1 X40.544 Y31.669 E54.60286
G1 X32.864 Y38.706 E55.12254
G1 X25.964 Y46.507 E55.64213
G1 X19.916 Y54.985 E56.16169
G1 X14.788 Y64.05 E56.6813
G1 X10.634 Y73.602 E57.20096
G1 X7.503 Y83.535 E57.72056
G1 X5.427 Y93.74 E58.24011
G1 X4.429 Y104.107 E58.75972
G1 X4.519 Y114.521 E59.27929
G1 X5.698 Y124.87 E59.79895
G1 X7.953 Y135.038 E60.31855
G1 X11.258 Y144.914 E60.83813
G1 X15.577 Y154.391 E61.35772
G1 X20.863 Y163.366 E61.87738
G1 X27.058 Y171.737 E62.39693
G1 X34.094 Y179.417 E62.91658
G0 F3600 X34.024 Y179.488
G0 X27.028 Y171.762
G0 X20.83 Y163.388
G0 X15.542 Y154.409
G0 X11.221 Y144.928
G0 X7.915 Y135.048
G0 X5.659 Y124.876
G0 X4.48 Y114.523
G0 X4.39 Y104.106
G0 X5.388 Y93.735
G0 X7.465 Y83.525
G0 X10.552 Y73.543
G0 X11.009 Y73.742
;TYPE:WALL-OUTER
G1 F360 X7.891 Y83.635 E63.43408
G1 X5.823 Y93.799 E63.95155
G1 X4.829 Y104.124 E64.46905
G1 X4.919 Y114.497 E64.98658
G1 X6.093 Y124.804 E65.50412
G1 X8.339 Y134.931 E66.02164
G1 X11.631 Y144.767 E66.53911
G1 X15.932 Y154.206 E67.05661
G1 X21.197 Y163.145 E67.57418
G1 X27.367 Y171.482 E68.09163
G1 X34.375 Y179.131 E68.60919
G1 X42.144 Y186.004 E69.1267
G1 X50.589 Y192.027 E69.6442
G1 X59.618 Y197.135 E70.16174
G1 X69.13 Y201.272 E70.67924
G1 X79.023 Y204.391 E71.19675
G1 X89.187 Y206.458 E71.71422
G1 X99.513 Y207.452 E72.23176
G1 X109.885 Y207.362 E72.74924
G1 X120.192 Y206.188 E73.26679
G1 X130.319 Y203.942 E73.7843
G1 X140.156 Y200.65 E74.30183
G1 X149.594 Y196.349 E74.81928
G1 X158.533 Y191.084 E75.33685
G1 X166.871 Y184.914 E75.85434
G1 X174.519 Y177.906 E76.37187
G1 X181.392 Y170.137 E76.88937
G1 X187.416 Y161.692 E77.4069
G1 X192.523 Y152.663 E77.92442
G1 X196.66 Y143.151 E78.44192
G1 X199.779 Y133.258 E78.95943
G1 X201.846 Y123.094 E79.47689
G1 X202.841 Y112.768 E79.99445
G1 X202.75 Y102.396 E80.51193
G1 X201.576 Y92.089 E81.02947
G1 X199.33 Y81.962 E81.54699
G1 X196.039 Y72.125 E82.06449
G1 X191.738 Y62.687 E82.58194
G1 X186.472 Y53.748 E83.09954
G1 X180.303 Y45.41 E83.61701
G1 X173.294 Y37.762 E84.13456
G1 X165.526 Y30.889 E84.65203
G1 X157.081 Y24.865 E85.16956
G1 X148.052 Y19.758 E85.68708
G1 X138.539 Y15.621 E86.20462
G1 X128.646 Y12.502 E86.72213
G1 X118.482 Y10.435 E87.2396
G1 X108.157 Y9.44 E87.7571
G1 X97.784 Y9.531 E88.27463
G1 X87.477 Y10.705 E88.79218
G1 X77.35 Y12.951 E89.30969
G1 X67.514 Y16.242 E89.82715
G1 X58.075 Y20.544 E90.34467
G1 X49.136 Y25.809 E90.86224
G1 X40.799 Y31.978 E91.37966
G1 X33.15 Y38.987 E91.89726
G1 X26.277 Y46.756 E92.41476
G1 X20.254 Y55.2 E92.93222
G1 X15.146 Y64.229 E93.44977
G1 X11.009 Y73.742 E93.96731
G0 F3600 X10.949 Y73.932
G0 X10.473 Y73.781
G0 X14.753 Y64.033
G0 X19.883 Y54.964
G0 X25.933 Y46.483
G0 X32.836 Y38.678
G0 X40.519 Y31.639
G0 X48.893 Y25.442
G0 X57.872 Y20.154
G0 X67.353 Y15.832
G0 X77.233 Y12.527
G0 X87.405 Y10.271
G0 X95.79 Y9.317
G0 X113.104 Y7.672
G0 X113.147 Y7.174
G1 F360 X123.51 Y8.669 E94.48967
G1 X133.667 Y11.221 E95.01216
G1 X143.504 Y14.802 E95.53444
G1 X152.923 Y19.378 E96.05687
G1 X161.822 Y24.897 E96.5793
G1 X170.099 Y31.298 E97.10131
G1 X177.686 Y38.526 E97.62411
G1 X184.479 Y46.485 E98.14615
G1 X190.431 Y55.118 E98.66929
G1 X195.452 Y64.296 E99.19123
G1 X199.505 Y73.947 E99.71345
G1 X202.545 Y83.969 E100.23595
G1 X204.539 Y94.246 E100.75823
G1 X205.465 Y104.676 E101.28063
G1 X205.313 Y115.145 E101.80299
G1 X204.086 Y125.55 E102.32569
G1 X201.798 Y135.758 E102.84761
G1 X198.467 Y145.696 E103.37053
G1 X194.139 Y155.222 E103.89253
G1 X188.846 Y164.267 E104.41538
G1 X182.66 Y172.707 E104.93744
G1 X175.642 Y180.464 E105.45932
G1 X167.849 Y187.472 E105.9822
G1 X159.379 Y193.638 E106.50488
G1 X150.329 Y198.896 E107.02706
G1 X140.788 Y203.195 E107.54915
G1 X130.841 Y206.495 E108.07201
G1 X120.627 Y208.75 E108.59386
G1 X110.215 Y209.945 E109.11672
G1 X99.746 Y210.064 E109.63906
G1 X89.322 Y209.106 E110.1613
G1 X79.049 Y207.08 E110.6837
G1 X69.038 Y204.008 E111.20613
G1 X59.4 Y199.925 E111.72834
G1 X50.224 Y194.868 E112.25106
G1 X41.627 Y188.902 E112.77312
G1 X33.683 Y182.078 E113.2956
G1 X26.485 Y174.476 E113.8179
G1 X20.101 Y166.165 E114.34075
G1 X14.613 Y157.256 E114.86278
G1 X10.067 Y147.822 E115.38524
G1 X6.515 Y137.972 E115.90764
G1 X3.996 Y127.811 E116.42991
G1 X2.534 Y117.443 E116.95229
G1 X2.145 Y106.981 E117.47461
G1 X2.836 Y96.526 E117.99735
G1 X4.596 Y86.214 E118.51925
G1 X7.412 Y76.113 E119.04241
G1 X11.241 Y66.384 E119.56403
G1 X16.061 Y57.079 E120.08684
G1 X21.807 Y48.327 E120.60918
G1 X28.419 Y40.216 E121.13126
G1 X35.84 Y32.819 E121.654
G1 X43.97 Y26.233 E122.176
G1 X52.748 Y20.51 E122.69879
G1 X62.058 Y15.723 E123.22107
G1 X71.809 Y11.921 E123.74322
G1 X81.917 Y9.136 E124.2663
G1 X87.043 Y8.142 E124.5268
G1 X92.225 Y7.411 E124.7879
G1 X102.687 Y6.754 E125.31087
G1 X113.147 Y7.174 E125.83315
G0 F3600 X113.344 Y7.202
G0 X113.272 Y7.695
G0 X113.08 Y7.963
;TYPE:SKIN
G1 F360 X123.361 Y9.446 E126.35138
G1 X133.427 Y11.975 E126.86918
G1 X143.198 Y15.532 E127.38795
G1 X152.548 Y20.075 E127.90657
G1 X161.375 Y25.548 E128.42473
G1 X169.57 Y31.887 E128.94162
G1 X177.116 Y39.075 E129.46156
G1 X183.853 Y46.968 E129.97928
G1 X189.759 Y55.535 E130.49841
G1 X194.74 Y64.641 E131.01624
G1 X198.761 Y74.212 E131.53417
G1 X201.776 Y84.156 E132.05258
G1 X203.758 Y94.371 E132.57171
G1 X204.675 Y104.696 E133.08885
G1 X204.523 Y115.09 E133.60747
G1 X203.305 Y125.427 E134.12675
G1 X201.038 Y135.539 E134.64376
G1 X197.731 Y145.407 E135.16299
G1 X193.437 Y154.856 E135.6808
G1 X188.181 Y163.84 E136.20008
G1 X182.049 Y172.206 E136.71757
G1 X175.087 Y179.901 E137.23528
G1 X167.357 Y186.853 E137.75396
G1 X158.941 Y192.979 E138.27329
G1 X149.968 Y198.193 E138.79104
G1 X140.507 Y202.456 E139.30876
G1 X130.633 Y205.732 E139.82778
G1 X120.494 Y207.969 E140.34578
G1 X110.163 Y209.155 E140.86458
G1 X99.77 Y209.274 E141.38312
G1 X89.432 Y208.324 E141.90106
G1 X79.25 Y206.315 E142.41884
G1 X69.306 Y203.265 E142.93776
G1 X59.746 Y199.214 E143.45576
G1 X50.643 Y194.197 E143.97432
G1 X42.113 Y188.277 E144.49233
G1 X34.229 Y181.506 E145.01081
G1 X27.092 Y173.968 E145.52871
G1 X20.752 Y165.714 E146.04796
G1 X15.3 Y156.863 E146.56659
G1 X10.798 Y147.519 E147.08405
G1 X7.27 Y137.736 E147.60289
G1 X4.773 Y127.666 E148.1205
G1 X3.323 Y117.38 E148.63875
G1 X2.936 Y106.993 E149.15732
G1 X3.624 Y96.603 E149.67681
G1 X5.367 Y86.394 E150.19351
G1 X8.163 Y76.358 E150.71328
G1 X11.959 Y66.716 E151.23025
G1 X16.746 Y57.475 E151.74947
G1 X22.447 Y48.793 E152.26766
G1 X29.004 Y40.748 E152.78545
G1 X36.363 Y33.413 E153.30382
G1 X44.44 Y26.869 E153.82244
G1 X53.143 Y21.196 E154.34074
G1 X62.385 Y16.443 E154.85923
G1 X72.056 Y12.673 E155.37708
G1 X82.098 Y9.906 E155.89675
G1 X87.18 Y8.921 E156.15501
G1 X92.295 Y8.199 E156.41273
G1 X102.695 Y7.546 E156.93261
G1 X113.08 Y7.963 E157.45113
G0 F3600 X108.191 Y8.65
G1 F360 X97.736 Y8.741 E157.97275
G1 X87.347 Y9.924 E158.49441
G1 X77.138 Y12.189 E159.01613
G1 X67.224 Y15.506 E159.53769
G1 X57.71 Y19.842 E160.05931
G1 X48.699 Y25.149 E160.58105
G1 X40.296 Y31.367 E161.10257
G1 X32.585 Y38.433 E161.62437
G1 X25.658 Y46.264 E162.14597
G1 X19.587 Y54.775 E162.66754
G1 X14.439 Y63.876 E163.1892
G1 X10.268 Y73.465 E163.71089
G1 X7.125 Y83.437 E164.23253
G1 X5.041 Y93.682 E164.75412
G1 X4.039 Y104.09 E165.27578
G1 X4.129 Y114.545 E165.7974
G1 X5.312 Y124.934 E166.31906
G1 X7.577 Y135.143 E166.84077
G1 X10.895 Y145.057 E167.36235
G1 X15.23 Y154.571 E167.88395
G1 X20.537 Y163.582 E168.40569
G1 X26.756 Y171.985 E168.92724
G1 X33.821 Y179.696 E169.449
G1 X41.652 Y186.623 E169.97061
G1 X50.164 Y192.694 E170.49222
G1 X59.265 Y197.842 E171.01387
G1 X68.853 Y202.013 E171.53552
G1 X78.825 Y205.157 E172.05717
G1 X89.07 Y207.24 E172.57875
G1 X99.479 Y208.242 E173.10046
G1 X109.933 Y208.152 E173.62203
G1 X120.322 Y206.969 E174.14369
G1 X130.531 Y204.704 E174.6654
G1 X140.446 Y201.386 E175.18703
G1 X149.959 Y197.051 E175.70859
G1 X158.97 Y191.744 E176.23032
G1 X167.374 Y185.525 E176.75192
G1 X175.084 Y178.46 E177.27364
G1 X182.011 Y170.629 E177.79524
G1 X188.083 Y162.117 E178.31689
G1 X193.23 Y153.016 E178.83852
G1 X197.401 Y143.428 E179.36017
G1 X200.545 Y133.456 E179.88181
G1 X202.628 Y123.211 E180.4034
G1 X203.631 Y112.802 E180.92511
G1 X203.54 Y102.348 E181.44668
G1 X202.357 Y91.959 E181.96834
G1 X200.092 Y81.75 E182.49005
G1 X196.775 Y71.835 E183.01166
G1 X192.44 Y62.322 E183.53322
G1 X187.132 Y53.311 E184.05498
G1 X180.914 Y44.907 E184.57655
G1 X173.848 Y37.197 E185.0983
G1 X166.018 Y30.27 E185.61987
G1 X157.506 Y24.198 E186.14151
G1 X148.405 Y19.051 E186.66314
G1 X138.816 Y14.88 E187.18484
G1 X128.844 Y11.736 E187.70649
G1 X118.599 Y9.653 E188.22807
G1 X108.191 Y8.65 E188.74973
G0 F3600 X118.546 Y10
G0 X128.756 Y12.076
G0 X138.693 Y15.209
G0 X148.248 Y19.365
G0 X157.317 Y24.494
G0 X165.799 Y30.545
G0 X178.881 Y41.419
G1 F360 X170.16 Y32.698 E189.36504
G1 X170.09 Y32.628
G0 F3600 X168.988 Y32.658
G1 F360 X164.602 Y28.272 E189.6745
G1 X164.532 Y28.202
G0 F3600 X163.33 Y28.131
G1 F360 X160.279 Y25.081 E189.88973
G1 X160.209 Y25.011
G0 F3600 X159.382 Y25.315
G1 F360 X157.301 Y23.234 E190.03656
G1 X157.231 Y23.164
G0 F3600 X157.474 Y23.972
G1 F360 X155.812 Y22.31 E190.15382
G1 X155.742 Y22.24
G0 F3600 X154.87 Y22.5
G1 F360 X152.834 Y20.463 E190.2975
G1 X152.764 Y20.393
G0 F3600 X152.267 Y21.028
G1 F360 X150.536 Y19.297 E190.41964
G1 X150.466 Y19.227
G0 F3600 X149.664 Y19.556
G1 F360 X148.336 Y18.228 E190.51333
G1 X148.266 Y18.158
G0 F3600 X148.39 Y18.848
G1 F360 X147.235 Y17.693 E190.59482
G1 X147.165 Y17.623
G0 F3600 X147.389 Y18.413
G1 F360 X146.136 Y17.16 E190.68323
G1 X146.066 Y17.09
G0 F3600 X145.386 Y17.541
G1 F360 X143.935 Y16.09 E190.78561
G1 X143.865 Y16.02
G0 F3600 X143.384 Y16.67
G1 F360 X142.001 Y15.288 E190.88315
G1 X141.931 Y15.218
G0 F3600 X141.381 Y15.799
G1 F360 X140.222 Y14.64 E190.96492
G1 X140.152 Y14.57
G0 F3600 X140.38 Y15.364
G1 F360 X139.333 Y14.316 E191.03883
G1 X139.263 Y14.246
G0 F3600 X139.379 Y14.928
G1 F360 X138.444 Y13.993 E191.1048
G1 X138.374 Y13.923
G0 F3600 X138.465 Y14.58
G1 F360 X137.554 Y13.669 E191.16908
G1 X137.484 Y13.599
G0 F3600 X137.639 Y14.32
G1 F360 X136.665 Y13.345 E191.23783
G1 X136.595 Y13.275
G0 F3600 X136.813 Y14.06
G1 F360 X135.775 Y13.022 E191.31107
G1 X135.705 Y12.952
G0 F3600 X135.161 Y13.538
G1 F360 X133.996 Y12.374 E191.39323
G1 X133.926 Y12.304
G0 F3600 X133.508 Y13.017
G1 F360 X132.392 Y11.901 E191.47197
G1 X132.322 Y11.831
G0 F3600 X133.147 Y12.09
G1 F360 X134.335 Y13.278 E191.55579
G1 X134.405 Y13.348
G0 F3600 X134.886 Y12.698
G1 F360 X135.987 Y13.799 E191.63347
G1 X136.057 Y13.869
G0 F3600 X132.682 Y12.757
G1 F360 X131.636 Y11.711 E191.70727
G1 X131.566 Y11.641
G0 F3600 X130.881 Y11.521
G1 F360 X131.857 Y12.497 E191.77613
G1 X131.927 Y12.567
G0 F3600 X131.03 Y12.236
G1 F360 X130.126 Y11.332 E191.83992
G1 X130.056 Y11.262
G0 F3600 X130.204 Y11.976
G1 F360 X129.37 Y11.141 E191.89879
G1 X129.3 Y11.071
G0 F3600 X129.378 Y11.716
G1 F360 X128.614 Y10.952 E191.9527
G1 X128.544 Y10.882
G0 F3600 X128.599 Y11.502
G1 F360 X127.859 Y10.762 E192.00491
G1 X127.789 Y10.692
G0 F3600 X127.889 Y11.358
G1 F360 X127.103 Y10.572 E192.06037
G1 X127.033 Y10.502
G0 F3600 X127.179 Y11.214
G1 F360 X126.347 Y10.382 E192.11907
G1 X126.277 Y10.312
G0 F3600 X126.469 Y11.069
G1 F360 X125.592 Y10.192 E192.18095
G1 X125.522 Y10.122
G0 F3600 X125.759 Y10.925
G1 F360 X124.836 Y10.002 E192.24607
G1 X124.766 Y9.932
G0 F3600 X124.081 Y9.813
G1 F360 X125.049 Y10.781 E192.31437
G1 X125.119 Y10.851
G0 F3600 X124.339 Y10.637
G1 F360 X123.325 Y9.623 E192.38591
G1 X123.255 Y9.553
G0 F3600 X122.665 Y9.528
G1 F360 X123.629 Y10.492 E192.45392
G1 X123.699 Y10.562
G0 F3600 X122.919 Y10.347
G1 F360 X122.004 Y9.432 E192.51848
G1 X121.934 Y9.362
G0 F3600 X121.343 Y9.337
G1 F360 X122.209 Y10.203 E192.57958
G1 X122.279 Y10.273
G0 F3600 X121.499 Y10.059
G1 F360 X120.681 Y9.241 E192.6373
G1 X120.611 Y9.171
G0 F3600 X120.02 Y9.146
