;FLAVOR:Marlin
;TIME:9295
;Filament used: 2.93928m
;Layer height: 0.3
;Generated with Cura_SteamEngine 3.4.1
M190 S58
M104 S222
M109 S222
M82 ;absolute extrusion mode
G21 ;metric values
G90 ;absolute positioning
M82 ;set extruder to absolute mode
M107 ;start with the fan off
G28 X0 Y0 ;move X/Y to min endstops
G28 Z0 ;move Z to min endstops
G1 Z15.0 F9000 ;move the platform down 15mm
G92 E0 ;zero the extruded length
G1 F200 E3 ;extrude 3mm of feed stock
G92 E0 ;zero the extruded length again
G1 F9000
;Put printing message on LCD screen
M117 Printing...
G92 E0
;LAYER_COUNT:9
;LAYER:0
M107
G0 F3600 X44.702 Y35.423 Z0.3
;TYPE:SKIRT
G1 F360 X45.035 Y35.044 E0.02517
G1 X45.425 Y34.721 E0.05043
G1 X45.86 Y34.464 E0.07564
G1 X46.304 Y34.286 E0.09951
G1 X48.546 Y33.579 E0.21679
G1 X53.758 Y31.745 E0.49245
G1 X58.821 Y29.634 E0.76612
G1 X63.733 Y27.252 E1.03847
G1 X68.336 Y24.701 E1.30102
G1 X68.797 Y24.491 E1.3263
G1 X72.596 Y23.115 E1.52788
G1 X77.652 Y21.01 E1.80111
G1 X82.582 Y18.623 E2.07439
G1 X87.381 Y15.954 E2.34835
G1 X90.771 Y13.858 E2.54719
G1 X91.221 Y13.627 E2.57243
G1 X91.701 Y13.47 E2.59762
G1 X92.2 Y13.39 E2.62283
G1 X92.706 Y13.39 E2.64808
G1 X93.205 Y13.469 E2.67328
G1 X93.686 Y13.627 E2.69854
G1 X94.053 Y13.808 E2.71896
G1 X98.367 Y16.297 E2.96744
G1 X98.784 Y16.584 E2.99269
G1 X99.15 Y16.932 E3.01789
G1 X99.457 Y17.334 E3.04313
G1 X99.697 Y17.779 E3.06835
G1 X99.863 Y18.257 E3.09359
G1 X99.952 Y18.754 E3.11878
G1 X99.962 Y19.26 E3.14403
G1 X99.892 Y19.76 E3.16922
G1 X99.745 Y20.244 E3.19446
G1 X99.608 Y20.543 E3.21087
G1 X97.581 Y24.448 E3.43037
G1 X95.136 Y29.466 E3.70886
G1 X92.954 Y34.659 E3.98988
G1 X91.13 Y39.789 E4.26151
G1 X90.252 Y42.619 E4.40934
G1 X88.944 Y47.545 E4.66361
G1 X87.758 Y53.209 E4.95232
G1 X87.245 Y56.391 E5.11312
G1 X86.595 Y61.888 E5.38928
G1 X86.384 Y64.71 E5.53046
G1 X86.195 Y70.223 E5.80567
G1 X86.218 Y73.026 E5.94551
G1 X86.486 Y78.534 E6.22063
G1 X86.771 Y81.607 E6.37461
G1 X87.511 Y87.073 E6.64979
G1 X87.959 Y89.595 E6.77759
G1 X89.128 Y94.958 E7.05143
G1 X90.729 Y100.688 E7.34825
G1 X92.496 Y105.858 E7.62083
G1 X93.578 Y108.644 E7.76994
G1 X95.624 Y113.325 E8.02481
G1 X96.933 Y116.03 E8.17473
G1 X99.586 Y120.94 E8.45317
G1 X101.125 Y123.525 E8.60326
G1 X104.112 Y128.081 E8.87505
G1 X105.849 Y130.509 E9.02399
G1 X109.119 Y134.691 E9.28884
G1 X111.044 Y136.961 E9.43733
G1 X114.791 Y141.004 E9.71234
G1 X118.939 Y145.011 E10.00008
G1 X120.987 Y146.822 E10.13647
G1 X125.254 Y150.308 E10.41136
G1 X127.576 Y152.042 E10.55594
G1 X132.156 Y155.181 E10.83296
G1 X134.722 Y156.777 E10.98372
G1 X139.545 Y159.508 E11.26024
G1 X141.913 Y160.72 E11.39295
G1 X146.89 Y163.026 E11.66661
G1 X149.808 Y164.224 E11.82398
G1 X155.016 Y166.108 E12.10029
G1 X157.658 Y166.938 E12.23845
G1 X162.993 Y168.383 E12.51421
G1 X168.451 Y169.54 E12.79256
G1 X173.743 Y170.361 E13.05974
G1 X176.714 Y170.7 E13.20892
G1 X182.209 Y171.084 E13.48374
G1 X186.644 Y171.281 E13.70522
G1 X187.146 Y171.343 E13.73045
G1 X187.631 Y171.484 E13.75565
G1 X188.089 Y171.699 E13.78089
G1 X188.542 Y172.013 E13.80839
G1 X190.339 Y173.5 E13.92476
G1 X190.702 Y173.852 E13.94999
G1 X190.863 Y174.05 E13.96272
G1 X191.173 Y174.465 E13.98856
G1 X191.442 Y174.893 E14.01378
G1 X191.636 Y175.342 E14.03818
G1 X191.742 Y175.651 E14.05448
G1 X191.868 Y176.14 E14.07967
G1 X191.912 Y176.832 E14.11427
G1 X191.882 Y177.502 E14.14773
G1 X191.819 Y178.004 E14.17297
G1 X191.679 Y178.489 E14.19815
G1 X191.458 Y178.955 E14.22388
G1 X191.146 Y179.497 E14.25509
G1 X190.86 Y179.914 E14.28031
G1 X190.417 Y180.363 E14.31178
G1 X188.542 Y181.92 E14.43337
G1 X188.129 Y182.211 E14.45858
G1 X187.589 Y182.466 E14.48837
G1 X183.675 Y183.886 E14.6961
G1 X178.596 Y186.007 E14.9707
G1 X173.691 Y188.389 E15.24274
G1 X168.884 Y191.071 E15.51736
G1 X165.611 Y193.103 E15.70956
G1 X165.162 Y193.334 E15.73475
G1 X164.91 Y193.428 E15.74817
G1 X159.8 Y195.085 E16.01618
G1 X154.674 Y197.068 E16.29039
G1 X149.708 Y199.319 E16.5624
G1 X144.832 Y201.871 E16.83697
G1 X142.916 Y202.972 E16.94722
G1 X142.459 Y203.188 E16.97244
G1 X141.973 Y203.33 E16.9977
G1 X141.472 Y203.393 E17.02289
G1 X141.193 Y203.394 E17.03681
G1 X132.43 Y203.041 E17.47435
G1 X132.173 Y203.021 E17.48721
G1 X123.533 Y201.971 E17.92144
G1 X123.279 Y201.929 E17.93428
G1 X114.677 Y200.173 E18.37229
G1 X114.43 Y200.113 E18.38497
G1 X106.691 Y197.881 E18.78681
G1 X106.462 Y197.805 E18.79884
G1 X98.292 Y194.765 E19.23375
G1 X98.055 Y194.666 E19.24656
G1 X90.154 Y190.978 E19.68157
G1 X89.926 Y190.86 E19.69438
G1 X82.269 Y186.507 E20.13381
G1 X82.048 Y186.37 E20.14678
G1 X74.847 Y181.464 E20.58149
G1 X74.641 Y181.311 E20.59429
G1 X67.873 Y175.857 E21.02794
G1 X67.68 Y175.688 E21.04074
G1 X61.304 Y169.647 E21.47894
G1 X61.124 Y169.462 E21.49182
G1 X55.287 Y162.959 E21.92778
G1 X55.123 Y162.76 E21.94065
G1 X49.804 Y155.778 E22.37855
G1 X49.655 Y155.566 E22.39147
G1 X44.957 Y148.236 E22.82583
G1 X44.827 Y148.015 E22.83863
G1 X40.729 Y140.33 E23.27314
G1 X40.616 Y140.094 E23.28619
G1 X36.852 Y131.388 E23.75939
G1 X36.755 Y131.135 E23.77291
G1 X34.19 Y123.482 E24.17559
G1 X34.118 Y123.233 E24.18853
G1 X31.713 Y113.505 E24.68847
G1 X31.657 Y113.231 E24.70242
G1 X30.296 Y104.514 E25.14258
G1 X30.267 Y104.258 E25.15544
G1 X29.619 Y95.583 E25.58944
G1 X29.61 Y95.328 E25.60217
G1 X29.657 Y86.635 E26.03587
G1 X29.669 Y86.376 E26.04881
G1 X30.428 Y77.607 E26.48793
G1 X30.46 Y77.352 E26.50075
G1 X31.902 Y68.777 E26.93457
G1 X31.952 Y68.537 E26.9468
G1 X33.934 Y60.548 E27.35745
G1 X34.006 Y60.302 E27.37024
G1 X36.798 Y51.971 E27.8086
G1 X36.889 Y51.732 E27.82136
G1 X40.275 Y43.797 E28.25177
G1 X40.384 Y43.566 E28.26451
G1 X44.432 Y35.851 E28.69918
G1 X44.702 Y35.423 E28.72443
G1 F180 Z1.3
G0 F3600 X140.998 Y198.376 Z1.3
;TYPE:WALL-INNER
G1 F180 Z0.3
G1 F360 X140.767 Y198.672 E28.74316
G1 X140.721 Y198.903 E28.75491
G1 X140.721 Y199.375 E28.77846
G1 X140.721 Y199.376 E28.77851
G1 X140.721 Y199.583 E28.78884
G1 X140.514 Y199.575 E28.79545
G1 X132.63 Y199.256 E29.18911
G1 X123.995 Y198.207 E29.62308
G1 X115.47 Y196.468 E30.05715
G1 X107.126 Y194.051 E30.49055
G1 X98.987 Y190.964 E30.92483
G1 X91.127 Y187.234 E31.35888
G1 X83.606 Y182.892 E31.79215
G1 X76.44 Y177.945 E32.22658
G1 X69.702 Y172.445 E32.66051
G1 X63.434 Y166.424 E33.09412
G1 X57.663 Y159.909 E33.52834
G1 X52.44 Y152.96 E33.96204
G1 X47.79 Y145.605 E34.39616
G1 X43.75 Y137.908 E34.82985
G1 X40.341 Y129.905 E35.26383
G1 X37.583 Y121.648 E35.69815
G1 X35.503 Y113.208 E36.13182
G1 X34.109 Y104.628 E36.56549
G1 X33.41 Y95.961 E36.9993
G1 X33.41 Y87.255 E37.43364
G1 X34.109 Y78.588 E37.86744
G1 X35.503 Y70.008 E38.30111
G1 X37.583 Y61.567 E38.73483
G1 X40.342 Y53.307 E39.16931
G1 X43.75 Y45.308 E39.60309
G1 X46.73 Y39.63 E39.92301
G1 X46.763 Y39.566 E39.9266
G1 X46.889 Y39.326 E39.94013
G1 X47.029 Y39.06 E39.95512
G1 X47.046 Y39.028 E39.95693
G1 X47.038 Y39.065
G1 X47.023 Y39.395 E39.96113
G1 X47.064 Y39.725 E39.97214
G1 X47.085 Y39.794 E39.97549
G1 X47.16 Y40.042 E39.98841
G1 X47.306 Y40.337 E40.00484
G1 X47.501 Y40.607 E40.02145
G1 X47.739 Y40.84 E40.03807
G1 X48.011 Y41.028 E40.05456
G1 X48.31 Y41.168 E40.07104
G1 X48.628 Y41.257 E40.08751
G1 X48.958 Y41.292 E40.10407
G1 X49.289 Y41.272 E40.12061
G1 X49.612 Y41.195 E40.13718
G1 X49.802 Y41.114 E40.14748
G1 X49.918 Y41.066 E40.15374
G1 X50.198 Y40.888 E40.1703
G1 X50.442 Y40.666 E40.18676
G1 X50.542 Y40.54 E40.19478
G1 X50.469 Y40.68 E40.195
G1 X50.326 Y40.954 E40.19892
G1 X50.193 Y41.209 E40.20825
G1 X50.135 Y41.32 E40.21383
G1 X47.038 Y47.242 E40.54724
G1 X43.656 Y55.286 E40.98259
G1 X40.959 Y63.586 E41.41799
G1 X38.966 Y72.082 E41.85336
G1 X37.692 Y80.716 E42.28878
G1 X37.144 Y89.426 E42.72418
G1 X37.326 Y98.151 E43.15957
G1 X38.239 Y106.829 E43.59491
G1 X39.874 Y115.402 E44.03032
G1 X42.221 Y123.808 E44.46574
G1 X45.262 Y131.987 E44.90108
G1 X48.979 Y139.884 E45.33653
G1 X53.342 Y147.441 E45.77187
G1 X58.323 Y154.607 E46.20727
G1 X63.885 Y161.332 E46.64266
G1 X69.991 Y167.567 E47.07805
G1 X76.598 Y173.269 E47.51345
G1 X83.657 Y178.398 E47.94878
G1 X91.123 Y182.919 E48.38422
G1 X98.94 Y186.8 E48.81964
G1 X107.053 Y190.012 E49.25496
G1 X115.407 Y192.535 E49.69034
G1 X123.944 Y194.349 E50.12576
G1 X132.601 Y195.442 E50.56109
G1 X140.721 Y195.784 E50.96656
G1 X140.721 Y196.528 E51.00367
G1 X140.781 Y196.763 E51.01578
G1 X140.946 Y196.985 E51.02957
G1 X141.233 Y197.147 E51.04602
G1 X141.575 Y197.154 E51.06308
G1 X141.905 Y196.992 E51.08142
G1 X142.031 Y196.953 E51.088
G1 X142.16 Y196.936 E51.0945
G1 X142.293 Y196.942 E51.10114
G1 X142.422 Y196.97 E51.10772
G1 X142.547 Y197.019 E51.11442
G1 X142.65 Y197.083 E51.12047
G1 X142.755 Y197.175 E51.12744
G1 X142.837 Y197.277 E51.13397
G1 X142.9 Y197.388 E51.14033
G1 X142.946 Y197.52 E51.14731
G1 X142.966 Y197.636 E51.15318
G1 X142.966 Y197.779 E51.16031
G1 X142.946 Y197.895 E51.16619
G1 X142.901 Y198.024 E51.173
G1 X142.834 Y198.143 E51.17982
G1 X142.756 Y198.24 E51.18603
G1 X142.65 Y198.333 E51.19306
G1 X142.547 Y198.397 E51.19911
G1 X142.422 Y198.446 E51.20581
G1 X142.294 Y198.474 E51.21235
G1 X142.158 Y198.479 E51.21914
G1 X142.032 Y198.463 E51.22547
G1 X141.908 Y198.425 E51.23194
G1 X141.636 Y198.287 E51.24716
G1 X141.338 Y198.251 E51.26214
G1 X140.998 Y198.376 E51.28021
G0 F3600 X141.243 Y198.712
;TYPE:WALL-OUTER
G1 F360 X141.141 Y198.843 E51.28849
G1 X141.121 Y198.943 E51.29358
G1 X141.121 Y198.95 E51.29393
G1 X141.121 Y199.792 E51.33594
G1 X141.121 Y199.793 E51.33599
G1 X141.121 Y200 E51.34631
G1 X140.914 Y199.992 E51.35293
G1 X132.603 Y199.656 E51.7679
G1 X123.928 Y198.602 E52.20388
G1 X115.379 Y196.858 E52.63918
G1 X106.995 Y194.429 E53.07466
G1 X98.837 Y191.335 E53.50995
G1 X90.939 Y187.587 E53.9461
G1 X83.392 Y183.23 E54.38087
G1 X76.195 Y178.262 E54.81716
G1 X69.442 Y172.749 E55.25209
G1 X63.146 Y166.702 E55.68761
G1 X57.349 Y160.158 E56.12377
G1 X52.11 Y153.187 E56.55882
G1 X47.444 Y145.807 E56.99443
G1 X43.387 Y138.077 E57.42997
G1 X39.968 Y130.051 E57.8652
G1 X37.199 Y121.759 E58.30135
G1 X35.11 Y113.283 E58.73687
G1 X33.711 Y104.675 E59.17196
G1 X33.01 Y95.981 E59.60711
G1 X33.01 Y87.235 E60.04345
G1 X33.711 Y78.541 E60.47861
G1 X35.11 Y69.933 E60.9137
G1 X37.199 Y61.456 E61.34927
G1 X39.969 Y53.161 E61.78557
G1 X43.387 Y45.139 E62.2206
G1 X47.255 Y37.77 E62.63581
G1 X47.351 Y37.586 E62.64617
G1 X47.531 Y37.69 E62.65278
G1 X47.942 Y37.928 E62.67648
G1 X48.022 Y37.974 E62.68108
G1 X48.1 Y38.02 E62.6856
G1 X47.899 Y38.186 E62.69335
G1 X47.839 Y38.256 E62.69726
G1 X47.726 Y38.387 E62.70589
G1 X47.588 Y38.611 E62.71902
G1 X47.491 Y38.857 E62.73221
G1 X47.436 Y39.116 E62.74542
G1 X47.424 Y39.379 E62.75855
G1 X47.457 Y39.642 E62.77178
G1 X47.533 Y39.894 E62.78491
G1 X47.65 Y40.13 E62.79805
G1 X47.805 Y40.345 E62.81127
G1 X47.994 Y40.53 E62.82447
G1 X48.211 Y40.68 E62.83763
G1 X48.45 Y40.792 E62.8508
G1 X48.704 Y40.863 E62.86396
G1 X48.967 Y40.891 E62.87715
G1 X49.23 Y40.875 E62.8903
G1 X49.487 Y40.814 E62.90347
G1 X49.731 Y40.711 E62.91669
G1 X49.954 Y40.569 E62.92988
G1 X50.149 Y40.392 E62.94302
G1 X50.313 Y40.185 E62.95619
G1 X50.44 Y39.953 E62.96939
G1 X50.495 Y39.792 E62.97787
G1 X50.525 Y39.703 E62.98256
G1 X50.57 Y39.446 E62.99558
G1 X50.647 Y39.49
G1 X50.728 Y39.536 E62.99953
G1 X51.335 Y39.886 E63.03448
G1 X47.4 Y47.412 E63.45818
G1 X44.031 Y55.426 E63.8919
G1 X41.345 Y63.694 E64.32561
G1 X39.359 Y72.157 E64.7593
G1 X38.09 Y80.758 E65.19305
G1 X37.544 Y89.434 E65.62676
G1 X37.726 Y98.126 E66.0605
G1 X38.635 Y106.771 E66.49417
G1 X40.264 Y115.311 E66.92792
G1 X42.602 Y123.684 E67.36163
G1 X45.631 Y131.832 E67.79531
G1 X49.334 Y139.698 E68.22906
G1 X53.68 Y147.226 E68.66273
G1 X58.642 Y154.365 E69.09648
G1 X64.183 Y161.064 E69.53021
G1 X70.265 Y167.275 E69.9639
G1 X76.847 Y172.955 E70.39764
G1 X83.879 Y178.065 E70.83132
G1 X91.316 Y182.568 E71.26506
G1 X99.103 Y186.434 E71.6988
G1 X107.185 Y189.634 E72.13247
G1 X115.507 Y192.147 E72.56617
G1 X124.011 Y193.954 E72.99991
G1 X132.635 Y195.043 E73.43358
G1 X141.121 Y195.4 E73.85732
G1 X141.121 Y196.478 E73.91111
G1 X141.146 Y196.573 E73.91601
G1 X141.149 Y196.588 E73.91677
G1 X141.216 Y196.678 E73.92237
G1 X141.342 Y196.749 E73.92958
G1 X141.486 Y196.752 E73.93677
G1 X141.5 Y196.745 E73.93755
G1 X141.754 Y196.62 E73.95167
G1 X141.949 Y196.56 E73.96185
G1 X142.143 Y196.535 E73.97161
G1 X142.343 Y196.543 E73.9816
G1 X142.541 Y196.586 E73.99171
G1 X142.727 Y196.66 E74.00169
G1 X142.89 Y196.761 E74.01126
G1 X143.044 Y196.896 E74.02148
G1 X143.168 Y197.049 E74.0313
G1 X143.266 Y197.224 E74.04131
G1 X143.334 Y197.416 E74.05147
G1 X143.366 Y197.606 E74.06108
G1 X143.366 Y197.809 E74.07121
G1 X143.334 Y197.999 E74.08082
G1 X143.266 Y198.191 E74.09099
G1 X143.166 Y198.369 E74.10117
G1 X143.046 Y198.518 E74.11072
G1 X142.89 Y198.655 E74.12107
G1 X142.727 Y198.756 E74.13064
G1 X142.541 Y198.83 E74.14063
G1 X142.343 Y198.873 E74.15074
G1 X142.142 Y198.88 E74.16077
G1 X141.949 Y198.856 E74.17047
G1 X141.755 Y198.796 E74.1806
G1 X141.518 Y198.676 E74.19386
G1 X141.392 Y198.66 E74.20019
G1 X141.385 Y198.66 E74.20054
G1 X141.243 Y198.712 E74.20809
G0 F3600 X141.141 Y198.843
G0 X141.135 Y198.876
G0 X140.644 Y198.778
G0 X140.331 Y198.864
;TYPE:SKIN
G1 F360 X140.331 Y199.177 E74.2237
G1 X132.668 Y198.866 E74.60633
G1 X124.045 Y197.819 E75.03969
G1 X115.559 Y196.089 E75.47177
G1 X107.258 Y193.683 E75.90295
G1 X99.144 Y190.606 E76.33589
G1 X91.305 Y186.886 E76.76878
G1 X83.815 Y182.562 E77.20026
G1 X76.668 Y177.628 E77.63354
G1 X69.969 Y172.16 E78.06495
G1 X63.713 Y166.151 E78.49772
G1 X57.961 Y159.657 E78.93053
G1 X52.766 Y152.745 E79.36191
G1 X48.124 Y145.402 E79.79531
G1 X44.103 Y137.743 E80.22688
G1 X40.705 Y129.764 E80.65955
G1 X37.953 Y121.525 E81.09292
G1 X35.885 Y113.13 E81.52427
G1 X34.495 Y104.575 E81.95668
G1 X33.8 Y95.961 E82.38783
G1 X33.8 Y87.255 E82.82217
G1 X34.495 Y78.641 E83.25332
G1 X35.885 Y70.086 E83.68573
G1 X37.953 Y61.69 E84.11713
G1 X40.707 Y53.444 E84.55086
G1 X44.105 Y45.469 E84.98334
G1 X46.836 Y40.267 E85.27646
G1 X46.971 Y40.54 E85.29166
G1 X47.204 Y40.862 E85.31149
G1 X47.49 Y41.142 E85.33146
G1 X47.816 Y41.367 E85.35122
G1 X48.174 Y41.535 E85.37095
G1 X48.554 Y41.641 E85.39063
G1 X48.949 Y41.684 E85.41045
G1 X49.346 Y41.66 E85.43029
G1 X49.542 Y41.613 E85.44035
G1 X46.685 Y47.076 E85.74792
G1 X43.29 Y55.15 E86.1849
G1 X40.583 Y63.481 E86.62192
G1 X38.582 Y72.008 E87.05889
G1 X37.304 Y80.675 E87.49597
G1 X36.754 Y89.418 E87.93302
G1 X36.936 Y98.176 E88.37005
G1 X37.853 Y106.886 E88.807
G1 X39.494 Y115.491 E89.24404
G1 X41.85 Y123.929 E89.68112
G1 X44.902 Y132.139 E90.1181
G1 X48.633 Y140.065 E90.55515
G1 X53.012 Y147.65 E90.9921
G1 X58.013 Y154.843 E91.42917
G1 X63.595 Y161.593 E91.86617
G1 X69.724 Y167.852 E92.30321
G1 X76.356 Y173.575 E92.74024
G1 X83.441 Y178.723 E93.17717
G1 X90.935 Y183.261 E93.61426
G1 X98.782 Y187.157 E94.05134
G1 X106.924 Y190.381 E94.48823
G1 X115.31 Y192.913 E94.92527
G1 X123.879 Y194.734 E95.36232
G1 X132.568 Y195.83 E95.79925
G1 X140.331 Y196.158 E96.1869
G1 X140.331 Y196.577 E96.2078
G1 X140.422 Y196.934 E96.22618
G1 X140.683 Y197.284 E96.24796
G1 X141.127 Y197.535 E96.27341
G1 X141.662 Y197.546 E96.30011
G1 X142.054 Y197.354 E96.32188
G1 X142.118 Y197.335 E96.32521
G1 X142.172 Y197.327 E96.32794
G1 X142.245 Y197.33 E96.33158
G1 X142.31 Y197.344 E96.3349
G1 X142.371 Y197.368 E96.33817
G1 X142.418 Y197.398 E96.34095
G1 X142.472 Y197.445 E96.34452
G1 X142.512 Y197.495 E96.34772
G1 X142.542 Y197.547 E96.35071
G1 X142.576 Y197.668 E96.35698
G1 X142.576 Y197.747 E96.36093
G1 X142.542 Y197.866 E96.3671
G1 X142.51 Y197.925 E96.37045
G1 X142.474 Y197.97 E96.37332
G1 X142.418 Y198.018 E96.377
G1 X142.37 Y198.048 E96.37983
G1 X142.308 Y198.072 E96.38314
G1 X142.248 Y198.086 E96.38622
G1 X142.119 Y198.081 E96.39266
G1 X142.05 Y198.06 E96.39626
G1 X141.751 Y197.908 E96.41299
G1 X141.291 Y197.853 E96.4361
G1 X140.759 Y198.048 E96.46437
G1 X140.402 Y198.505 E96.4933
G1 X140.331 Y198.864 E96.51156
G0 F3600 X115.398 Y192.573
G0 X107.04 Y190.049
G0 X98.924 Y186.836
G0 X91.104 Y182.954
G0 X83.635 Y178.431
G0 X61.057 Y162.881
G1 F360 X70.7 Y172.523 E97.19189
