;FLAVOR:Marlin
;TIME:4776
;Filament used: 3.00169m
;Layer height: 0.2
;Generated with Cura_SteamEngine 3.4.1
M190 S65
M104 S215
M109 S215
M82 ;absolute extrusion mode
G21 ;metric values
G90 ;absolute positioning
M82 ;set extruder to absolute mode
M107 ;start with the fan off
G28 X0 Y0 ;move X/Y to min endstops
G28 Z0 ;move Z to min endstops
G1 Z15.0 F9000 ;move the platform down 15mm
G92 E0 ;zero the extruded length
G1 F200 E3 ;extrude 3mm of feed stock
G92 E0 ;zero the extruded length again
G1 F9000
;Put printing message on LCD screen
M117 Printing...
G92 E0
G1 F1500 E-5
;LAYER_COUNT:45
;LAYER:0
M107
G0 F3600 X74.766 Y84.149 Z0.3
;TYPE:WALL-INNER
G1 F1500 E0
G1 F1050 X75.054 Y84.36 E0.01781
G1 X75.371 Y84.521 E0.03555
G1 X75.712 Y84.624 E0.05332
G1 X76.066 Y84.671 E0.07114
G1 X76.424 Y84.655 E0.08902
G1 X76.772 Y84.58 E0.10678
G1 X77.102 Y84.446 E0.12455
G1 X77.404 Y84.26 E0.14224
G1 X77.673 Y84.025 E0.16006
G1 X77.896 Y83.747 E0.17784
G1 X78.071 Y83.437 E0.1956
G1 X78.19 Y83.1 E0.21343
G1 X78.248 Y82.76 E0.23064
G1 X78.255 Y82.57 E0.24013
G1 X78.248 Y82.38 E0.24961
G1 X78.19 Y82.04 E0.26682
G1 X78.071 Y81.703 E0.28465
G1 X77.896 Y81.393 E0.30241
G1 X77.673 Y81.115 E0.32019
G1 X77.404 Y80.88 E0.33801
G1 X77.102 Y80.694 E0.35571
G1 X76.772 Y80.56 E0.37347
G1 X76.424 Y80.485 E0.39124
G1 X76.066 Y80.469 E0.40911
G1 X75.712 Y80.516 E0.42693
G1 X75.371 Y80.619 E0.4447
G1 X75.054 Y80.78 E0.46244
G1 X74.766 Y80.991 E0.48025
G1 X74.519 Y81.25 E0.49811
G1 X74.321 Y81.544 E0.51579
G1 X74.174 Y81.869 E0.53359
G1 X74.083 Y82.214 E0.55139
G1 X74.052 Y82.57 E0.56922
G1 X74.083 Y82.925 E0.58699
G1 X74.174 Y83.271 E0.60484
G1 X74.321 Y83.595 E0.62259
G1 X74.519 Y83.889 E0.64028
G1 X74.766 Y84.149 E0.65817
G0 F3600 X74.7 Y84.224
G0 X75.357 Y84.558
G0 X75.758 Y84.643
G0 X96.787 Y87.56
G0 X96.757 Y87.655
G1 F1050 X96.207 Y87.525 E0.68636
G1 X95.668 Y87.482 E0.71334
G1 X83.62 Y87.482 E1.31442
G1 X83.082 Y87.525 E1.34134
G1 X82.531 Y87.655 E1.36959
G1 X82.008 Y87.873 E1.39786
G1 X81.527 Y88.168 E1.42601
G1 X81.097 Y88.534 E1.45418
G1 X80.73 Y88.964 E1.48238
G1 X80.434 Y89.447 E1.51065
G1 X80.218 Y89.969 E1.53883
G1 X80.087 Y90.518 E1.56699
G1 X80.044 Y91.058 E1.59402
G1 X80.044 Y115.882 E2.83249
G1 X80.087 Y116.421 E2.85947
G1 X80.218 Y116.971 E2.88767
G1 X80.435 Y117.493 E2.91588
G1 X80.731 Y117.975 E2.9441
G1 X81.097 Y118.405 E2.97227
G1 X81.527 Y118.771 E3.00044
G1 X82.009 Y119.067 E3.02866
G1 X82.531 Y119.284 E3.05686
G1 X83.081 Y119.415 E3.08507
G1 X83.62 Y119.458 E3.11205
G1 X95.668 Y119.458 E3.71312
G1 X96.208 Y119.415 E3.74015
G1 X96.757 Y119.284 E3.76831
G1 X97.279 Y119.068 E3.79649
G1 X97.762 Y118.772 E3.82475
G1 X98.192 Y118.405 E3.85296
G1 X98.558 Y117.975 E3.88113
G1 X98.853 Y117.493 E3.90932
G1 X99.07 Y116.971 E3.93753
G1 X99.201 Y116.421 E3.96573
G1 X99.244 Y115.882 E3.99271
G1 X99.244 Y91.058 E5.23118
G1 X99.201 Y90.518 E5.25821
G1 X99.07 Y89.969 E5.28637
G1 X98.854 Y89.447 E5.31455
G1 X98.558 Y88.964 E5.34281
G1 X98.192 Y88.534 E5.37099
G1 X97.762 Y88.168 E5.39916
G1 X97.279 Y87.873 E5.42739
G1 X96.757 Y87.655 E5.45562
G0 F3600 X96.787 Y87.56
G0 X107.172 Y87.443
G0 X119.222 Y87.443
G0 X120.34 Y87.56
G0 X120.31 Y87.655
G1 F1050 X119.759 Y87.525 E5.48386
G1 X119.221 Y87.482 E5.51079
G1 X107.173 Y87.482 E6.11186
G1 X106.635 Y87.525 E6.13879
G1 X106.084 Y87.655 E6.16704
G1 X105.561 Y87.873 E6.1953
G1 X105.08 Y88.168 E6.22345
G1 X104.65 Y88.534 E6.25163
G1 X104.283 Y88.964 E6.27983
G1 X103.987 Y89.447 E6.30809
G1 X103.771 Y89.969 E6.33628
G1 X103.64 Y90.518 E6.36444
G1 X103.599 Y91.034 E6.39026
G1 X103.597 Y115.882 E7.62993
G1 X103.64 Y116.421 E7.65691
G1 X103.771 Y116.971 E7.68512
G1 X103.988 Y117.493 E7.71332
G1 X104.284 Y117.975 E7.74154
G1 X104.65 Y118.405 E7.76971
G1 X105.08 Y118.771 E7.79788
G1 X105.562 Y119.067 E7.8261
G1 X106.084 Y119.284 E7.8543
G1 X106.634 Y119.415 E7.88251
G1 X107.173 Y119.458 E7.90949
G1 X119.221 Y119.458 E8.51056
G1 X119.76 Y119.415 E8.53754
G1 X120.31 Y119.284 E8.56575
G1 X120.832 Y119.068 E8.59393
G1 X121.315 Y118.772 E8.62219
G1 X121.745 Y118.405 E8.6504
G1 X122.111 Y117.975 E8.67857
G1 X122.406 Y117.493 E8.70676
G1 X122.623 Y116.971 E8.73497
G1 X122.754 Y116.421 E8.76317
G1 X122.797 Y115.882 E8.79015
G1 X122.797 Y91.058 E10.02862
G1 X122.754 Y90.518 E10.05565
G1 X122.623 Y89.969 E10.08381
G1 X122.407 Y89.447 E10.11199
G1 X122.111 Y88.964 E10.14026
G1 X121.745 Y88.534 E10.16843
G1 X121.315 Y88.168 E10.1966
G1 X120.832 Y87.873 E10.22484
G1 X120.31 Y87.655 E10.25306
G0 F3600 X120.34 Y87.56
G0 X126.45 Y84.224
G0 X126.516 Y84.149
G1 F1050 X126.804 Y84.36 E10.27087
G1 X127.121 Y84.521 E10.28861
G1 X127.462 Y84.624 E10.30638
G1 X127.816 Y84.671 E10.3242
G1 X128.174 Y84.655 E10.34207
G1 X128.522 Y84.58 E10.35983
G1 X128.852 Y84.446 E10.3776
G1 X129.154 Y84.26 E10.3953
G1 X129.423 Y84.025 E10.41312
G1 X129.646 Y83.747 E10.4309
G1 X129.821 Y83.437 E10.44866
G1 X129.94 Y83.1 E10.46649
G1 X129.998 Y82.76 E10.4837
G1 X130.005 Y82.57 E10.49318
G1 X129.998 Y82.38 E10.50267
G1 X129.94 Y82.04 E10.51988
G1 X129.821 Y81.703 E10.53771
G1 X129.646 Y81.393 E10.55547
G1 X129.423 Y81.115 E10.57325
G1 X129.154 Y80.88 E10.59107
G1 X128.852 Y80.694 E10.60876
G1 X128.522 Y80.56 E10.62653
G1 X128.174 Y80.485 E10.64429
G1 X127.816 Y80.469 E10.66217
G1 X127.462 Y80.516 E10.67999
G1 X127.121 Y80.619 E10.69776
G1 X126.804 Y80.78 E10.7155
G1 X126.516 Y80.991 E10.73331
G1 X126.269 Y81.25 E10.75116
G1 X126.071 Y81.544 E10.76885
G1 X125.924 Y81.869 E10.78664
G1 X125.833 Y82.214 E10.80445
G1 X125.802 Y82.57 E10.82227
G1 X125.833 Y82.925 E10.84005
G1 X125.924 Y83.271 E10.8579
G1 X126.071 Y83.595 E10.87565
G1 X126.269 Y83.889 E10.89334
G1 X126.516 Y84.149 E10.91123
G0 F3600 X126.45 Y84.224
G0 X126.188 Y123.041
G0 X126.266 Y123.103
G1 F1050 X126.056 Y123.424 E10.93036
G1 X125.923 Y123.72 E10.94655
G1 X125.833 Y124.064 E10.96429
G1 X125.802 Y124.42 E10.98212
G1 X125.833 Y124.775 E10.9999
G1 X125.924 Y125.121 E11.01775
G1 X126.071 Y125.445 E11.0355
G1 X126.269 Y125.739 E11.05318
G1 X126.516 Y125.999 E11.07108
G1 X126.804 Y126.21 E11.08889
G1 X127.121 Y126.371 E11.10663
G1 X127.462 Y126.474 E11.1244
G1 X127.816 Y126.521 E11.14221
G1 X128.174 Y126.505 E11.16009
G1 X128.522 Y126.43 E11.17785
G1 X128.852 Y126.296 E11.19562
G1 X129.154 Y126.11 E11.21332
G1 X129.423 Y125.875 E11.23114
G1 X129.646 Y125.597 E11.24892
G1 X129.821 Y125.287 E11.26668
G1 X129.94 Y124.95 E11.28451
G1 X129.998 Y124.61 E11.30172
G1 X130.005 Y124.42 E11.3112
G1 X129.998 Y124.23 E11.32069
G1 X129.94 Y123.89 E11.33789
G1 X129.821 Y123.553 E11.35572
G1 X129.646 Y123.243 E11.37348
G1 X129.423 Y122.965 E11.39127
G1 X129.154 Y122.73 E11.40909
G1 X128.852 Y122.544 E11.42678
G1 X128.522 Y122.41 E11.44455
G1 X128.174 Y122.335 E11.46231
G1 X127.816 Y122.319 E11.48019
G1 X127.462 Y122.366 E11.49801
G1 X127.121 Y122.469 E11.51578
G1 X126.804 Y122.63 E11.53351
G1 X126.516 Y122.841 E11.55133
G1 X126.266 Y123.103 E11.56939
G0 F3600 X126.188 Y123.041
G0 X126.784 Y122.596
G0 X127.454 Y122.327
G0 X128.179 Y122.296
G0 X128.87 Y122.509
G0 X129.451 Y122.938
G0 X129.857 Y123.537
G0 X130.037 Y124.226
G0 X134.45 Y129.343
G0 X135.339 Y129.965
G0 X135.376 Y129.873
G1 F1050 X135.882 Y130.027 E11.59578
G1 X136.404 Y130.095 E11.62204
G1 X136.931 Y130.072 E11.64836
G1 X137.445 Y129.961 E11.6746
G1 X137.933 Y129.764 E11.70085
G1 X138.38 Y129.489 E11.72703
G1 X138.776 Y129.142 E11.7533
G1 X139.091 Y128.751 E11.77835
G1 X139.349 Y128.296 E11.80445
G1 X139.537 Y127.778 E11.83194
G1 X139.625 Y127.259 E11.8582
G1 X139.636 Y126.984 E11.87193
G1 X139.624 Y126.718 E11.88522
G1 X139.537 Y126.213 E11.91078
G1 X139.363 Y125.716 E11.93706
G1 X139.106 Y125.258 E11.96326
G1 X138.776 Y124.848 E11.98951
G1 X138.38 Y124.501 E12.01578
G1 X137.933 Y124.226 E12.04197
G1 X137.445 Y124.028 E12.06824
G1 X136.93 Y123.918 E12.09451
G1 X136.404 Y123.895 E12.12078
G1 X135.882 Y123.963 E12.14704
G1 X135.379 Y124.116 E12.17327
G1 X134.91 Y124.353 E12.19949
G1 X134.486 Y124.666 E12.22578
G1 X134.122 Y125.046 E12.25204
G1 X133.829 Y125.482 E12.27824
G1 X133.612 Y125.961 E12.30448
G1 X133.478 Y126.47 E12.33074
G1 X133.434 Y126.995 E12.35702
G1 X133.478 Y127.519 E12.38326
G1 X133.612 Y128.029 E12.40956
G1 X133.829 Y128.508 E12.4358
G1 X134.122 Y128.943 E12.46197
G1 X134.476 Y129.314 E12.48755
G1 X134.888 Y129.62 E12.51315
G1 X135.376 Y129.873 E12.54058
G0 F3600 X135.339 Y129.965
G0 X76.065 Y122.28
G0 X75.357 Y122.432
G0 X75.183 Y122.539
G0 X74.438 Y123.041
G0 X74.516 Y123.103
G1 F1050 X74.306 Y123.424 E12.55971
G1 X74.173 Y123.72 E12.5759
G1 X74.083 Y124.064 E12.59364
G1 X74.052 Y124.42 E12.61147
G1 X74.083 Y124.775 E12.62925
G1 X74.174 Y125.121 E12.6471
G1 X74.321 Y125.445 E12.66485
G1 X74.519 Y125.739 E12.68253
G1 X74.766 Y125.999 E12.70042
G1 X75.054 Y126.21 E12.71824
G1 X75.371 Y126.371 E12.73597
G1 X75.712 Y126.474 E12.75375
G1 X76.066 Y126.521 E12.77156
G1 X76.424 Y126.505 E12.78944
G1 X76.772 Y126.43 E12.8072
G1 X77.102 Y126.296 E12.82497
G1 X77.404 Y126.11 E12.84267
G1 X77.673 Y125.875 E12.86049
G1 X77.896 Y125.597 E12.87827
G1 X78.071 Y125.287 E12.89603
G1 X78.19 Y124.95 E12.91386
G1 X78.248 Y124.61 E12.93106
G1 X78.255 Y124.42 E12.94055
G1 X78.248 Y124.23 E12.95004
G1 X78.19 Y123.89 E12.96724
G1 X78.071 Y123.553 E12.98507
G1 X77.896 Y123.243 E13.00283
G1 X77.673 Y122.965 E13.02061
G1 X77.404 Y122.73 E13.03844
G1 X77.102 Y122.544 E13.05613
G1 X76.772 Y122.41 E13.0739
G1 X76.424 Y122.335 E13.09166
G1 X76.066 Y122.319 E13.10954
G1 X75.712 Y122.366 E13.12735
G1 X75.371 Y122.469 E13.14513
G1 X75.054 Y122.63 E13.16286
G1 X74.766 Y122.841 E13.18068
G1 X74.516 Y123.103 E13.19874
G0 F3600 X74.438 Y123.041
G0 X69.321 Y117.827
G0 X69.227 Y117.796
G1 F1050 X69.359 Y117.243 E13.22711
G1 X69.402 Y116.704 E13.25408
G1 X69.402 Y82.014 E14.98478
G1 X69.459 Y81.305 E15.02026
G1 X69.618 Y80.64 E15.05437
G1 X69.883 Y80 E15.08893
G1 X70.246 Y79.407 E15.12362
G1 X70.693 Y78.885 E15.15791
G1 X71.214 Y78.439 E15.19212
G1 X71.807 Y78.076 E15.22681
G1 X72.446 Y77.811 E15.26132
G1 X73.114 Y77.651 E15.29559
G1 X73.823 Y77.595 E15.33107
G1 X129.903 Y77.595 E18.12892
G1 X130.612 Y77.651 E18.1644
G1 X131.279 Y77.811 E18.19862
G1 X131.946 Y78.092 E18.23473
G1 X132.51 Y78.437 E18.26771
G1 X133.034 Y78.885 E18.30211
G1 X133.465 Y79.388 E18.33516
G1 X133.842 Y79.997 E18.37089
G1 X134.108 Y80.639 E18.40556
G1 X134.269 Y81.307 E18.43984
G1 X134.324 Y82.013 E18.47517
G1 X134.324 Y116.704 E20.20591
G1 X134.367 Y117.243 E20.23289
G1 X134.498 Y117.793 E20.26109
G1 X134.715 Y118.315 E20.2893
G1 X135.011 Y118.797 E20.31752
G1 X135.377 Y119.227 E20.34569
G1 X135.807 Y119.593 E20.37386
G1 X136.289 Y119.889 E20.40208
G1 X136.811 Y120.106 E20.43028
G1 X137.361 Y120.237 E20.45849
G1 X137.9 Y120.28 E20.48547
G1 X138.514 Y120.28 E20.5161
G1 X138.913 Y120.312 E20.53607
G1 X139.275 Y120.399 E20.55464
G1 X139.609 Y120.536 E20.57265
G1 X139.931 Y120.732 E20.59146
G1 X140.213 Y120.968 E20.60981
G1 X140.478 Y121.273 E20.62996
G1 X140.672 Y121.59 E20.64851
G1 X140.817 Y121.942 E20.6675
G1 X140.904 Y122.304 E20.68607
G1 X140.936 Y122.699 E20.70585
G1 X140.936 Y128.976 E21.01901
G1 X140.904 Y129.372 E21.03883
G1 X140.818 Y129.732 E21.05729
G1 X140.671 Y130.087 E21.07646
G1 X140.478 Y130.403 E21.09494
G1 X140.231 Y130.69 E21.11383
G1 X139.944 Y130.937 E21.13272
G1 X139.628 Y131.13 E21.15119
G1 X139.273 Y131.277 E21.17036
G1 X138.913 Y131.363 E21.18883
G1 X138.514 Y131.395 E21.2088
G1 X64.558 Y131.395 E24.89848
G1 X64.159 Y131.363 E24.91845
G1 X63.799 Y131.277 E24.93691
G1 X63.444 Y131.13 E24.95608
G1 X63.128 Y130.937 E24.97455
G1 X62.841 Y130.69 E24.99345
G1 X62.594 Y130.403 E25.01234
G1 X62.401 Y130.087 E25.03081
G1 X62.254 Y129.732 E25.04998
G1 X62.168 Y129.372 E25.06844
G1 X62.136 Y128.976 E25.08827
G1 X62.136 Y122.699 E25.40143
G1 X62.168 Y122.304 E25.4212
G1 X62.255 Y121.942 E25.43977
G1 X62.4 Y121.59 E25.45877
G1 X62.596 Y121.269 E25.47753
G1 X62.839 Y120.986 E25.49614
G1 X63.141 Y120.729 E25.51592
G1 X63.445 Y120.544 E25.53368
G1 X63.787 Y120.403 E25.55213
G1 X64.14 Y120.317 E25.57026
G1 X64.54 Y120.283 E25.59029
G1 X65.759 Y120.28 E25.6511
G1 X66.336 Y120.241 E25.67996
G1 X66.887 Y120.113 E25.70818
G1 X67.41 Y119.902 E25.73631
G1 X67.895 Y119.609 E25.76458
G1 X68.328 Y119.246 E25.79277
G1 X68.697 Y118.819 E25.82093
G1 X68.996 Y118.34 E25.8491
G1 X69.227 Y117.796 E25.87858
G0 F3600 X69.321 Y117.827
G0 X65.874 Y123.924
G0 X65.365 Y124.079
G0 X64.89 Y124.319
G0 X64.46 Y124.636
G0 X64.091 Y125.021
G0 X63.795 Y125.463
G0 X63.575 Y125.948
G0 X63.439 Y126.464
G0 X63.394 Y126.995
G0 X63.439 Y127.525
G0 X63.575 Y128.042
G0 X63.795 Y128.527
G0 X64.091 Y128.968
G0 X64.294 Y129.18
G0 X65.339 Y129.965
G0 X65.376 Y129.873
G1 F1050 X65.882 Y130.027 E25.90497
G1 X66.404 Y130.095 E25.93124
G1 X66.931 Y130.072 E25.95755
G1 X67.445 Y129.961 E25.98379
G1 X67.933 Y129.764 E26.01004
G1 X68.38 Y129.489 E26.03623
G1 X68.776 Y129.142 E26.06249
G1 X69.091 Y128.751 E26.08754
G1 X69.349 Y128.296 E26.11364
G1 X69.537 Y127.778 E26.14113
G1 X69.625 Y127.259 E26.16739
G1 X69.636 Y126.984 E26.18113
G1 X69.624 Y126.718 E26.19441
G1 X69.537 Y126.213 E26.21998
G1 X69.363 Y125.716 E26.24625
G1 X69.106 Y125.258 E26.27245
G1 X68.776 Y124.848 E26.29871
G1 X68.38 Y124.501 E26.32497
G1 X67.933 Y124.226 E26.35116
G1 X67.445 Y124.028 E26.37743
G1 X66.93 Y123.918 E26.4037
G1 X66.404 Y123.895 E26.42997
G1 X65.882 Y123.963 E26.45623
G1 X65.379 Y124.116 E26.48246
G1 X64.91 Y124.353 E26.50868
G1 X64.486 Y124.666 E26.53497
G1 X64.122 Y125.046 E26.56123
G1 X63.829 Y125.482 E26.58743
G1 X63.612 Y125.961 E26.61367
G1 X63.478 Y126.47 E26.63993
G1 X63.434 Y126.995 E26.66621
G1 X63.478 Y127.519 E26.69245
G1 X63.612 Y128.029 E26.71875
G1 X63.829 Y128.508 E26.74499
G1 X64.122 Y128.943 E26.77116
G1 X64.476 Y129.314 E26.79674
G1 X64.888 Y129.62 E26.82234
G1 X65.376 Y129.873 E26.84977
G0 F3600 X65.339 Y129.965
G0 X66.403 Y130.134
G0 X66.936 Y130.111
G0 X67.456 Y129.999
G0 X67.951 Y129.799
G0 X68.403 Y129.521
G0 X68.804 Y129.169
G0 X69.063 Y128.849
G0 X69.64 Y127.76
G0 X69.149 Y127.676
;TYPE:WALL-OUTER
G1 F1050 X69.226 Y127.217 E26.87299
G1 X69.236 Y126.984 E26.88462
G1 X69.226 Y126.761 E26.89576
G1 X69.149 Y126.314 E26.91839
G1 X68.997 Y125.882 E26.94124
G1 X68.773 Y125.483 E26.96406
G1 X68.486 Y125.126 E26.98692
G1 X68.142 Y124.824 E27.00975
G1 X67.752 Y124.584 E27.0326
G1 X67.327 Y124.412 E27.05547
G1 X66.879 Y124.316 E27.07833
G1 X66.421 Y124.296 E27.1012
G1 X65.967 Y124.355 E27.12404
G1 X65.529 Y124.489 E27.1469
G1 X65.12 Y124.695 E27.16974
G1 X64.751 Y124.967 E27.19261
G1 X64.435 Y125.298 E27.21545
G1 X64.179 Y125.678 E27.2383
G1 X63.99 Y126.095 E27.26115
G1 X63.874 Y126.538 E27.28399
G1 X63.835 Y126.995 E27.30687
G1 X63.874 Y127.451 E27.32971
G1 X63.99 Y127.895 E27.3526
G1 X64.179 Y128.312 E27.37544
G1 X64.435 Y128.691 E27.39826
G1 X64.742 Y129.013 E27.42046
G1 X65.101 Y129.28 E27.44278
G1 X65.528 Y129.501 E27.46677
G1 X65.967 Y129.635 E27.48967
G1 X66.421 Y129.694 E27.51251
G1 X66.88 Y129.674 E27.53543
G1 X67.327 Y129.577 E27.55825
G1 X67.752 Y129.406 E27.5811
G1 X68.142 Y129.166 E27.60395
G1 X68.486 Y128.864 E27.62679
G1 X68.759 Y128.525 E27.6485
G1 X68.985 Y128.128 E27.67129
G1 X69.149 Y127.676 E27.69528
G0 F3600 X69.182 Y127.479
G0 X69.674 Y127.563
G0 X74.414 Y123.079
G0 X74.831 Y123.353
G1 F1050 X74.658 Y123.617 E27.71103
G1 X74.552 Y123.853 E27.72394
G1 X74.479 Y124.132 E27.73832
G1 X74.454 Y124.42 E27.75275
G1 X74.479 Y124.707 E27.76712
G1 X74.552 Y124.987 E27.78155
G1 X74.671 Y125.249 E27.79591
G1 X74.832 Y125.488 E27.81029
G1 X75.031 Y125.697 E27.82469
G1 X75.264 Y125.868 E27.8391
G1 X75.521 Y125.998 E27.85347
G1 X75.797 Y126.082 E27.86787
G1 X76.083 Y126.12 E27.88226
G1 X76.372 Y126.107 E27.89669
G1 X76.654 Y126.046 E27.91109
G1 X76.921 Y125.938 E27.92546
G1 X77.166 Y125.787 E27.93981
G1 X77.383 Y125.597 E27.9542
G1 X77.564 Y125.372 E27.96861
G1 X77.705 Y125.121 E27.98297
G1 X77.801 Y124.849 E27.99736
G1 X77.849 Y124.568 E28.01159
G1 X77.855 Y124.42 E28.01898
G1 X77.849 Y124.272 E28.02637
G1 X77.801 Y123.991 E28.04059
G1 X77.705 Y123.719 E28.05498
G1 X77.564 Y123.468 E28.06934
