;FLAVOR:Marlin
;TIME:309
;Filament used: 0.172972m
;Layer height: 0.2
;Generated with Cura_SteamEngine 3.4.1
M190 S65
M104 S210
M109 S210
M82 ;absolute extrusion mode
G21 ;metric values
G90 ;absolute positioning
M82 ;set extruder to absolute mode
M107 ;start with the fan off
G28 X0 Y0 ;move X/Y to min endstops
G28 Z0 ;move Z to min endstops
G1 Z15.0 F9000 ;move the platform down 15mm
G92 E0 ;zero the extruded length
G1 F200 E3 ;extrude 3mm of feed stock
G92 E0 ;zero the extruded length again
G1 F9000
;Put printing message on LCD screen
M117 Printing...
G92 E0
G1 F1500 E-5
;LAYER_COUNT:45
;LAYER:0
M107
G0 F3600 X90.04 Y107.238 Z0.3
;TYPE:SKIRT
G1 F1500 E0
G1 F1050 X90.55 Y106.887 E0.03089
G1 X91.101 Y106.604 E0.06179
G1 X91.684 Y106.395 E0.09269
G1 X92.29 Y106.263 E0.12363
G1 X93.028 Y106.209 E0.16055
G1 X100.432 Y106.239 E0.52994
G1 X101.05 Y106.282 E0.56085
G1 X101.637 Y106.398 E0.5907
G1 X102.289 Y106.57 E0.62434
G1 X102.877 Y106.766 E0.65526
G1 X103.186 Y106.905 E0.67217
G1 X103.73 Y107.173 E0.70242
G1 X104.267 Y107.482 E0.73333
G1 X104.653 Y107.768 E0.7573
G1 X105.165 Y108.188 E0.79034
G1 X105.618 Y108.611 E0.82126
G1 X106.005 Y109.079 E0.85156
G1 X106.54 Y109.816 E0.89699
G1 X106.871 Y110.34 E0.92791
G1 X107.104 Y110.831 E0.95503
G1 X107.315 Y111.351 E0.98302
G1 X107.51 Y111.939 E1.01393
G1 X107.616 Y112.46 E1.04046
G1 X107.738 Y113.292 E1.08241
G1 X107.789 Y113.987 E1.11718
G1 X107.791 Y120.99 E1.46656
G1 X107.751 Y121.608 E1.49745
G1 X107.632 Y122.216 E1.52836
G1 X107.436 Y122.803 E1.55924
G1 X107.166 Y123.36 E1.59012
G1 X106.826 Y123.878 E1.62103
G1 X106.422 Y124.348 E1.65195
G1 X105.961 Y124.762 E1.68286
G1 X105.451 Y125.113 E1.71375
G1 X104.9 Y125.395 E1.74463
G1 X104.317 Y125.604 E1.77553
G1 X103.712 Y125.737 E1.80644
G1 X102.991 Y125.791 E1.84251
G1 X93.009 Y125.791 E2.34051
G1 X92.391 Y125.751 E2.37141
G1 X91.783 Y125.632 E2.40232
G1 X91.196 Y125.435 E2.43321
G1 X90.639 Y125.165 E2.46409
G1 X90.121 Y124.825 E2.495
G1 X89.651 Y124.421 E2.52592
G1 X89.238 Y123.96 E2.5568
G1 X88.887 Y123.45 E2.58769
G1 X88.604 Y122.899 E2.61859
G1 X88.395 Y122.316 E2.64949
G1 X88.263 Y121.71 E2.68043
G1 X88.209 Y120.991 E2.7164
G1 X88.209 Y111.009 E3.21441
G1 X88.249 Y110.391 E3.24531
G1 X88.368 Y109.783 E3.27621
G1 X88.565 Y109.196 E3.30711
G1 X88.835 Y108.639 E3.33799
G1 X89.175 Y108.121 E3.3689
G1 X89.579 Y107.651 E3.39982
G1 X90.04 Y107.238 E3.4307
G0 F3600 X90.428 Y107.445
G1 F1050 X90.931 Y107.131 E3.46028
G1 X91.471 Y106.886 E3.48987
G1 X92.04 Y106.717 E3.51948
G1 X92.625 Y106.626 E3.54902
G1 X93.027 Y106.609 E3.56909
G1 X100.431 Y106.639 E3.93848
G1 X101.022 Y106.681 E3.96804
G1 X101.535 Y106.785 E3.99415
G1 X102.187 Y106.957 E4.02779
G1 X103.009 Y107.264 E4.07157
G1 X103.553 Y107.532 E4.10183
G1 X104.067 Y107.829 E4.13144
G1 X104.4 Y108.077 E4.15216
G1 X104.912 Y108.497 E4.1852
G1 X105.344 Y108.903 E4.21477
G1 X105.682 Y109.314 E4.24132
G1 X106.217 Y110.051 E4.28676
G1 X106.532 Y110.553 E4.31632
G1 X106.733 Y110.982 E4.33996
G1 X106.944 Y111.502 E4.36796
G1 X107.13 Y112.065 E4.39754
G1 X107.22 Y112.518 E4.42058
G1 X107.342 Y113.35 E4.46253
G1 X107.389 Y113.987 E4.4944
G1 X107.391 Y120.99 E4.84378
G1 X107.351 Y121.581 E4.87333
G1 X107.232 Y122.162 E4.90292
G1 X107.036 Y122.722 E4.93252
G1 X106.767 Y123.25 E4.96209
G1 X106.429 Y123.737 E4.99166
G1 X106.028 Y124.175 E5.02129
G1 X105.573 Y124.554 E5.05083
G1 X105.07 Y124.869 E5.08044
G1 X104.53 Y125.113 E5.11
G1 X103.962 Y125.283 E5.13958
G1 X103.376 Y125.374 E5.16917
G1 X102.991 Y125.391 E5.1884
G1 X93.009 Y125.391 E5.6864
G1 X92.417 Y125.351 E5.716
G1 X91.837 Y125.232 E5.74554
G1 X91.277 Y125.036 E5.77514
G1 X90.749 Y124.766 E5.80473
G1 X90.262 Y124.428 E5.8343
G1 X89.825 Y124.027 E5.86389
G1 X89.445 Y123.572 E5.89347
G1 X89.131 Y123.069 E5.92305
G1 X88.886 Y122.529 E5.95263
G1 X88.717 Y121.96 E5.98225
G1 X88.626 Y121.375 E6.01178
G1 X88.609 Y120.991 E6.03096
G1 X88.609 Y111.009 E6.52897
G1 X88.649 Y110.417 E6.55857
G1 X88.768 Y109.837 E6.58811
G1 X88.964 Y109.277 E6.61771
G1 X89.234 Y108.749 E6.64729
G1 X89.572 Y108.262 E6.67687
G1 X89.973 Y107.825 E6.70646
G1 X90.428 Y107.445 E6.73603
G0 F3600 X90.365 Y108.007
G1 F1050 X90.815 Y107.665 E6.76423
G1 X91.308 Y107.389 E6.79242
G1 X91.836 Y107.185 E6.82066
G1 X92.386 Y107.058 E6.84882
G1 X93.025 Y107.009 E6.8808
G1 X100.429 Y107.039 E7.25019
G1 X100.993 Y107.081 E7.2784
G1 X101.433 Y107.171 E7.30081
G1 X102.085 Y107.343 E7.33445
G1 X102.833 Y107.623 E7.3743
G1 X103.377 Y107.891 E7.40455
G1 X103.865 Y108.176 E7.43274
G1 X104.146 Y108.386 E7.45025
G1 X104.658 Y108.806 E7.48328
G1 X105.069 Y109.195 E7.51152
G1 X105.358 Y109.549 E7.53432
G1 X105.893 Y110.286 E7.57975
G1 X106.192 Y110.766 E7.60797
G1 X106.362 Y111.132 E7.6281
G1 X106.573 Y111.652 E7.6561
G1 X106.748 Y112.19 E7.68432
G1 X106.825 Y112.576 E7.70396
G1 X106.947 Y113.408 E7.74591
G1 X106.989 Y113.987 E7.77487
G1 X106.991 Y120.99 E8.12425
G1 X106.951 Y121.554 E8.15246
G1 X106.832 Y122.106 E8.18064
G1 X106.637 Y122.637 E8.20886
G1 X106.368 Y123.134 E8.23705
G1 X106.032 Y123.589 E8.26527
G1 X105.636 Y123.992 E8.29346
G1 X105.186 Y124.335 E8.32169
G1 X104.693 Y124.611 E8.34987
G1 X104.166 Y124.815 E8.37807
G1 X103.615 Y124.942 E8.40628
G1 X102.991 Y124.991 E8.43751
G1 X93.009 Y124.991 E8.93551
G1 X92.445 Y124.951 E8.96372
G1 X91.892 Y124.832 E8.99194
G1 X91.362 Y124.636 E9.02013
G1 X90.865 Y124.368 E9.0483
G1 X90.41 Y124.032 E9.07652
G1 X90.007 Y123.635 E9.10474
G1 X89.665 Y123.185 E9.13294
G1 X89.389 Y122.692 E9.16113
G1 X89.185 Y122.164 E9.18937
G1 X89.058 Y121.614 E9.21753
G1 X89.009 Y120.991 E9.24871
G1 X89.009 Y111.009 E9.74671
G1 X89.049 Y110.445 E9.77492
G1 X89.168 Y109.892 E9.80314
G1 X89.364 Y109.362 E9.83133
G1 X89.632 Y108.865 E9.85951
G1 X89.968 Y108.41 E9.88772
G1 X90.365 Y108.007 E9.91595
G0 F3600 X90.756 Y108.201
G1 F1050 X91.198 Y107.898 E9.94268
G1 X91.681 Y107.663 E9.96948
G1 X92.192 Y107.503 E9.99619
G1 X92.722 Y107.42 E10.02296
G1 X93.024 Y107.409 E10.03804
G1 X100.428 Y107.439 E10.40743
G1 X100.962 Y107.481 E10.43415
G1 X101.331 Y107.558 E10.45296
G1 X101.983 Y107.73 E10.4866
G1 X102.656 Y107.982 E10.52245
G1 X103.2 Y108.25 E10.5527
G1 X103.662 Y108.522 E10.57945
G1 X103.892 Y108.696 E10.59384
G1 X104.404 Y109.116 E10.62688
G1 X104.792 Y109.486 E10.65363
G1 X105.034 Y109.784 E10.67278
G1 X105.569 Y110.521 E10.71821
G1 X105.851 Y110.977 E10.74496
G1 X105.992 Y111.282 E10.76173
G1 X106.203 Y111.802 E10.78972
G1 X106.367 Y112.313 E10.8165
G1 X106.429 Y112.634 E10.83281
G1 X106.551 Y113.466 E10.87476
G1 X106.589 Y113.987 E10.90082
G1 X106.591 Y120.99 E11.2502
G1 X106.551 Y121.525 E11.27697
G1 X106.432 Y122.048 E11.30373
G1 X106.237 Y122.547 E11.33046
G1 X105.97 Y123.012 E11.35721
G1 X105.637 Y123.432 E11.38395
G1 X105.245 Y123.798 E11.41071
G1 X104.803 Y124.102 E11.43747
G1 X104.32 Y124.337 E11.46427
G1 X103.809 Y124.497 E11.49098
G1 X103.279 Y124.579 E11.51774
G1 X102.991 Y124.591 E11.53212
G1 X93.009 Y124.591 E12.03012
G1 X92.474 Y124.551 E12.05689
G1 X91.951 Y124.432 E12.08365
G1 X91.452 Y124.237 E12.11038
G1 X90.987 Y123.969 E12.13715
G1 X90.567 Y123.636 E12.1639
G1 X90.201 Y123.244 E12.19065
G1 X89.898 Y122.802 E12.21739
G1 X89.663 Y122.319 E12.24418
G1 X89.503 Y121.808 E12.2709
G1 X89.42 Y121.278 E12.29766
G1 X89.409 Y120.991 E12.31199
G1 X89.409 Y111.009 E12.81
G1 X89.449 Y110.474 E12.83676
G1 X89.568 Y109.951 E12.86352
G1 X89.763 Y109.452 E12.89025
G1 X90.031 Y108.987 E12.91703
G1 X90.364 Y108.567 E12.94377
G1 X90.756 Y108.201 E12.97052
G0 F3600 X91.145 Y108.408
G1 F1050 X91.578 Y108.147 E12.99575
G1 X92.046 Y107.957 E13.02095
G1 X92.539 Y107.844 E13.04618
G1 X93.022 Y107.809 E13.07034
G1 X100.426 Y107.839 E13.43973
G1 X100.93 Y107.881 E13.46496
G1 X101.229 Y107.945 E13.48022
G1 X101.881 Y108.117 E13.51386
G1 X102.479 Y108.34 E13.5457
G1 X103.023 Y108.608 E13.57595
G1 X103.639 Y109.005 E13.61252
G1 X104.151 Y109.425 E13.64555
G1 X104.515 Y109.775 E13.67075
G1 X104.711 Y110.019 E13.68636
G1 X105.246 Y110.756 E13.7318
G1 X105.509 Y111.187 E13.75699
G1 X105.621 Y111.433 E13.77047
G1 X105.832 Y111.953 E13.79847
G1 X105.985 Y112.435 E13.8237
G1 X106.033 Y112.692 E13.83674
G1 X106.155 Y113.524 E13.8787
G1 X106.189 Y113.987 E13.90186
G1 X106.191 Y120.99 E14.25124
G1 X106.151 Y121.494 E14.27646
G1 X106.033 Y121.986 E14.3017
G1 X105.838 Y122.452 E14.32691
G1 X105.572 Y122.882 E14.35213
G1 X105.242 Y123.265 E14.37735
G1 X104.856 Y123.591 E14.40256
G1 X104.423 Y123.853 E14.42781
G1 X103.955 Y124.043 E14.45301
G1 X103.462 Y124.156 E14.47824
G1 X102.991 Y124.191 E14.50181
G1 X93.009 Y124.191 E14.99981
G1 X92.505 Y124.151 E15.02503
G1 X92.014 Y124.032 E15.05024
G1 X91.547 Y123.838 E15.07547
G1 X91.117 Y123.572 E15.10069
G1 X90.734 Y123.242 E15.12592
G1 X90.408 Y122.855 E15.15116
G1 X90.147 Y122.422 E15.17638
G1 X89.957 Y121.954 E15.20158
G1 X89.844 Y121.461 E15.22682
G1 X89.809 Y120.991 E15.25033
G1 X89.809 Y111.009 E15.74834
G1 X89.849 Y110.505 E15.77356
G1 X89.968 Y110.014 E15.79876
G1 X90.162 Y109.547 E15.82399
G1 X90.428 Y109.117 E15.84922
G1 X90.758 Y108.734 E15.87444
G1 X91.145 Y108.408 E15.89969
G1 F1500 E10.89969
G1 F180 Z1.3
G0 F3600 X100.339 Y111.626 Z1.3
;TYPE:WALL-INNER
G1 F180 Z0.3
G1 F1500 E15.89969
G1 F1050 X100.678 Y111.699 E15.91699
G1 X100.991 Y111.815 E15.93364
G1 X101.3 Y111.985 E15.95124
G1 X101.573 Y112.189 E15.96824
G1 X101.811 Y112.427 E15.98503
G1 X102.015 Y112.7 E16.00203
G1 X102.185 Y113.009 E16.01963
G1 X102.301 Y113.322 E16.03628
G1 X102.374 Y113.661 E16.05358
G1 X102.4 Y114.015 E16.07129
G1 X102.4 Y120.4 E16.38984
G1 X93.6 Y120.4 E16.82887
G1 X93.6 Y111.6 E17.26791
G1 X99.985 Y111.6 E17.58646
G1 X100.339 Y111.626 E17.60416
G0 F3600 X100.397 Y111.229
;TYPE:WALL-OUTER
G1 F1050 X100.789 Y111.314 E17.62418
G1 X101.158 Y111.451 E17.64381
G1 X101.516 Y111.647 E17.66418
G1 X101.837 Y111.887 E17.68417
G1 X102.113 Y112.163 E17.70365
G1 X102.353 Y112.484 E17.72364
G1 X102.549 Y112.842 E17.744
G1 X102.686 Y113.211 E17.76364
G1 X102.771 Y113.603 E17.78365
G1 X102.8 Y114 E17.80351
G1 X102.8 Y120.8 E18.14276
G1 X93.2 Y120.8 E18.62171
G1 X93.2 Y111.2 E19.10066
G1 X100 Y111.2 E19.43991
G1 X100.397 Y111.229 E19.45977
G0 F3600 X100.592 Y111.271
G0 X100.486 Y111.759
G0 X100.571 Y112.076
;TYPE:SKIN
G1 F1050 X100.835 Y112.173 E19.4738
G1 X101.085 Y112.311 E19.48805
G1 X101.323 Y112.489 E19.50288
G1 X101.511 Y112.677 E19.51614
G1 X101.689 Y112.915 E19.53097
G1 X101.827 Y113.165 E19.54521
G1 X101.924 Y113.429 E19.55925
G1 X101.988 Y113.729 E19.57455
G1 X102.01 Y114.015 E19.58886
G1 X102.01 Y120.01 E19.88795
G1 X93.99 Y120.01 E20.28807
G1 X93.99 Y111.99 E20.68819
G1 X99.983 Y111.99 E20.98718
G1 X100.272 Y112.012 E21.00164
G1 X100.571 Y112.076 E21.0169
G0 F3600 X100.327 Y112.207
G1 F1050 X101.792 Y113.671 E21.12023
G1 X101.862 Y113.741
G0 F3600 X101.83 Y114.275
G1 F1050 X99.724 Y112.169 E21.26882
G1 X99.654 Y112.099
G0 F3600 X99.158 Y112.169
G1 F1050 X101.83 Y114.841 E21.45734
G1 X101.9 Y114.911
G0 F3600 X101.83 Y115.406
G1 F1050 X98.593 Y112.169 E21.68573
G1 X98.523 Y112.099
G0 F3600 X98.027 Y112.169
G1 F1050 X101.83 Y115.972 E21.95405
G1 X101.9 Y116.042
G0 F3600 X101.83 Y116.538
G1 F1050 X97.461 Y112.169 E22.26231
G1 X97.391 Y112.099
G0 F3600 X96.896 Y112.169
G1 F1050 X101.83 Y117.103 E22.61043
G1 X101.9 Y117.173
G0 F3600 X101.83 Y117.669
G1 F1050 X96.33 Y112.169 E22.99848
G1 X96.26 Y112.099
G0 F3600 X95.764 Y112.169
G1 F1050 X101.83 Y118.235 E23.42647
G1 X101.9 Y118.305
G0 F3600 X101.83 Y118.801
G1 F1050 X95.199 Y112.169 E23.89436
G1 X95.129 Y112.099
G0 F3600 X94.633 Y112.169
G1 F1050 X101.83 Y119.366 E24.40215
G1 X101.9 Y119.436
G0 F3600 X101.727 Y119.829
G1 F1050 X94.169 Y112.271 E24.9354
G1 X94.099 Y112.201
G0 F3600 X94.169 Y112.837
G1 F1050 X101.161 Y119.829 E25.42873
G1 X101.231 Y119.899
G0 F3600 X100.595 Y119.829
G1 F1050 X94.169 Y113.402 E25.88215
G1 X94.099 Y113.332
G0 F3600 X94.169 Y113.968
G1 F1050 X100.03 Y119.829 E26.29568
G1 X100.1 Y119.899
G0 F3600 X99.464 Y119.829
G1 F1050 X94.169 Y114.534 E26.66927
G1 X94.099 Y114.464
G0 F3600 X94.169 Y115.1
G1 F1050 X98.898 Y119.829 E27.00292
G1 X98.968 Y119.899
G0 F3600 X98.333 Y119.829
G1 F1050 X94.169 Y115.665 E27.29672
G1 X94.099 Y115.595
G0 F3600 X94.169 Y116.231
M104 S205
G1 F1050 X97.767 Y119.829 E27.55057
G1 X97.837 Y119.899
G0 F3600 X97.201 Y119.829
G1 F1050 X94.169 Y116.797 E27.7645
G1 X94.099 Y116.727
G0 F3600 X94.169 Y117.362
G1 F1050 X96.636 Y119.829 E27.93856
G1 X96.706 Y119.899
G0 F3600 X96.07 Y119.829
G1 F1050 X94.169 Y117.928 E28.07268
G1 X94.099 Y117.858
G0 F3600 X94.169 Y118.494
G1 F1050 X95.504 Y119.829 E28.16688
G1 X95.574 Y119.899
G0 F3600 X94.938 Y119.829
G1 F1050 X94.169 Y119.059 E28.22117
G1 X94.099 Y118.989
G0 F3600 X94.169 Y119.625
G1 F1050 X94.373 Y119.829 E28.23556
G0 F3600 X100.325 Y111.724
G0 X100.339 Y111.626
;TIME_ELAPSED:48.141938
;LAYER:1
M140 S65
M106 S255
G0 F5400 X100.339 Y111.626 Z0.5
;TYPE:WALL-INNER
G1 F1575 X100.678 Y111.699 E28.2471
G1 X100.991 Y111.815 E28.2582
G1 X101.3 Y111.985 E28.26993
G1 X101.573 Y112.189 E28.28126
G1 X101.811 Y112.427 E28.29246
G1 X102.015 Y112.7 E28.30379
G1 X102.185 Y113.009 E28.31552
G1 X102.301 Y113.322 E28.32663
G1 X102.374 Y113.661 E28.33816
G1 X102.4 Y114.015 E28.34996
G1 X102.4 Y120.4 E28.56233
G1 X93.6 Y120.4 E28.85502
G1 X93.6 Y111.6 E29.14771
G1 X99.985 Y111.6 E29.36008
G1 X100.339 Y111.626 E29.37188
G0 F5400 X100.397 Y111.229
;TYPE:WALL-OUTER
G1 F1050 X100.789 Y111.314 E29.38522
G1 X101.158 Y111.451 E29.39831
G1 X101.516 Y111.647 E29.41189
G1 X101.837 Y111.887 E29.42522
G1 X102.113 Y112.163 E29.4382
G1 X102.353 Y112.484 E29.45153
G1 X102.549 Y112.842 E29.46511
G1 X102.686 Y113.211 E29.4782
G1 X102.771 Y113.603 E29.49154
G1 X102.8 Y114 E29.50478
G1 X102.8 Y120.8 E29.73095
G1 X93.2 Y120.8 E30.05025
G1 X93.2 Y111.2 E30.36954
G1 X100 Y111.2 E30.59571
G1 X100.397 Y111.229 E30.60895
G0 F5400 X100.592 Y111.271
G0 X100.486 Y111.759
G0 X100.571 Y112.076
;TYPE:SKIN
G1 F1050 X100.835 Y112.173 E30.61831
G1 X101.085 Y112.311 E30.6278
G1 X101.323 Y112.489 E30.63769
G1 X101.511 Y112.677 E30.64653
G1 X101.689 Y112.915 E30.65642
G1 X101.827 Y113.165 E30.66591
G1 X101.924 Y113.429 E30.67527
G1 X101.988 Y113.729 E30.68547
G1 X102.01 Y114.015 E30.69501
G1 X102.01 Y120.01 E30.89441
G1 X93.99 Y120.01 E31.16115
G1 X93.99 Y111.99 E31.4279
G1 X99.983 Y111.99 E31.62723
G1 X100.272 Y112.012 E31.63687
G1 X100.571 Y112.076 E31.64704
G0 F5400 X94.17 Y112.304
G0 X94.238 Y112.236
G1 F1050 X94.52 Y112.519 E31.66667
G1 X94.1 Y112.94
G0 F5400 X94.17 Y113.436
G1 F1050 X95.437 Y112.169 E31.72627
G1 X95.507 Y112.099
G0 F5400 X96.003 Y112.169
G1 F1050 X94.17 Y114.001 E31.81246
G1 X94.1 Y114.071
G0 F5400 X94.17 Y114.567
G1 F1050 X96.568 Y112.169 E31.92525
G1 X96.638 Y112.099
G0 F5400 X97.134 Y112.169
G1 F1050 X94.17 Y115.133 E32.06467
G1 X94.1 Y115.203
G0 F5400 X94.17 Y115.698
G1 F1050 X97.7 Y112.169 E32.23069
G1 X97.77 Y112.099
G0 F5400 X98.265 Y112.169
G1 F1050 X94.17 Y116.264 E32.42331
G1 X94.1 Y116.334
G0 F5400 X94.17 Y116.83
G1 F1050 X98.831 Y112.169 E32.64254
G1 X98.901 Y112.099
G0 F5400 X99.397 Y112.169
G1 F1050 X94.17 Y117.395 E32.88838
G1 X94.1 Y117.465
G0 F5400 X94.17 Y117.961
G1 F1050 X99.962 Y112.169 E33.16082
G1 X100.032 Y112.099
G0 F5400 X100.462 Y112.235
G1 F1050 X94.17 Y118.527 E33.45678
G1 X94.1 Y118.597
G0 F5400 X94.17 Y119.093
G1 F1050 X100.867 Y112.396 E33.77178
G1 X100.937 Y112.326
G0 F5400 X101.204 Y112.624
G1 F1050 X94.17 Y119.658 E34.10264
G1 X94.1 Y119.728
G0 F5400 X94.565 Y119.829
G1 F1050 X101.47 Y112.924 E34.42743
G1 X101.54 Y112.854
G0 F5400 X101.677 Y113.282
G1 F1050 X95.131 Y119.829 E34.73536
G1 X95.061 Y119.899
G0 F5400 X95.697 Y119.829
G1 F1050 X101.802 Y113.723 E35.02254
G1 X101.872 Y113.653
G0 F5400 X101.829 Y114.262
G1 F1050 X96.262 Y119.829 E35.2844
G1 X96.192 Y119.899
G0 F5400 X96.828 Y119.829
G1 F1050 X101.829 Y114.827 E35.51965
G1 X101.899 Y114.757
G0 F5400 X101.829 Y115.393
G1 F1050 X97.394 Y119.829 E35.72829
G1 X97.324 Y119.899
G0 F5400 X97.959 Y119.829
G1 F1050 X101.829 Y115.959 E35.91032
G1 X101.899 Y115.889
G0 F5400 X101.829 Y116.524
G1 F1050 X98.525 Y119.829 E36.06575
G1 X98.455 Y119.899
