;FLAVOR:Marlin
;TIME:10920
;Filament used: 7.27416m
;Layer height: 0.2
;Generated with Cura_SteamEngine 3.4.1
M190 S65
M104 S205
M109 S205
M82 ;absolute extrusion mode
G21 ;metric values
G90 ;absolute positioning
M82 ;set extruder to absolute mode
M107 ;start with the fan off
G28 X0 Y0 ;move X/Y to min endstops
G28 Z0 ;move Z to min endstops
G1 Z15.0 F9000 ;move the platform down 15mm
G92 E0 ;zero the extruded length
G1 F200 E3 ;extrude 3mm of feed stock
G92 E0 ;zero the extruded length again
G1 F9000
;Put printing message on LCD screen
M117 Printing...
G92 E0
G1 F1500 E-5
;LAYER_COUNT:111
;LAYER:0
M107
G0 F3600 X41.909 Y30.882 Z0.3
;TYPE:SKIRT
G1 F1500 E0
G1 F1050 X42.239 Y30.499 E0.02522
G1 X42.626 Y30.173 E0.05047
G1 X43.059 Y29.912 E0.07569
G1 X43.527 Y29.722 E0.10089
G1 X44.02 Y29.609 E0.12612
G1 X44.491 Y29.574 E0.14969
G1 X50.827 Y29.575 E0.46579
G1 X51.33 Y29.615 E0.49097
G1 X51.822 Y29.734 E0.51622
G1 X52.288 Y29.929 E0.54142
G1 X52.718 Y30.195 E0.56665
G1 X53.009 Y30.435 E0.58547
G1 X57.367 Y34.501 E0.88282
G1 X61.571 Y37.99 E1.15538
G1 X65.976 Y41.242 E1.42855
G1 X70.574 Y44.25 E1.70267
G1 X163.996 Y98.83 E7.10066
G1 X164.485 Y99.181 E7.13069
G1 X165.196 Y99.801 E7.17775
G1 X165.586 Y100.207 E7.20584
G1 X166.092 Y100.836 E7.24611
G1 X166.398 Y101.29 E7.27343
G1 X166.831 Y102.071 E7.31798
G1 X167.056 Y102.576 E7.34556
G1 X167.326 Y103.356 E7.38674
G1 X167.461 Y103.89 E7.41422
G1 X167.602 Y104.759 E7.45814
G1 X167.643 Y105.27 E7.48372
G1 X167.67 Y147.744 E9.60276
G1 X167.659 Y148.015 E9.61629
G1 X167.587 Y148.867 E9.65894
G1 X167.494 Y149.408 E9.68633
G1 X167.27 Y150.264 E9.73047
G1 X167.104 Y150.742 E9.75572
G1 X166.99 Y150.975 E9.76866
G1 X166.323 Y152.21 E9.83869
G1 X165.923 Y152.788 E9.87376
G1 X165.353 Y153.444 E9.91711
G1 X164.957 Y153.827 E9.9446
G1 X164.302 Y154.36 E9.98673
G1 X163.848 Y154.669 E10.01413
G1 X163.103 Y155.087 E10.05675
G1 X162.591 Y155.318 E10.08477
G1 X161.745 Y155.613 E10.12947
G1 X161.194 Y155.751 E10.15781
G1 X160.321 Y155.89 E10.20191
G1 X159.818 Y155.93 E10.22708
G1 X44.489 Y155.941 E15.98087
G1 X43.985 Y155.901 E16.00609
G1 X43.494 Y155.782 E16.0313
G1 X43.027 Y155.588 E16.05653
G1 X42.597 Y155.322 E16.08175
G1 X42.214 Y154.992 E16.10698
G1 X41.888 Y154.605 E16.13222
G1 X41.627 Y154.173 E16.1574
G1 X41.437 Y153.704 E16.18265
G1 X41.324 Y153.211 E16.20788
G1 X41.289 Y152.741 E16.23139
G1 X41.29 Y32.774 E22.21657
G1 X41.33 Y32.27 E22.2418
G1 X41.449 Y31.779 E22.267
G1 X41.643 Y31.312 E22.29223
G1 X41.909 Y30.882 E22.31746
G1 F1500 E17.31746
G1 F180 Z1.3
G0 F3600 X50.563 Y35.505 Z1.3
;TYPE:WALL-INNER
G1 F180 Z0.3
G1 F1500 E22.31746
G1 F1050 X50.973 Y36.387 E22.36598
G1 X51.529 Y37.185 E22.4145
G1 X52.213 Y37.875 E22.46298
G1 X52.986 Y38.421 E22.51019
G1 X161.691 Y101.833 E28.7888
G1 X162.316 Y102.274 E28.82696
G1 X162.859 Y102.822 E28.86545
G1 X163.295 Y103.447 E28.90347
G1 X163.616 Y104.138 E28.94148
G1 X163.813 Y104.877 E28.97964
G1 X163.88 Y105.648 E29.01825
G1 X163.88 Y147.743 E31.11838
G1 X163.812 Y148.531 E31.15784
G1 X163.614 Y149.267 E31.19586
G1 X163.29 Y149.962 E31.23412
G1 X162.849 Y150.592 E31.27249
G1 X162.309 Y151.131 E31.31055
G1 X161.672 Y151.577 E31.34935
G1 X160.986 Y151.898 E31.38713
G1 X160.242 Y152.097 E31.42555
G1 X159.462 Y152.165 E31.46462
G1 X45.08 Y152.165 E37.17116
G1 X45.08 Y33.365 E43.09811
G1 X50.23 Y33.365 E43.35505
G1 X50.23 Y33.623 E43.36792
G1 X50.313 Y34.566 E43.41515
G1 X50.563 Y35.505 E43.46363
G0 F3600 X50.469 Y35.539
G0 X50.939 Y36.406
G0 X51.499 Y37.21
G0 X52.188 Y37.905
G0 X52.628 Y38.215
G0 X155.113 Y101.117
G0 X155.096 Y101.215
G1 F1050 X154.47 Y101.164 E43.49496
G1 X153.846 Y101.219 E43.52621
G1 X153.24 Y101.384 E43.55755
G1 X152.67 Y101.651 E43.58895
G1 X152.158 Y102.013 E43.62023
G1 X151.715 Y102.456 E43.65149
G1 X151.357 Y102.972 E43.68282
G1 X151.092 Y103.543 E43.71423
G1 X150.931 Y104.149 E43.74551
G1 X150.878 Y104.775 E43.77685
G1 X150.935 Y105.4 E43.80816
G1 X151.099 Y106.005 E43.83944
G1 X151.366 Y106.575 E43.87084
G1 X151.728 Y107.087 E43.90212
G1 X152.173 Y107.53 E43.93345
G1 X152.687 Y107.888 E43.9647
G1 X153.258 Y108.153 E43.99611
G1 X153.865 Y108.314 E44.02744
G1 X154.49 Y108.367 E44.05873
G1 X155.115 Y108.31 E44.09004
G1 X155.721 Y108.146 E44.12136
G1 X156.29 Y107.879 E44.15272
G1 X156.803 Y107.517 E44.18404
G1 X157.246 Y107.072 E44.21537
G1 X157.604 Y106.558 E44.24662
G1 X157.869 Y105.987 E44.27803
G1 X158.03 Y105.38 E44.30936
G1 X158.081 Y104.755 E44.34064
G1 X158.026 Y104.13 E44.37194
G1 X157.862 Y103.525 E44.40322
G1 X157.595 Y102.955 E44.43462
G1 X157.233 Y102.441 E44.46598
G1 X156.787 Y101.999 E44.49731
G1 X156.273 Y101.642 E44.52853
G1 X155.704 Y101.378 E44.55983
G1 X155.096 Y101.215 E44.59123
G0 F3600 X155.113 Y101.117
G0 X156.292 Y101.608
G0 X156.812 Y101.969
G0 X157.263 Y102.416
G0 X157.629 Y102.935
G0 X157.899 Y103.512
G0 X158.065 Y104.123
G0 X158.115 Y104.691
G0 X156.432 Y119.407
G0 X156.398 Y119.5
G1 F1050 X155.454 Y119.248 E44.63998
G1 X154.48 Y119.162 E44.68876
G1 X153.507 Y119.248 E44.73749
G1 X152.564 Y119.5 E44.78619
G1 X151.679 Y119.913 E44.83491
G1 X150.88 Y120.472 E44.88356
G1 X150.188 Y121.164 E44.93239
G1 X149.628 Y121.964 E44.98111
G1 X149.216 Y122.849 E45.02981
G1 X148.963 Y123.791 E45.07847
G1 X148.877 Y124.765 E45.12725
G1 X148.963 Y125.738 E45.17599
G1 X149.216 Y126.681 E45.2247
G1 X149.628 Y127.566 E45.2734
G1 X150.188 Y128.366 E45.32212
G1 X150.88 Y129.057 E45.37091
G1 X151.679 Y129.617 E45.41959
G1 X152.564 Y130.029 E45.46829
G1 X153.507 Y130.282 E45.517
G1 X154.48 Y130.368 E45.56573
G1 X155.454 Y130.282 E45.61451
G1 X156.398 Y130.029 E45.66327
G1 X157.281 Y129.617 E45.71188
G1 X158.081 Y129.057 E45.7606
G1 X158.773 Y128.366 E45.80939
G1 X159.333 Y127.566 E45.85811
G1 X159.745 Y126.681 E45.90681
G1 X159.998 Y125.738 E45.95552
G1 X160.082 Y124.765 E46.00425
G1 X159.998 Y123.791 E46.05302
G1 X159.745 Y122.849 E46.10168
G1 X159.333 Y121.964 E46.15039
G1 X158.773 Y121.164 E46.19911
G1 X158.081 Y120.472 E46.24793
G1 X157.281 Y119.913 E46.29662
G1 X156.398 Y119.5 E46.34525
G0 F3600 X156.432 Y119.407
G0 X157.301 Y119.879
G0 X158.106 Y120.442
G0 X158.803 Y121.139
G0 X159.367 Y121.945
G0 X159.782 Y122.836
G0 X160.037 Y123.785
G0 X160.122 Y124.765
G0 X160.037 Y125.744
G0 X159.965 Y126.013
G0 X155.113 Y141.117
G0 X155.096 Y141.215
G1 F1050 X154.47 Y141.164 E46.37659
G1 X153.846 Y141.219 E46.40784
G1 X153.24 Y141.384 E46.43917
G1 X152.67 Y141.651 E46.47058
G1 X152.158 Y142.013 E46.50186
G1 X151.715 Y142.456 E46.53312
G1 X151.357 Y142.972 E46.56445
G1 X151.092 Y143.543 E46.59586
G1 X150.931 Y144.149 E46.62714
G1 X150.878 Y144.775 E46.65848
G1 X150.935 Y145.4 E46.68979
G1 X151.099 Y146.005 E46.72106
G1 X151.366 Y146.575 E46.75247
G1 X151.728 Y147.087 E46.78375
G1 X152.173 Y147.53 E46.81508
G1 X152.687 Y147.888 E46.84633
G1 X153.258 Y148.153 E46.87773
G1 X153.865 Y148.314 E46.90906
G1 X154.49 Y148.367 E46.94036
G1 X155.115 Y148.31 E46.97167
G1 X155.721 Y148.146 E47.00299
G1 X156.29 Y147.879 E47.03435
G1 X156.803 Y147.517 E47.06567
G1 X157.246 Y147.072 E47.097
G1 X157.604 Y146.558 E47.12825
G1 X157.869 Y145.987 E47.15965
G1 X158.03 Y145.38 E47.19098
G1 X158.081 Y144.755 E47.22227
G1 X158.026 Y144.13 E47.25357
G1 X157.862 Y143.525 E47.28484
G1 X157.595 Y142.955 E47.31625
G1 X157.233 Y142.441 E47.34761
G1 X156.787 Y141.999 E47.37894
G1 X156.273 Y141.642 E47.41016
G1 X155.704 Y141.378 E47.44145
G1 X155.096 Y141.215 E47.47286
G0 F3600 X155.113 Y141.117
G0 X153.839 Y141.18
G0 X140.501 Y145.373
G0 X140.484 Y145.275
G1 F1050 X141.426 Y145.015 E47.52161
G1 X142.306 Y144.599 E47.57017
G1 X143.102 Y144.035 E47.61885
G1 X143.79 Y143.342 E47.66756
G1 X144.345 Y142.54 E47.71622
G1 X144.745 Y141.681 E47.7635
G1 X144.998 Y140.738 E47.81221
G1 X145.08 Y139.791 E47.85963
G1 X145.08 Y103.205 E49.68491
G1 X144.998 Y102.263 E49.73209
G1 X144.747 Y101.323 E49.78063
G1 X144.338 Y100.441 E49.82913
G1 X143.782 Y99.643 E49.87765
G1 X143.098 Y98.953 E49.92613
G1 X142.324 Y98.408 E49.97335
G1 X60.282 Y50.548 E54.712
G1 X59.489 Y50.168 E54.75587
G1 X58.622 Y49.914 E54.80094
G1 X57.726 Y49.802 E54.84599
G1 X56.822 Y49.835 E54.89112
G1 X55.938 Y50.013 E54.93611
G1 X55.091 Y50.331 E54.98124
G1 X54.308 Y50.781 E55.0263
G1 X53.607 Y51.351 E55.07138
G1 X53.006 Y52.027 E55.1165
G1 X52.523 Y52.79 E55.16156
G1 X52.169 Y53.621 E55.20662
G1 X51.951 Y54.497 E55.25166
G1 X51.88 Y55.374 E55.29555
G1 X51.88 Y139.791 E59.50713
G1 X51.963 Y140.738 E59.55456
G1 X52.216 Y141.681 E59.60327
G1 X52.628 Y142.566 E59.65197
G1 X53.188 Y143.366 E59.70069
G1 X53.88 Y144.057 E59.74948
G1 X54.679 Y144.617 E59.79816
G1 X55.564 Y145.029 E59.84686
G1 X56.507 Y145.282 E59.89557
G1 X57.454 Y145.365 E59.943
G1 X139.534 Y145.363 E64.03799
G1 X140.484 Y145.275 E64.08559
G0 F3600 X140.412 Y144.88
;TYPE:WALL-OUTER
G1 F1050 X141.286 Y144.639 E64.13082
G1 X142.103 Y144.252 E64.17592
G1 X142.843 Y143.729 E64.22113
G1 X143.481 Y143.085 E64.26636
G1 X143.997 Y142.34 E64.31157
G1 X144.368 Y141.544 E64.35538
G1 X144.603 Y140.668 E64.40063
G1 X144.68 Y139.774 E64.4454
G1 X144.68 Y103.222 E66.26899
G1 X144.603 Y102.332 E66.31355
G1 X144.37 Y101.46 E66.35858
G1 X143.99 Y100.641 E66.40363
G1 X143.474 Y99.9 E66.44868
G1 X142.839 Y99.26 E66.49366
G1 X142.108 Y98.745 E66.53827
G1 X60.094 Y50.902 E71.27528
G1 X59.345 Y50.543 E71.31671
G1 X58.54 Y50.307 E71.35857
G1 X57.708 Y50.203 E71.4004
G1 X56.869 Y50.234 E71.44228
G1 X56.048 Y50.399 E71.48406
G1 X55.262 Y50.694 E71.52595
G1 X54.535 Y51.112 E71.56779
G1 X53.884 Y51.641 E71.60964
G1 X53.327 Y52.268 E71.65148
G1 X52.878 Y52.977 E71.69335
G1 X52.549 Y53.748 E71.73517
G1 X52.347 Y54.562 E71.77701
G1 X52.28 Y55.39 E71.81845
G1 X52.28 Y139.774 E76.02839
G1 X52.358 Y140.668 E76.07316
G1 X52.593 Y141.544 E76.11841
G1 X52.976 Y142.365 E76.16361
G1 X53.496 Y143.108 E76.20885
G1 X54.138 Y143.749 E76.25411
G1 X54.88 Y144.269 E76.29932
G1 X55.701 Y144.652 E76.34451
G1 X56.577 Y144.887 E76.38976
G1 X57.471 Y144.965 E76.43453
G1 X139.516 Y144.963 E80.52778
G1 X140.412 Y144.88 E80.57267
G0 F3600 X140.604 Y144.827
G0 X140.735 Y145.309
G0 X151.613 Y142.428
G0 X152.023 Y142.714
G1 F1050 X151.705 Y143.172 E80.60049
G1 X151.47 Y143.679 E80.62837
G1 X151.327 Y144.218 E80.65619
G1 X151.28 Y144.774 E80.68403
G1 X151.33 Y145.329 E80.71183
G1 X151.476 Y145.867 E80.73964
G1 X151.713 Y146.373 E80.76751
G1 X152.035 Y146.828 E80.79532
G1 X152.43 Y147.222 E80.82316
G1 X152.887 Y147.54 E80.85093
G1 X153.394 Y147.775 E80.87881
G1 X153.934 Y147.918 E80.90668
G1 X154.489 Y147.965 E80.93447
G1 X155.044 Y147.915 E80.96227
G1 X155.583 Y147.769 E80.99013
G1 X156.088 Y147.532 E81.01796
G1 X156.544 Y147.21 E81.04581
G1 X156.938 Y146.815 E81.07365
G1 X157.256 Y146.358 E81.10142
G1 X157.491 Y145.851 E81.1293
G1 X157.634 Y145.312 E81.15712
G1 X157.68 Y144.756 E81.18496
G1 X157.631 Y144.201 E81.21276
G1 X157.485 Y143.663 E81.24057
G1 X157.248 Y143.157 E81.26844
G1 X156.926 Y142.7 E81.29633
G1 X156.53 Y142.308 E81.32413
G1 X156.073 Y141.99 E81.35191
G1 X155.567 Y141.755 E81.37974
G1 X155.027 Y141.611 E81.40763
G1 X154.471 Y141.565 E81.43546
G1 X153.917 Y141.614 E81.46321
G1 X153.378 Y141.761 E81.49108
G1 X152.872 Y141.998 E81.51896
G1 X152.417 Y142.32 E81.54677
G1 X152.023 Y142.714 E81.57456
G0 F3600 X151.909 Y142.878
G0 X151.499 Y142.592
G0 X159.367 Y127.585
G0 X159.782 Y126.694
G0 X160.037 Y125.744
G0 X160.122 Y124.765
G0 X160.037 Y123.785
G0 X159.782 Y122.836
G0 X159.367 Y121.945
G0 X158.803 Y121.139
G0 X158.106 Y120.442
G0 X157.651 Y120.124
G0 X156.471 Y119.425
G0 X156.26 Y119.877
G1 F1050 X155.384 Y119.643 E81.6198
G1 X154.48 Y119.564 E81.66507
G1 X153.577 Y119.643 E81.7103
G1 X152.701 Y119.877 E81.75553
G1 X151.88 Y120.261 E81.80075
G1 X151.138 Y120.78 E81.84593
G1 X150.496 Y121.422 E81.89122
G1 X149.976 Y122.165 E81.93647
G1 X149.593 Y122.986 E81.98167
G1 X149.358 Y123.861 E82.02687
G1 X149.279 Y124.765 E82.07214
G1 X149.358 Y125.668 E82.11736
G1 X149.593 Y126.544 E82.16261
G1 X149.976 Y127.365 E82.20781
G1 X150.496 Y128.108 E82.25305
G1 X151.138 Y128.749 E82.29832
G1 X151.88 Y129.269 E82.34352
G1 X152.701 Y129.652 E82.38872
G1 X153.577 Y129.887 E82.43397
G1 X154.48 Y129.966 E82.47919
G1 X155.384 Y129.887 E82.52446
G1 X156.26 Y129.652 E82.56971
G1 X157.08 Y129.269 E82.61486
G1 X157.823 Y128.749 E82.66011
G1 X158.465 Y128.108 E82.70537
G1 X158.985 Y127.365 E82.75061
G1 X159.368 Y126.544 E82.79581
G1 X159.603 Y125.668 E82.84106
G1 X159.681 Y124.765 E82.88628
G1 X159.603 Y123.861 E82.93155
G1 X159.368 Y122.986 E82.97675
G1 X158.985 Y122.165 E83.02195
G1 X158.465 Y121.422 E83.06719
G1 X157.823 Y120.78 E83.11249
G1 X157.08 Y120.261 E83.1577
G1 X156.26 Y119.877 E83.20288
G0 F3600 X156.067 Y119.826
G0 X156.196 Y119.344
G0 X151.062 Y106.018
G0 X150.896 Y105.407
G0 X150.838 Y104.775
G0 X150.892 Y104.143
G0 X151.023 Y103.648
G0 X151.613 Y102.428
G0 X152.023 Y102.714
G1 F1050 X151.705 Y103.172 E83.23069
G1 X151.47 Y103.679 E83.25857
G1 X151.327 Y104.218 E83.2864
G1 X151.28 Y104.774 E83.31423
G1 X151.33 Y105.329 E83.34203
G1 X151.476 Y105.867 E83.36985
G1 X151.713 Y106.373 E83.39772
G1 X152.035 Y106.828 E83.42553
G1 X152.43 Y107.222 E83.45337
G1 X152.887 Y107.54 E83.48114
G1 X153.394 Y107.775 E83.50902
G1 X153.934 Y107.918 E83.53689
G1 X154.489 Y107.965 E83.56468
G1 X155.044 Y107.915 E83.59248
G1 X155.583 Y107.769 E83.62034
G1 X156.088 Y107.532 E83.64817
G1 X156.544 Y107.21 E83.67602
G1 X156.938 Y106.815 E83.70386
G1 X157.256 Y106.358 E83.73163
G1 X157.491 Y105.851 E83.75951
G1 X157.634 Y105.312 E83.78733
G1 X157.68 Y104.756 E83.81517
G1 X157.631 Y104.201 E83.84296
G1 X157.485 Y103.663 E83.87078
G1 X157.248 Y103.157 E83.89865
G1 X156.926 Y102.7 E83.92654
G1 X156.53 Y102.308 E83.95434
G1 X156.073 Y101.99 E83.98212
G1 X155.567 Y101.755 E84.00995
G1 X155.027 Y101.611 E84.03783
G1 X154.471 Y101.565 E84.06567
G1 X153.917 Y101.614 E84.09342
G1 X153.378 Y101.761 E84.12129
G1 X152.872 Y101.998 E84.14916
G1 X152.417 Y102.32 E84.17697
G1 X152.023 Y102.714 E84.20477
G0 F3600 X151.909 Y102.878
G0 X151.499 Y102.592
G0 X52.188 Y37.905
G0 X51.499 Y37.21
G0 X51.182 Y36.755
G0 X50.487 Y35.577
G0 X50.94 Y35.368
G1 F1050 X51.321 Y36.187 E84.24984
G1 X51.837 Y36.928 E84.29489
G1 X52.472 Y37.568 E84.33987
G1 X53.203 Y38.084 E84.38451
G1 X161.899 Y101.491 E90.6626
G1 X162.577 Y101.969 E90.70399
G1 X163.167 Y102.564 E90.74579
G1 X163.643 Y103.247 E90.78733
G1 X163.992 Y103.999 E90.82869
G1 X164.208 Y104.808 E90.87046
G1 X164.28 Y105.636 E90.91193
G1 X164.28 Y147.765 E93.01375
G1 X164.208 Y148.597 E93.05542
G1 X163.99 Y149.408 E93.09731
G1 X163.639 Y150.161 E93.13876
G1 X163.156 Y150.851 E93.18078
G1 X162.566 Y151.44 E93.22237
G1 X161.878 Y151.922 E93.26428
G1 X161.122 Y152.275 E93.30591
G1 X160.313 Y152.492 E93.3477
G1 X159.474 Y152.565 E93.38971
G1 X44.68 Y152.565 E99.11681
G1 X44.68 Y32.965 E105.08368
G1 X50.63 Y32.965 E105.38053
G1 X50.63 Y33.606 E105.41251
G1 X50.708 Y34.497 E105.45713
G1 X50.94 Y35.368 E105.5021
G0 F3600 X51.024 Y35.549
G0 X50.571 Y35.759
G0 X50.195 Y35.638
;TYPE:SKIN
G1 F1050 X50.634 Y36.582 E105.55404
G1 X51.228 Y37.436 E105.60594
G1 X51.96 Y38.174 E105.65779
G1 X52.775 Y38.749 E105.70756
G1 X161.487 Y102.166 E111.98659
G1 X162.06 Y102.57 E112.02157
G1 X162.559 Y103.074 E112.05696
G1 X162.958 Y103.646 E112.09175
G1 X163.246 Y104.265 E112.12581
G1 X163.429 Y104.95 E112.16118
G1 X163.49 Y105.648 E112.19614
G1 X163.49 Y147.743 E114.29627
G1 X163.427 Y148.463 E114.33233
G1 X163.248 Y149.131 E114.36683
G1 X162.954 Y149.762 E114.40156
G1 X162.545 Y150.345 E114.43709
G1 X162.062 Y150.827 E114.47113
G1 X161.473 Y151.239 E114.50699
G1 X160.853 Y151.53 E114.54116
G1 X160.169 Y151.713 E114.57649
G1 X159.452 Y151.775 E114.61239
G1 X45.47 Y151.775 E120.29898
G1 X45.47 Y33.755 E126.18702
G1 X49.85 Y33.755 E126.40554
G1 X49.927 Y34.634 E126.44956
G1 X50.195 Y35.638 E126.5014
G0 F3600 X55.831 Y49.637
G1 F1050 X54.924 Y49.977 E126.54973
G1 X54.086 Y50.459 E126.59796
G1 X53.336 Y51.068 E126.64616
G1 X52.694 Y51.791 E126.6944
G1 X52.176 Y52.608 E126.74266
G1 X51.798 Y53.496 E126.79081
G1 X51.565 Y54.434 E126.83903
G1 X51.49 Y55.358 E126.88528
G1 X51.49 Y139.808 E131.09851
