;FLAVOR:Marlin
;TIME:10372
;Filament used: 6.35576m
;Layer height: 0.2
;Generated with Cura_SteamEngine 3.4.1
M190 S67
M104 S205
M109 S205
M82 ;absolute extrusion mode
G21 ;metric values
G90 ;absolute positioning
M82 ;set extruder to absolute mode
M107 ;start with the fan off
G28 X0 Y0 ;move X/Y to min endstops
G28 Z0 ;move Z to min endstops
G1 Z15.0 F9000 ;move the platform down 15mm
G92 E0 ;zero the extruded length
G1 F200 E3 ;extrude 3mm of feed stock
G92 E0 ;zero the extruded length again
G1 F9000
;Put printing message on LCD screen
M117 Printing...
G92 E0
G1 F1500 E-5
;LAYER_COUNT:79
;LAYER:0
M107
G0 F3600 X41.008 Y34.943 Z0.3
;TYPE:SKIRT
G1 F1500 E0
G1 F1050 X41.338 Y34.56 E0.02522
G1 X41.724 Y34.234 E0.05043
G1 X42.157 Y33.972 E0.07568
G1 X42.625 Y33.783 E0.10086
G1 X43.118 Y33.669 E0.1261
G1 X43.59 Y33.634 E0.14972
G1 X47.575 Y33.635 E0.34853
G1 X48.079 Y33.675 E0.37375
G1 X48.57 Y33.794 E0.39896
G1 X49.037 Y33.989 E0.42421
G1 X49.467 Y34.255 E0.44943
G1 X49.849 Y34.585 E0.47462
G1 X50.024 Y34.776 E0.48754
G1 X54.8 Y40.46 E0.85793
G1 X58.578 Y44.402 E1.13034
G1 X60.53 Y46.273 E1.26524
G1 X64.654 Y49.903 E1.53933
G1 X68.978 Y53.295 E1.81351
G1 X73.446 Y56.409 E2.08522
G1 X78.13 Y59.293 E2.35965
G1 X82.95 Y61.898 E2.63299
G1 X85.387 Y63.084 E2.76821
G1 X88.761 Y64.592 E2.95259
G1 X161.784 Y95.598 E6.91053
G1 X162.063 Y95.732 E6.92597
G1 X162.866 Y96.169 E6.97158
G1 X163.298 Y96.452 E6.99735
G1 X163.915 Y96.931 E7.03632
G1 X164.298 Y97.282 E7.06223
G1 X164.842 Y97.868 E7.10213
G1 X165.177 Y98.296 E7.12924
G1 X165.658 Y99.033 E7.17315
G1 X165.907 Y99.494 E7.19929
G1 X166.227 Y100.222 E7.23896
G1 X166.401 Y100.727 E7.26561
G1 X166.606 Y101.539 E7.30739
G1 X166.694 Y102.076 E7.33454
G1 X166.762 Y102.958 E7.37868
G1 X166.771 Y103.207 E7.39111
G1 X166.732 Y142.315 E9.34221
G1 X166.677 Y142.905 E9.37178
G1 X166.514 Y143.769 E9.41564
G1 X166.359 Y144.316 E9.44401
G1 X166.041 Y145.15 E9.48854
G1 X165.792 Y145.661 E9.5169
G1 X165.347 Y146.4 E9.55993
G1 X165.021 Y146.848 E9.58757
G1 X164.45 Y147.505 E9.631
G1 X164.053 Y147.89 E9.65859
G1 X163.392 Y148.427 E9.70108
G1 X162.937 Y148.735 E9.72849
G1 X162.199 Y149.148 E9.77069
G1 X161.69 Y149.378 E9.79855
G1 X160.844 Y149.673 E9.84325
G1 X160.293 Y149.811 E9.87159
G1 X159.42 Y149.95 E9.91569
G1 X158.917 Y149.99 E9.94087
G1 X45.37 Y149.999 E15.60575
G1 X44.866 Y149.959 E15.63097
G1 X44.423 Y149.856 E15.65366
G1 X43.677 Y149.625 E15.69263
G1 X43.208 Y149.438 E15.71782
G1 X42.638 Y149.077 E15.75148
G1 X42.125 Y148.671 E15.78412
G1 X41.755 Y148.327 E15.80932
G1 X41.388 Y147.842 E15.83966
G1 X40.998 Y147.21 E15.87671
G1 X40.767 Y146.761 E15.90191
G1 X40.638 Y146.389 E15.92155
G1 X40.538 Y146.03 E15.94014
G1 X40.442 Y145.533 E15.9654
G1 X40.421 Y145.172 E15.98344
G1 X40.389 Y36.835 E21.38839
G1 X40.429 Y36.331 E21.41362
G1 X40.547 Y35.84 E21.43881
G1 X40.742 Y35.373 E21.46406
G1 X41.008 Y34.943 E21.48928
G1 F1500 E16.48928
G1 F180 Z1.3
G0 F3600 X47.299 Y50.518 Z1.3
;TYPE:WALL-INNER
G1 F180 Z0.3
G1 F1500 E21.48928
G1 F1050 X47.542 Y50.878 E21.51095
G1 X47.836 Y51.195 E21.53252
G1 X48.184 Y51.458 E21.55428
G1 X48.54 Y51.646 E21.57437
G1 X160.272 Y99.073 E27.63009
G1 X160.946 Y99.427 E27.66808
G1 X161.531 Y99.873 E27.70478
G1 X162.029 Y100.407 E27.74121
G1 X162.436 Y101.022 E27.778
G1 X162.735 Y101.693 E27.81465
G1 X162.916 Y102.401 E27.85111
G1 X162.979 Y103.155 E27.88885
G1 X162.979 Y141.813 E29.81751
G1 X162.911 Y142.588 E29.85632
G1 X162.713 Y143.326 E29.89444
G1 X162.389 Y144.022 E29.93275
G1 X161.948 Y144.652 E29.97111
G1 X161.408 Y145.191 E30.00918
G1 X160.771 Y145.637 E30.04797
G1 X160.085 Y145.958 E30.08576
G1 X159.341 Y146.157 E30.12418
G1 X158.561 Y146.225 E30.16324
G1 X45.606 Y146.225 E35.79859
G1 X45.336 Y146.202 E35.81211
G1 X45.102 Y146.139 E35.8242
G1 X44.885 Y146.037 E35.83616
G1 X44.676 Y145.891 E35.84888
G1 X44.513 Y145.728 E35.86038
G1 X44.367 Y145.519 E35.8731
G1 X44.265 Y145.301 E35.88511
G1 X44.202 Y145.066 E35.89725
G1 X44.179 Y144.806 E35.91027
G1 X44.179 Y37.425 E41.26753
G1 X46.979 Y37.425 E41.40722
G1 X46.979 Y49.292 E41.99927
G1 X47.014 Y49.701 E42.01975
G1 X47.124 Y50.12 E42.04136
G1 X47.299 Y50.518 E42.06305
G0 F3600 X47.212 Y50.566
G0 X47.81 Y51.224
G0 X48.386 Y51.594
G0 X153.844 Y101.341
G0 X153.894 Y101.427
G1 F1050 X153.417 Y101.764 E42.09219
G1 X153.006 Y102.178 E42.1213
G1 X152.672 Y102.658 E42.15047
G1 X152.426 Y103.188 E42.17962
G1 X152.276 Y103.754 E42.20883
G1 X152.227 Y104.336 E42.23797
G1 X152.28 Y104.917 E42.26708
G1 X152.434 Y105.481 E42.29625
G1 X152.682 Y106.01 E42.3254
G1 X153.019 Y106.487 E42.35453
G1 X153.433 Y106.899 E42.38367
G1 X153.912 Y107.232 E42.41278
G1 X154.443 Y107.478 E42.44197
G1 X155.008 Y107.628 E42.47114
G1 X155.59 Y107.677 E42.50028
G1 X156.172 Y107.624 E42.52943
G1 X156.736 Y107.47 E42.5586
G1 X157.263 Y107.222 E42.58766
G1 X157.741 Y106.887 E42.61678
G1 X158.153 Y106.472 E42.64596
G1 X158.487 Y105.992 E42.67513
G1 X158.733 Y105.461 E42.70433
G1 X158.883 Y104.895 E42.73354
G1 X158.93 Y104.314 E42.76262
G1 X158.879 Y103.733 E42.79172
G1 X158.725 Y103.168 E42.82093
G1 X158.477 Y102.64 E42.85004
G1 X158.14 Y102.163 E42.87917
G1 X157.726 Y101.751 E42.90831
G1 X157.245 Y101.417 E42.93753
G1 X156.716 Y101.172 E42.96661
G1 X156.15 Y101.022 E42.99583
G1 X155.568 Y100.973 E43.02497
G1 X154.987 Y101.026 E43.05407
G1 X154.424 Y101.18 E43.08319
G1 X153.894 Y101.427 E43.11236
G0 F3600 X153.844 Y101.341
G0 X152.976 Y102.153
G0 X152.638 Y102.639
G0 X152.389 Y103.175
G0 X152.237 Y103.748
G0 X152.187 Y104.336
G0 X152.241 Y104.924
G0 X152.367 Y105.385
G0 X157.531 Y116.467
G0 X157.497 Y116.56
G1 F1050 X156.553 Y116.308 E43.16111
G1 X155.579 Y116.222 E43.20989
G1 X154.606 Y116.308 E43.25862
G1 X153.663 Y116.56 E43.30732
G1 X152.778 Y116.973 E43.35605
G1 X151.978 Y117.533 E43.40476
G1 X151.287 Y118.224 E43.45352
G1 X150.727 Y119.024 E43.50224
G1 X150.315 Y119.909 E43.55094
G1 X150.062 Y120.852 E43.59965
G1 X149.976 Y121.825 E43.64838
G1 X150.062 Y122.798 E43.69712
G1 X150.315 Y123.741 E43.74583
G1 X150.727 Y124.626 E43.79453
G1 X151.287 Y125.426 E43.84325
G1 X151.978 Y126.117 E43.892
G1 X152.778 Y126.677 E43.94072
G1 X153.663 Y127.089 E43.98942
G1 X154.606 Y127.342 E44.03813
G1 X155.579 Y127.428 E44.08687
G1 X156.553 Y127.342 E44.13565
G1 X157.497 Y127.089 E44.18441
G1 X158.38 Y126.677 E44.23302
G1 X159.18 Y126.117 E44.28174
G1 X159.872 Y125.426 E44.33053
G1 X160.432 Y124.626 E44.37925
G1 X160.844 Y123.741 E44.42795
G1 X161.096 Y122.798 E44.47665
G1 X161.182 Y121.825 E44.52538
G1 X161.096 Y120.852 E44.57411
G1 X160.844 Y119.909 E44.62281
G1 X160.432 Y119.024 E44.67151
G1 X159.872 Y118.224 E44.72023
G1 X159.18 Y117.533 E44.76902
G1 X158.38 Y116.973 E44.81774
G1 X157.497 Y116.56 E44.86637
G0 F3600 X157.531 Y116.467
G0 X158.4 Y116.939
G0 X159.205 Y117.503
G0 X159.902 Y118.199
G0 X160.466 Y119.005
G0 X160.881 Y119.896
G0 X161.135 Y120.846
G0 X161.222 Y121.825
G0 X161.135 Y122.804
G0 X160.881 Y123.754
G0 X160.647 Y124.258
G0 X153.844 Y136.341
G0 X153.894 Y136.427
G1 F1050 X153.417 Y136.764 E44.89551
G1 X153.006 Y137.178 E44.92461
G1 X152.672 Y137.658 E44.95379
G1 X152.426 Y138.188 E44.98294
G1 X152.276 Y138.754 E45.01215
G1 X152.227 Y139.336 E45.04129
G1 X152.28 Y139.917 E45.0704
G1 X152.434 Y140.481 E45.09957
G1 X152.682 Y141.01 E45.12871
G1 X153.019 Y141.487 E45.15785
G1 X153.433 Y141.899 E45.18699
G1 X153.912 Y142.232 E45.2161
G1 X154.443 Y142.478 E45.24529
G1 X155.008 Y142.628 E45.27446
G1 X155.59 Y142.677 E45.3036
G1 X156.172 Y142.624 E45.33275
G1 X156.736 Y142.47 E45.36192
G1 X157.263 Y142.222 E45.39098
G1 X157.741 Y141.887 E45.4201
G1 X158.153 Y141.472 E45.44927
G1 X158.487 Y140.992 E45.47845
G1 X158.733 Y140.461 E45.50764
G1 X158.883 Y139.895 E45.53686
G1 X158.93 Y139.314 E45.56594
G1 X158.879 Y138.733 E45.59504
G1 X158.725 Y138.168 E45.62425
G1 X158.477 Y137.64 E45.65336
G1 X158.14 Y137.163 E45.68249
G1 X157.726 Y136.751 E45.71163
G1 X157.245 Y136.417 E45.74085
G1 X156.716 Y136.172 E45.76993
G1 X156.15 Y136.022 E45.79915
G1 X155.568 Y135.973 E45.82828
G1 X154.987 Y136.026 E45.85739
G1 X154.424 Y136.18 E45.88651
G1 X153.894 Y136.427 E45.91568
G0 F3600 X153.844 Y136.341
G0 X146.948 Y137.49
G0 X146.872 Y137.426
G1 F1050 X147.432 Y136.626 E45.9644
G1 X147.844 Y135.741 E46.0131
G1 X148.096 Y134.798 E46.0618
G1 X148.179 Y133.851 E46.10923
G1 X148.179 Y105.009 E47.54816
G1 X148.104 Y104.102 E47.59357
G1 X147.872 Y103.196 E47.64023
G1 X147.493 Y102.342 E47.68684
G1 X146.976 Y101.563 E47.73348
G1 X146.338 Y100.879 E47.78015
G1 X145.595 Y100.313 E47.82675
G1 X144.791 Y99.888 E47.87212
G1 X58.745 Y63.364 E52.5357
G1 X57.895 Y63.084 E52.58035
G1 X56.987 Y62.942 E52.6262
G1 X56.067 Y62.95 E52.6721
G1 X55.16 Y63.11 E52.71805
G1 X54.293 Y63.415 E52.7639
G1 X53.488 Y63.857 E52.80972
G1 X52.765 Y64.426 E52.85562
G1 X52.145 Y65.105 E52.90149
G1 X51.644 Y65.877 E52.94741
G1 X51.277 Y66.721 E52.99332
G1 X51.053 Y67.612 E53.03916
G1 X50.979 Y68.504 E53.08381
G1 X50.979 Y133.851 E56.34399
G1 X51.062 Y134.798 E56.39141
G1 X51.315 Y135.741 E56.44012
G1 X51.727 Y136.626 E56.48883
G1 X52.287 Y137.426 E56.53755
G1 X52.978 Y138.117 E56.5863
G1 X53.778 Y138.677 E56.63502
G1 X54.663 Y139.089 E56.68372
G1 X55.606 Y139.342 E56.73243
G1 X56.553 Y139.425 E56.77986
G1 X142.663 Y139.42 E61.07591
G1 X143.553 Y139.342 E61.12048
G1 X144.497 Y139.089 E61.16924
G1 X145.38 Y138.677 E61.21785
G1 X146.18 Y138.117 E61.26657
G1 X146.872 Y137.426 E61.31536
G0 F3600 X146.564 Y137.168
;TYPE:WALL-OUTER
G1 F1050 X147.084 Y136.425 E61.3606
G1 X147.467 Y135.604 E61.4058
G1 X147.701 Y134.728 E61.45104
G1 X147.779 Y133.834 E61.49581
G1 X147.779 Y105.026 E62.93304
G1 X147.708 Y104.169 E62.97595
G1 X147.493 Y103.328 E63.01925
G1 X147.141 Y102.535 E63.06254
G1 X146.661 Y101.812 E63.10583
G1 X146.069 Y101.177 E63.14915
G1 X145.379 Y100.651 E63.19243
G1 X144.619 Y100.25 E63.2353
G1 X58.604 Y63.739 E67.8972
G1 X57.801 Y63.474 E67.93939
G1 X56.958 Y63.342 E67.98196
G1 X56.104 Y63.35 E68.02457
G1 X55.262 Y63.498 E68.06722
G1 X54.457 Y63.781 E68.10979
G1 X53.709 Y64.192 E68.15237
G1 X53.038 Y64.72 E68.19497
G1 X52.463 Y65.35 E68.23752
G1 X51.998 Y66.067 E68.28016
G1 X51.657 Y66.85 E68.32277
G1 X51.449 Y67.678 E68.36536
G1 X51.379 Y68.521 E68.40756
G1 X51.379 Y133.834 E71.66604
G1 X51.457 Y134.728 E71.71081
G1 X51.692 Y135.604 E71.75606
G1 X52.075 Y136.425 E71.80126
G1 X52.595 Y137.168 E71.8465
G1 X53.236 Y137.809 E71.89173
G1 X53.979 Y138.329 E71.93697
G1 X54.8 Y138.712 E71.98217
G1 X55.676 Y138.947 E72.02742
G1 X56.57 Y139.025 E72.07219
G1 X142.646 Y139.02 E76.36654
G1 X143.483 Y138.947 E76.40846
G1 X144.359 Y138.712 E76.45371
G1 X145.179 Y138.329 E76.49886
G1 X145.922 Y137.809 E76.5441
G1 X146.564 Y137.168 E76.58937
G0 F3600 X146.678 Y137.004
G0 X147.087 Y137.292
G0 X153.809 Y136.366
G0 X154.096 Y136.774
G1 F1050 X153.676 Y137.071 E76.61503
G1 X153.314 Y137.435 E76.64064
G1 X153.02 Y137.858 E76.66634
G1 X152.804 Y138.324 E76.69197
G1 X152.672 Y138.822 E76.71767
G1 X152.629 Y139.335 E76.74335
G1 X152.675 Y139.846 E76.76895
G1 X152.811 Y140.342 E76.79461
G1 X153.029 Y140.808 E76.82028
G1 X153.326 Y141.228 E76.84594
G1 X153.69 Y141.591 E76.87159
G1 X154.112 Y141.884 E76.89722
G1 X154.579 Y142.1 E76.92289
G1 X155.077 Y142.232 E76.94859
G1 X155.589 Y142.275 E76.97422
G1 X156.101 Y142.229 E76.99987
G1 X156.597 Y142.093 E77.02553
G1 X157.062 Y141.875 E77.05115
G1 X157.482 Y141.58 E77.07676
G1 X157.845 Y141.215 E77.10244
G1 X158.139 Y140.792 E77.12814
G1 X158.355 Y140.325 E77.15381
G1 X158.487 Y139.827 E77.17951
G1 X158.529 Y139.315 E77.20514
G1 X158.484 Y138.804 E77.23074
G1 X158.348 Y138.307 E77.25644
G1 X158.13 Y137.842 E77.28207
G1 X157.833 Y137.422 E77.30773
G1 X157.469 Y137.059 E77.33338
G1 X157.046 Y136.765 E77.35908
G1 X156.58 Y136.55 E77.38468
G1 X156.082 Y136.418 E77.41038
G1 X155.569 Y136.375 E77.43607
G1 X155.058 Y136.421 E77.46166
G1 X154.562 Y136.557 E77.48732
G1 X154.096 Y136.774 E77.51297
G0 F3600 X153.933 Y136.889
G0 X153.646 Y136.481
G0 X160.466 Y124.645
G0 X160.881 Y123.754
G0 X161.135 Y122.804
G0 X161.222 Y121.825
G0 X161.135 Y120.846
G0 X160.881 Y119.896
G0 X160.466 Y119.005
G0 X159.902 Y118.199
G0 X159.205 Y117.503
G0 X158.75 Y117.184
G0 X157.57 Y116.485
G0 X157.359 Y116.937
G1 F1050 X156.483 Y116.703 E77.5582
G1 X155.579 Y116.624 E77.60348
G1 X154.676 Y116.703 E77.6487
G1 X153.8 Y116.937 E77.69394
G1 X152.979 Y117.321 E77.73915
G1 X152.236 Y117.841 E77.7844
G1 X151.595 Y118.482 E77.82963
G1 X151.075 Y119.225 E77.87487
G1 X150.692 Y120.046 E77.92007
G1 X150.457 Y120.922 E77.96532
G1 X150.378 Y121.825 E78.01054
G1 X150.457 Y122.728 E78.05576
G1 X150.692 Y123.604 E78.10101
G1 X151.075 Y124.425 E78.14621
G1 X151.595 Y125.168 E78.19145
G1 X152.236 Y125.809 E78.23668
G1 X152.979 Y126.329 E78.28193
G1 X153.8 Y126.712 E78.32712
G1 X154.676 Y126.947 E78.37237
G1 X155.579 Y127.026 E78.4176
G1 X156.483 Y126.947 E78.46287
G1 X157.359 Y126.712 E78.50812
G1 X158.179 Y126.329 E78.55327
G1 X158.922 Y125.809 E78.59851
G1 X159.564 Y125.168 E78.64378
G1 X160.084 Y124.425 E78.68902
G1 X160.467 Y123.604 E78.73422
G1 X160.701 Y122.728 E78.77945
G1 X160.78 Y121.825 E78.82468
G1 X160.701 Y120.922 E78.8699
G1 X160.467 Y120.046 E78.91514
G1 X160.084 Y119.225 E78.96033
G1 X159.564 Y118.482 E79.00558
G1 X158.922 Y117.841 E79.05084
G1 X158.179 Y117.321 E79.09609
G1 X157.359 Y116.937 E79.14126
G0 F3600 X157.166 Y116.886
G0 X157.295 Y116.404
G0 X152.397 Y105.494
G0 X152.241 Y104.924
G0 X152.187 Y104.336
G0 X152.237 Y103.748
G0 X152.389 Y103.175
G0 X152.638 Y102.639
G0 X152.911 Y102.246
G0 X153.809 Y101.366
G0 X154.096 Y101.774
G1 F1050 X153.676 Y102.071 E79.16692
G1 X153.314 Y102.435 E79.19253
G1 X153.02 Y102.858 E79.21823
G1 X152.804 Y103.324 E79.24386
G1 X152.672 Y103.822 E79.26956
G1 X152.629 Y104.335 E79.29525
G1 X152.675 Y104.846 E79.32084
G1 X152.811 Y105.342 E79.3465
G1 X153.029 Y105.808 E79.37217
G1 X153.326 Y106.228 E79.39783
G1 X153.69 Y106.591 E79.42348
G1 X154.112 Y106.884 E79.44911
G1 X154.579 Y107.1 E79.47478
G1 X155.077 Y107.232 E79.50048
G1 X155.589 Y107.275 E79.52612
G1 X156.101 Y107.229 E79.55176
G1 X156.597 Y107.093 E79.57742
G1 X157.062 Y106.875 E79.60304
G1 X157.482 Y106.58 E79.62865
G1 X157.845 Y106.215 E79.65433
G1 X158.139 Y105.792 E79.68003
G1 X158.355 Y105.325 E79.7057
G1 X158.487 Y104.827 E79.73141
G1 X158.529 Y104.315 E79.75704
G1 X158.484 Y103.804 E79.78263
G1 X158.348 Y103.307 E79.80834
G1 X158.13 Y102.842 E79.83396
G1 X157.833 Y102.422 E79.85962
G1 X157.469 Y102.059 E79.88527
G1 X157.046 Y101.765 E79.91097
G1 X156.58 Y101.55 E79.93657
G1 X156.082 Y101.418 E79.96228
G1 X155.569 Y101.375 E79.98796
G1 X155.058 Y101.421 E80.01356
G1 X154.562 Y101.557 E80.03922
G1 X154.096 Y101.774 E80.06486
G0 F3600 X153.933 Y101.889
G0 X153.646 Y101.481
G0 X48.163 Y51.491
G0 X47.964 Y51.34
G0 X47.237 Y50.602
G0 X47.651 Y50.324
G1 F1050 X47.856 Y50.629 E80.0832
G1 X48.105 Y50.897 E80.10145
G1 X48.399 Y51.119 E80.11983
G1 X48.712 Y51.284 E80.13748
G1 X160.446 Y98.712 E86.19332
G1 X161.164 Y99.09 E86.2338
G1 X161.798 Y99.574 E86.27359
G1 X162.347 Y100.162 E86.31373
G1 X162.788 Y100.828 E86.35358
G1 X163.112 Y101.557 E86.39338
G1 X163.313 Y102.34 E86.43371
G1 X163.379 Y103.134 E86.47346
G1 X163.379 Y141.825 E88.40376
G1 X163.306 Y142.657 E88.44543
G1 X163.089 Y143.468 E88.48731
G1 X162.738 Y144.221 E88.52876
G1 X162.255 Y144.911 E88.57078
G1 X161.665 Y145.5 E88.61237
G1 X160.977 Y145.982 E88.65428
G1 X160.221 Y146.335 E88.69591
G1 X159.412 Y146.552 E88.7377
G1 X158.573 Y146.625 E88.77971
G1 X45.584 Y146.625 E94.41676
G1 X45.268 Y146.598 E94.43258
G1 X44.962 Y146.515 E94.4484
G1 X44.683 Y146.385 E94.46375
G1 X44.419 Y146.2 E94.47984
G1 X44.204 Y145.985 E94.49501
G1 X44.019 Y145.721 E94.51109
G1 X43.889 Y145.442 E94.52644
G1 X43.807 Y145.137 E94.5422
G1 X43.779 Y144.818 E94.55818
G1 X43.779 Y37.025 E99.93599
G1 X47.379 Y37.025 E100.1156
G1 X47.379 Y49.275 E100.72675
G1 X47.41 Y49.633 E100.74468
G1 X47.503 Y49.988 E100.76299
G1 X47.651 Y50.324 E100.78131
G0 F3600 X47.762 Y50.49
G0 X47.349 Y50.768
G0 X47.236 Y51.121
;TYPE:SKIN
G1 F1050 X47.573 Y51.486 E100.80609
