;FLAVOR:Marlin
;TIME:564
;Filament used: 0.362916m
;Layer height: 0.2
;Generated with Cura_SteamEngine 3.4.1
M190 S67
M104 S210
M109 S210
M82 ;absolute extrusion mode
G21 ;metric values
G90 ;absolute positioning
M82 ;set extruder to absolute mode
M107 ;start with the fan off
G28 X0 Y0 ;move X/Y to min endstops
G28 Z0 ;move Z to min endstops
G1 Z15.0 F9000 ;move the platform down 15mm
G92 E0 ;zero the extruded length
G1 F200 E3 ;extrude 3mm of feed stock
G92 E0 ;zero the extruded length again
G1 F9000
;Put printing message on LCD screen
M117 Printing...
G92 E0
G1 F1500 E-5
;LAYER_COUNT:20
;LAYER:0
M107
G0 F3600 X90.737 Y83.522 Z0.3
;TYPE:SKIRT
G1 F1500 E0
G1 F1050 X91.982 Y82.215 E0.09006
G1 X92.508 Y81.752 E0.12502
G1 X93.287 Y81.179 E0.17326
G1 X93.671 Y80.929 E0.19612
G1 X94.454 Y80.481 E0.24113
G1 X94.878 Y80.271 E0.26473
G1 X95.769 Y79.893 E0.31302
G1 X96.283 Y79.715 E0.34016
G1 X97.536 Y79.375 E0.40493
G1 X98.262 Y79.248 E0.4417
G1 X99.735 Y79.129 E0.51543
G1 X100.324 Y79.125 E0.54482
G1 X101.28 Y79.189 E0.59262
G1 X101.742 Y79.247 E0.61585
G1 X102.611 Y79.408 E0.65994
G1 X103.055 Y79.517 E0.68275
G1 X103.958 Y79.794 E0.72987
G1 X104.392 Y79.955 E0.75297
G1 X105.233 Y80.324 E0.79878
G1 X105.647 Y80.535 E0.82197
G1 X106.45 Y81.005 E0.86839
G1 X106.902 Y81.313 E0.89567
G1 X107.938 Y82.128 E0.96144
G1 X108.366 Y82.518 E0.99033
G1 X109.005 Y83.191 E1.03663
G1 X109.303 Y83.544 E1.05967
G1 X109.853 Y84.277 E1.10539
G1 X110.108 Y84.661 E1.12839
G1 X110.574 Y85.459 E1.17449
G1 X110.788 Y85.88 E1.19805
G1 X111.166 Y86.749 E1.24533
G1 X111.327 Y87.187 E1.26861
G1 X111.594 Y88.07 E1.31464
G1 X111.701 Y88.513 E1.33737
G1 X111.864 Y89.41 E1.38286
G1 X111.92 Y89.869 E1.40593
G1 X111.98 Y90.805 E1.45272
G1 X111.988 Y91.063 E1.4656
G1 X111.982 Y103.255 E2.07386
G1 X111.924 Y103.933 E2.10781
G1 X111.744 Y104.976 E2.16061
G1 X111.608 Y105.525 E2.18883
G1 X111.465 Y105.903 E2.209
G1 X111.126 Y106.676 E2.25111
G1 X110.863 Y107.176 E2.27929
G1 X110.656 Y107.478 E2.29756
G1 X110.017 Y108.325 E2.35049
G1 X109.646 Y108.751 E2.37867
G1 X109.422 Y108.958 E2.39389
G1 X108.949 Y109.362 E2.42493
G1 X108.441 Y109.731 E2.45625
G1 X107.886 Y110.071 E2.48872
G1 X107.204 Y110.404 E2.52659
G1 X106.446 Y110.689 E2.56699
G1 X105.778 Y110.876 E2.6016
G1 X105.162 Y110.992 E2.63287
G1 X104.441 Y111.061 E2.669
G1 X96.725 Y111.098 E3.05396
G1 X96.526 Y111.094 E3.06389
G1 X95.191 Y111.034 E3.13056
G1 X94.63 Y110.969 E3.15874
G1 X94.307 Y110.894 E3.17528
G1 X93.499 Y110.671 E3.2171
G1 X92.966 Y110.482 E3.24531
G1 X92.697 Y110.353 E3.2602
G1 X91.874 Y109.919 E3.30662
G1 X91.394 Y109.621 E3.3348
G1 X91.112 Y109.397 E3.35277
G1 X90.421 Y108.795 E3.39849
G1 X90.023 Y108.394 E3.42668
G1 X89.763 Y108.06 E3.4478
G1 X89.155 Y107.184 E3.50099
G1 X88.866 Y106.698 E3.5292
G1 X88.707 Y106.337 E3.54888
G1 X88.424 Y105.6 E3.58827
G1 X88.226 Y104.899 E3.62461
G1 X88.103 Y104.239 E3.65811
G1 X88.035 Y103.518 E3.69424
G1 X87.999 Y91.817 E4.27801
G1 X88.008 Y91.535 E4.29208
G1 X88.152 Y89.409 E4.39839
G1 X88.257 Y88.73 E4.43267
G1 X88.487 Y87.788 E4.48105
G1 X88.628 Y87.332 E4.50486
G1 X88.953 Y86.466 E4.55101
G1 X89.137 Y86.049 E4.57375
G1 X89.555 Y85.232 E4.61953
G1 X89.791 Y84.83 E4.64279
G1 X90.308 Y84.057 E4.68918
G1 X90.737 Y83.522 E4.7234
G0 F3600 X91.026 Y83.798
G1 F1050 X92.271 Y82.491 E4.81345
G1 X92.745 Y82.074 E4.84495
G1 X93.524 Y81.501 E4.89319
G1 X93.869 Y81.276 E4.91374
G1 X94.652 Y80.828 E4.95875
G1 X95.034 Y80.639 E4.98001
G1 X95.925 Y80.261 E5.0283
G1 X96.388 Y80.101 E5.05274
G1 X97.641 Y79.761 E5.11751
G1 X98.294 Y79.647 E5.15058
G1 X99.767 Y79.528 E5.22431
G1 X100.297 Y79.524 E5.25075
G1 X101.253 Y79.588 E5.29855
G1 X101.669 Y79.64 E5.31947
G1 X102.538 Y79.801 E5.36356
G1 X102.938 Y79.899 E5.38411
G1 X103.841 Y80.176 E5.43123
G1 X104.231 Y80.321 E5.45199
G1 X105.072 Y80.69 E5.49781
G1 X105.445 Y80.88 E5.51869
G1 X106.248 Y81.35 E5.56511
G1 X106.655 Y81.628 E5.5897
G1 X107.691 Y82.443 E5.65547
G1 X108.076 Y82.793 E5.68142
G1 X108.715 Y83.466 E5.72772
G1 X108.984 Y83.784 E5.7485
G1 X109.534 Y84.517 E5.79422
G1 X109.763 Y84.863 E5.81492
G1 X110.229 Y85.661 E5.86103
G1 X110.421 Y86.04 E5.88222
G1 X110.799 Y86.909 E5.9295
G1 X110.944 Y87.303 E5.95045
G1 X111.211 Y88.186 E5.99647
G1 X111.307 Y88.584 E6.0169
G1 X111.47 Y89.481 E6.06238
G1 X111.521 Y89.895 E6.08319
G1 X111.581 Y90.831 E6.12998
G1 X111.588 Y91.063 E6.14156
G1 X111.582 Y103.255 E6.74983
G1 X111.53 Y103.865 E6.78037
G1 X111.35 Y104.908 E6.83317
G1 X111.219 Y105.428 E6.85993
G1 X111.099 Y105.742 E6.8767
G1 X110.76 Y106.515 E6.91881
G1 X110.509 Y106.989 E6.94557
G1 X110.337 Y107.237 E6.96062
G1 X109.698 Y108.084 E7.01356
G1 X109.162 Y108.653 E7.05256
G1 X108.689 Y109.057 E7.08359
G1 X108.232 Y109.39 E7.1118
G1 X107.677 Y109.73 E7.14427
G1 X107.063 Y110.03 E7.17837
G1 X106.305 Y110.315 E7.21877
G1 X105.704 Y110.483 E7.2499
G1 X105.088 Y110.599 E7.28118
G1 X104.439 Y110.661 E7.3137
G1 X96.723 Y110.698 E7.69866
G1 X96.544 Y110.694 E7.70759
G1 X95.209 Y110.634 E7.77426
G1 X94.677 Y110.57 E7.80099
G1 X94.413 Y110.508 E7.81452
G1 X93.605 Y110.285 E7.85634
G1 X92.884 Y109.999 E7.89504
G1 X92.061 Y109.565 E7.94146
G1 X91.606 Y109.281 E7.96822
G1 X91.375 Y109.095 E7.98301
G1 X90.684 Y108.493 E8.02874
G1 X90.307 Y108.112 E8.05548
G1 X90.092 Y107.832 E8.07309
G1 X89.484 Y106.956 E8.12629
G1 X89.211 Y106.494 E8.15306
G1 X89.08 Y106.193 E8.16944
G1 X88.797 Y105.456 E8.20883
G1 X88.619 Y104.826 E8.24149
G1 X88.496 Y104.166 E8.27498
G1 X88.435 Y103.517 E8.3075
G1 X88.399 Y91.816 E8.89127
G1 X88.407 Y91.562 E8.90395
G1 X88.551 Y89.436 E9.01026
G1 X88.646 Y88.825 E9.04111
G1 X88.876 Y87.883 E9.08948
G1 X89.003 Y87.472 E9.11095
G1 X89.328 Y86.606 E9.15709
G1 X89.493 Y86.231 E9.17753
G1 X89.911 Y85.414 E9.22332
G1 X90.124 Y85.053 E9.24423
G1 X90.641 Y84.28 E9.29063
G1 X91.026 Y83.798 E9.3214
G0 F3600 X91.316 Y84.074
G1 F1050 X92.561 Y82.767 E9.41146
G1 X92.982 Y82.396 E9.43945
G1 X93.761 Y81.823 E9.4877
G1 X94.068 Y81.623 E9.50598
G1 X94.851 Y81.175 E9.55099
G1 X95.19 Y81.007 E9.56986
G1 X96.081 Y80.629 E9.61815
G1 X96.493 Y80.487 E9.63989
G1 X97.746 Y80.147 E9.70466
G1 X98.326 Y80.045 E9.73404
G1 X99.799 Y79.926 E9.80777
G1 X100.271 Y79.923 E9.83132
G1 X101.227 Y79.987 E9.87912
G1 X101.596 Y80.034 E9.89768
G1 X102.465 Y80.195 E9.94177
G1 X102.82 Y80.282 E9.96001
G1 X103.723 Y80.559 E10.00713
G1 X104.071 Y80.688 E10.02565
G1 X104.912 Y81.057 E10.07146
G1 X105.242 Y81.225 E10.08994
G1 X106.045 Y81.695 E10.13636
G1 X106.408 Y81.942 E10.15826
G1 X107.444 Y82.757 E10.22403
G1 X107.786 Y83.069 E10.24712
G1 X108.425 Y83.742 E10.29342
G1 X108.664 Y84.024 E10.31186
G1 X109.214 Y84.757 E10.35758
G1 X109.417 Y85.064 E10.37595
G1 X109.883 Y85.862 E10.42205
G1 X110.054 Y86.2 E10.44095
G1 X110.432 Y87.069 E10.48823
G1 X110.561 Y87.419 E10.50684
G1 X110.828 Y88.302 E10.55286
G1 X110.913 Y88.656 E10.57102
G1 X111.076 Y89.553 E10.61651
G1 X111.121 Y89.92 E10.63495
G1 X111.181 Y90.856 E10.68175
G1 X111.188 Y91.063 E10.69208
G1 X111.182 Y103.255 E11.30034
G1 X111.135 Y103.797 E11.32748
G1 X110.955 Y104.84 E11.38029
G1 X110.83 Y105.33 E11.40552
G1 X110.733 Y105.581 E11.41894
G1 X110.394 Y106.354 E11.46105
G1 X110.018 Y106.996 E11.49817
G1 X109.379 Y107.843 E11.5511
G1 X108.902 Y108.349 E11.5858
G1 X108.429 Y108.753 E11.61683
G1 X108.023 Y109.049 E11.6419
G1 X107.468 Y109.389 E11.67437
G1 X106.922 Y109.655 E11.70467
G1 X106.164 Y109.94 E11.74507
G1 X105.63 Y110.09 E11.77274
G1 X105.014 Y110.206 E11.80402
G1 X104.437 Y110.261 E11.83293
G1 X96.721 Y110.298 E12.21789
G1 X96.562 Y110.295 E12.22583
G1 X95.227 Y110.235 E12.2925
G1 X94.52 Y110.123 E12.32821
G1 X93.712 Y109.9 E12.37003
G1 X93.07 Y109.646 E12.40447
G1 X92.247 Y109.212 E12.45089
G1 X91.638 Y108.794 E12.48774
G1 X90.947 Y108.192 E12.53346
G1 X90.593 Y107.831 E12.55869
G1 X90.42 Y107.604 E12.57293
G1 X89.812 Y106.728 E12.62613
G1 X89.558 Y106.291 E12.65134
G1 X89.454 Y106.05 E12.66444
G1 X89.171 Y105.313 E12.70383
G1 X89.012 Y104.752 E12.73292
G1 X88.889 Y104.092 E12.76641
G1 X88.835 Y103.516 E12.79527
G1 X88.799 Y91.815 E13.37904
G1 X88.806 Y91.589 E13.39032
G1 X88.95 Y89.463 E13.49663
G1 X89.034 Y88.92 E13.52405
G1 X89.264 Y87.978 E13.57242
G1 X89.377 Y87.613 E13.59149
G1 X89.702 Y86.747 E13.63763
G1 X89.849 Y86.413 E13.65584
G1 X90.267 Y85.596 E13.70162
G1 X90.456 Y85.275 E13.72021
G1 X90.973 Y84.502 E13.7666
G1 X91.316 Y84.074 E13.79397
G1 F1500 E8.79397
G1 F180 Z1.3
G0 F3600 X101.284 Y83.812 Z1.3
;TYPE:WALL-INNER
G1 F180 Z0.3
G1 F1500 E13.79397
G1 F1050 X102.121 Y84.01 E13.83688
G1 X102.925 Y84.303 E13.87957
G1 X103.704 Y84.693 E13.92303
G1 X104.413 Y85.16 E13.96539
G1 X105.08 Y85.719 E14.00881
G1 X105.665 Y86.34 E14.05137
G1 X106.18 Y87.031 E14.09437
G1 X106.612 Y87.782 E14.13759
G1 X106.95 Y88.564 E14.18009
G1 X107.198 Y89.391 E14.22317
G1 X107.349 Y90.241 E14.26624
G1 X107.399 Y91.11 E14.30966
G1 X107.399 Y103.079 E14.9068
G1 X107.355 Y103.626 E14.93418
G1 X107.23 Y104.149 E14.96101
G1 X107.027 Y104.639 E14.98747
G1 X106.746 Y105.098 E15.01432
G1 X106.401 Y105.501 E15.04078
G1 X105.999 Y105.845 E15.06718
G1 X105.54 Y106.126 E15.09403
G1 X105.046 Y106.331 E15.12071
G1 X104.53 Y106.455 E15.14719
G1 X103.978 Y106.498 E15.17481
G1 X96.02 Y106.498 E15.57184
G1 X95.467 Y106.455 E15.59951
G1 X94.952 Y106.331 E15.62594
G1 X94.458 Y106.126 E15.65262
G1 X94 Y105.845 E15.67943
G1 X93.596 Y105.501 E15.7059
G1 X93.252 Y105.097 E15.73238
G1 X92.972 Y104.641 E15.75907
G1 X92.767 Y104.148 E15.78571
G1 X92.642 Y103.624 E15.81259
G1 X92.599 Y103.08 E15.83981
G1 X92.599 Y91.11 E16.437
G1 X92.649 Y90.241 E16.48042
G1 X92.799 Y89.391 E16.52349
G1 X93.046 Y88.568 E16.56635
G1 X93.387 Y87.779 E16.60924
G1 X93.821 Y87.027 E16.65255
G1 X94.333 Y86.339 E16.69534
G1 X94.917 Y85.719 E16.73783
G1 X95.579 Y85.164 E16.78093
G1 X96.294 Y84.693 E16.82365
G1 X97.072 Y84.303 E16.86707
G1 X97.876 Y84.01 E16.90976
G1 X98.713 Y83.812 E16.95267
G1 X99.569 Y83.712 E16.99567
G1 X100.429 Y83.712 E17.03857
G1 X101.284 Y83.812 E17.08152
G0 F3600 X101.267 Y83.91
G0 X103.421 Y89.853
G0 X103.702 Y91.098
G0 X103.602 Y91.098
G1 F1050 X103.546 Y90.472 E17.11287
G1 X103.384 Y89.866 E17.14417
G1 X103.119 Y89.297 E17.17548
G1 X102.759 Y88.783 E17.20679
G1 X102.314 Y88.338 E17.23819
G1 X101.8 Y87.978 E17.2695
G1 X101.231 Y87.713 E17.30081
G1 X100.625 Y87.551 E17.33211
G1 X99.999 Y87.495 E17.36346
G1 X99.373 Y87.551 E17.39482
G1 X98.767 Y87.713 E17.42611
G1 X98.198 Y87.978 E17.45743
G1 X97.683 Y88.338 E17.48878
G1 X97.239 Y88.783 E17.52014
G1 X96.879 Y89.297 E17.55145
G1 X96.614 Y89.865 E17.58272
G1 X96.451 Y90.472 E17.61407
G1 X96.397 Y91.098 E17.64542
G1 X96.451 Y91.724 E17.67677
G1 X96.614 Y92.331 E17.70812
G1 X96.879 Y92.899 E17.73939
G1 X97.239 Y93.414 E17.77074
G1 X97.683 Y93.858 E17.80207
G1 X98.198 Y94.218 E17.83342
G1 X98.766 Y94.483 E17.86469
G1 X99.373 Y94.646 E17.89604
G1 X99.999 Y94.7 E17.92739
G1 X100.625 Y94.646 E17.95874
G1 X101.232 Y94.483 E17.99009
G1 X101.8 Y94.218 E18.02136
G1 X102.314 Y93.858 E18.05267
G1 X102.759 Y93.414 E18.08403
G1 X103.119 Y92.899 E18.11538
G1 X103.384 Y92.33 E18.1467
G1 X103.546 Y91.724 E18.17799
G1 X103.602 Y91.098 E18.20935
G0 F3600 X103.702 Y91.098
G0 X103.421 Y89.853
G0 X103.153 Y89.278
G0 X102.789 Y88.758
G0 X102.339 Y88.308
G0 X101.819 Y87.944
G0 X101.244 Y87.676
G0 X100.631 Y87.512
G0 X99.999 Y87.455
G0 X99.367 Y87.512
G0 X98.816 Y87.659
G0 X97.589 Y88.292
G0 X97.941 Y88.646
;TYPE:WALL-OUTER
G1 F1050 X97.547 Y89.041 E18.23718
G1 X97.227 Y89.498 E18.26502
G1 X96.991 Y90.003 E18.29283
G1 X96.846 Y90.542 E18.32067
G1 X96.798 Y91.098 E18.34852
G1 X96.846 Y91.654 E18.37636
G1 X96.991 Y92.193 E18.40421
G1 X97.227 Y92.698 E18.43202
G1 X97.547 Y93.156 E18.45989
G1 X97.941 Y93.55 E18.48769
G1 X98.399 Y93.87 E18.51556
G1 X98.904 Y94.106 E18.54337
G1 X99.443 Y94.251 E18.57122
G1 X99.999 Y94.299 E18.59906
G1 X100.555 Y94.251 E18.6269
G1 X101.094 Y94.106 E18.65475
G1 X101.599 Y93.87 E18.68256
G1 X102.056 Y93.55 E18.71039
G1 X102.451 Y93.156 E18.73823
G1 X102.771 Y92.698 E18.7661
G1 X103.007 Y92.193 E18.79391
G1 X103.151 Y91.654 E18.82175
G1 X103.2 Y91.098 E18.84959
G1 X103.151 Y90.542 E18.87744
G1 X103.007 Y90.003 E18.90527
G1 X102.771 Y89.498 E18.93308
G1 X102.451 Y89.041 E18.96092
G1 X102.056 Y88.646 E18.98879
G1 X101.599 Y88.326 E19.01662
G1 X101.094 Y88.09 E19.04443
G1 X100.555 Y87.946 E19.07226
G1 X99.999 Y87.897 E19.10011
G1 X99.443 Y87.946 E19.12796
G1 X98.904 Y88.09 E19.15579
G1 X98.399 Y88.326 E19.1836
G1 X97.941 Y88.646 E19.21148
G0 F3600 X97.8 Y88.787
G0 X97.447 Y88.434
G0 X101.267 Y83.91
G0 X101.353 Y83.418
G1 F1050 X102.239 Y83.627 E19.25689
G1 X103.084 Y83.935 E19.30176
G1 X103.902 Y84.345 E19.34741
G1 X104.655 Y84.841 E19.3924
G1 X105.351 Y85.424 E19.43769
G1 X105.975 Y86.086 E19.48308
G1 X106.517 Y86.813 E19.52832
G1 X106.967 Y87.595 E19.57333
G1 X107.327 Y88.43 E19.6187
G1 X107.588 Y89.301 E19.66406
G1 X107.746 Y90.19 E19.70911
G1 X107.799 Y91.11 E19.75508
G1 X107.799 Y103.098 E20.35317
G1 X107.752 Y103.687 E20.38265
G1 X107.611 Y104.276 E20.41286
G1 X107.386 Y104.819 E20.44219
G1 X107.07 Y105.334 E20.47233
G1 X106.685 Y105.785 E20.50191
G1 X106.235 Y106.169 E20.53143
G1 X105.72 Y106.485 E20.56157
G1 X105.171 Y106.712 E20.59121
G1 X104.593 Y106.851 E20.62087
G1 X103.996 Y106.898 E20.65075
G1 X96.002 Y106.898 E21.04957
G1 X95.404 Y106.851 E21.07949
G1 X94.827 Y106.712 E21.1091
G1 X94.278 Y106.485 E21.13874
G1 X93.763 Y106.169 E21.16889
G1 X93.312 Y105.785 E21.19844
G1 X92.928 Y105.334 E21.22799
G1 X92.613 Y104.821 E21.25802
G1 X92.386 Y104.273 E21.28762
G1 X92.245 Y103.687 E21.31769
G1 X92.199 Y103.098 E21.34716
G1 X92.199 Y91.11 E21.94525
G1 X92.252 Y90.19 E21.99122
G1 X92.409 Y89.301 E22.03626
G1 X92.67 Y88.43 E22.08162
G1 X93.031 Y87.595 E22.12701
G1 X93.484 Y86.809 E22.17227
G1 X94.023 Y86.085 E22.2173
G1 X94.642 Y85.428 E22.26233
G1 X95.342 Y84.841 E22.30791
G1 X96.096 Y84.345 E22.35294
G1 X96.913 Y83.935 E22.39854
G1 X97.758 Y83.627 E22.44341
G1 X98.644 Y83.418 E22.48883
G1 X99.548 Y83.312 E22.53424
G1 X100.45 Y83.312 E22.57924
G1 X101.353 Y83.418 E22.6246
G0 F3600 X101.547 Y83.463
G0 X101.431 Y83.949
G0 X101.217 Y84.198
;TYPE:SKIN
G1 F1050 X102.018 Y84.387 E22.66566
G1 X102.762 Y84.659 E22.70518
G1 X103.508 Y85.031 E22.74677
G1 X104.185 Y85.477 E22.78722
G1 X104.812 Y86.002 E22.82801
G1 X105.369 Y86.593 E22.86853
G1 X105.848 Y87.237 E22.90857
G1 X106.266 Y87.964 E22.95041
G1 X106.58 Y88.691 E22.98992
G1 X106.818 Y89.485 E23.03127
G1 X106.96 Y90.282 E23.07166
G1 X107.009 Y91.132 E23.11414
G1 X107.009 Y103.079 E23.71018
G1 X106.97 Y103.557 E23.7341
G1 X106.857 Y104.031 E23.75842
G1 X106.678 Y104.461 E23.78165
G1 X106.43 Y104.868 E23.80543
G1 X106.124 Y105.224 E23.82885
G1 X105.769 Y105.529 E23.8522
G1 X105.362 Y105.777 E23.87598
G1 X104.923 Y105.96 E23.89971
G1 X104.466 Y106.069 E23.92315
G1 X103.973 Y106.108 E23.94782
G1 X96.025 Y106.108 E24.34435
G1 X95.531 Y106.069 E24.36907
G1 X95.08 Y105.961 E24.39221
G1 X94.632 Y105.775 E24.41641
G1 X94.23 Y105.528 E24.43995
G1 X93.873 Y105.224 E24.46334
G1 X93.566 Y104.864 E24.48694
G1 X93.321 Y104.465 E24.5103
G1 X93.14 Y104.03 E24.53381
G1 X93.027 Y103.555 E24.55817
G1 X92.989 Y103.08 E24.58194
G1 X92.989 Y91.132 E25.17803
G1 X93.038 Y90.281 E25.22056
G1 X93.179 Y89.485 E25.26089
G1 X93.416 Y88.696 E25.30199
G1 X93.741 Y87.944 E25.34286
G1 X94.151 Y87.234 E25.38376
G1 X94.626 Y86.596 E25.42345
G1 X95.185 Y86.002 E25.46414
G1 X95.807 Y85.481 E25.50462
G1 X96.49 Y85.031 E25.54543
G1 X97.235 Y84.659 E25.58697
G1 X97.979 Y84.387 E25.62649
G1 X98.78 Y84.198 E25.66755
G1 X99.596 Y84.102 E25.70854
G1 X100.402 Y84.102 E25.74875
G1 X101.217 Y84.198 E25.78969
G0 F3600 X100.693 Y87.165
G1 F1050 X99.999 Y87.103 E25.82446
G1 X99.305 Y87.165 E25.85922
G1 X98.633 Y87.345 E25.89393
G1 X98.003 Y87.639 E25.92861
G1 X97.431 Y88.038 E25.96341
G1 X96.939 Y88.532 E25.99819
G1 X96.54 Y89.102 E26.0329
G1 X96.246 Y89.731 E26.06754
G1 X96.065 Y90.404 E26.10231
G1 X96.005 Y91.098 E26.13706
G1 X96.065 Y91.792 E26.17182
G1 X96.246 Y92.465 E26.20659
G1 X96.54 Y93.094 E26.24122
G1 X96.939 Y93.666 E26.27602
