;FLAVOR:Marlin
;TIME:13243
;Filament used: 8.70142m
;Layer height: 0.2
;Generated with Cura_SteamEngine 3.4.1
M190 S65
M104 S210
M109 S210
M82 ;absolute extrusion mode
G21 ;metric values
G90 ;absolute positioning
M82 ;set extruder to absolute mode
M107 ;start with the fan off
G28 X0 Y0 ;move X/Y to min endstops
G28 Z0 ;move Z to min endstops
G1 Z15.0 F9000 ;move the platform down 15mm
G92 E0 ;zero the extruded length
G1 F200 E3 ;extrude 3mm of feed stock
G92 E0 ;zero the extruded length again
G1 F9000
;Put printing message on LCD screen
M117 Printing...
G92 E0
G1 F1500 E-5
;LAYER_COUNT:111
;LAYER:0
M107
G0 F3600 X39.458 Y13.439 Z0.3
;TYPE:SKIRT
G1 F1500 E0
G1 F1050 X41.146 Y8.236 E0.2729
G1 X41.34 Y7.769 E0.29813
G1 X41.604 Y7.339 E0.3233
G1 X41.934 Y6.955 E0.34856
G1 X42.319 Y6.628 E0.37376
G1 X42.751 Y6.366 E0.39897
G1 X43.22 Y6.175 E0.42423
G1 X43.712 Y6.06 E0.44944
G1 X44.191 Y6.024 E0.4734
G1 X50.526 Y6.025 E0.78946
G1 X51.029 Y6.065 E0.81463
G1 X51.521 Y6.184 E0.83989
G1 X51.987 Y6.379 E0.86509
G1 X52.417 Y6.645 E0.89031
G1 X52.8 Y6.975 E0.91554
G1 X53.126 Y7.361 E0.94074
G1 X53.395 Y7.809 E0.96681
G1 X54.894 Y10.846 E1.13578
G1 X57.532 Y15.658 E1.40956
G1 X60.434 Y20.305 E1.6829
G1 X63.584 Y24.767 E1.95539
G1 X66.996 Y29.062 E2.22905
G1 X69.962 Y32.427 E2.45284
G1 X165.629 Y136.154 E9.49275
G1 X165.942 Y136.552 E9.51801
G1 X166.127 Y136.869 E9.53632
G1 X166.712 Y138.015 E9.60051
G1 X166.953 Y138.641 E9.63398
G1 X167.195 Y139.543 E9.68057
G1 X167.297 Y140.158 E9.71167
G1 X167.374 Y141.308 E9.76917
G1 X167.381 Y141.523 E9.77991
G1 X167.372 Y184.176 E11.90787
G1 X167.361 Y184.444 E11.92125
G1 X167.286 Y185.334 E11.96581
G1 X167.192 Y185.879 E11.99341
G1 X166.975 Y186.704 E12.03596
G1 X166.789 Y187.223 E12.06347
G1 X166.431 Y188.004 E12.10633
G1 X166.037 Y188.65 E12.14408
G1 X165.152 Y189.775 E12.2155
G1 X164.651 Y190.282 E12.25106
G1 X163.982 Y190.824 E12.29401
G1 X163.525 Y191.134 E12.32156
G1 X162.776 Y191.551 E12.36433
G1 X162.272 Y191.777 E12.39189
G1 X161.46 Y192.06 E12.43479
G1 X160.91 Y192.198 E12.46308
G1 X160.005 Y192.342 E12.5088
G1 X159.503 Y192.382 E12.53392
G1 X44.191 Y192.405 E18.28686
G1 X43.687 Y192.365 E18.31208
G1 X43.195 Y192.246 E18.33734
G1 X42.729 Y192.052 E18.36252
G1 X42.298 Y191.786 E18.38779
G1 X41.916 Y191.456 E18.41297
G1 X41.589 Y191.07 E18.43821
G1 X41.328 Y190.637 E18.46344
G1 X41.146 Y190.191 E18.48747
G1 X39.468 Y185.008 E18.75926
G1 X38.43 Y182.219 E18.90773
G1 X38.292 Y181.733 E18.93294
G1 X38.232 Y181.242 E18.95762
G1 X38.173 Y179.887 E19.02528
G1 X38.171 Y179.683 E19.03546
G1 X38.219 Y177.303 E19.15422
G1 X38.283 Y176.724 E19.18328
G1 X39.584 Y170.387 E19.50603
G1 X39.994 Y167.778 E19.63779
G1 X40.621 Y162.317 E19.91203
G1 X40.938 Y156.839 E20.18579
G1 X40.981 Y44.404 E25.79519
G1 X40.825 Y38.879 E26.07095
G1 X40.36 Y33.413 E26.34463
G1 X39.59 Y28.013 E26.61676
G1 X38.38 Y22.072 E26.91925
G1 X38.334 Y21.769 E26.93454
G1 X38.188 Y20.388 E27.00382
G1 X38.171 Y19.993 E27.02354
G1 X38.221 Y17.296 E27.15812
G1 X38.27 Y16.793 E27.18334
G1 X38.419 Y16.243 E27.21176
G1 X39.458 Y13.439 E27.36095
G1 F1500 E22.36095
G1 F180 Z1.3
G0 F3600 X41.608 Y17.487 Z1.3
;TYPE:SUPPORT
G1 F180 Z0.3
G1 F1500 E27.36095
G1 F1050 X43.281 Y16.809 E27.45101
G1 X43.281 Y21.635 E27.69178
G1 X41.61 Y20.91 E27.78266
G1 X41.565 Y20.384 E27.80899
G1 X41.608 Y17.487 E27.95354
G1 F1500 E22.95354
G1 F180 Z1.3
G0 F3600 X42.656 Y17.234 Z1.3
G1 F180 Z0.3
G1 F1500 E27.95354
G1 F1050 X42.656 Y21.189 E28.15086
G0 F3600 X42.976 Y21.328
G1 F1050 X43.121 Y21.328 E28.15809
G1 F1500 E23.15809
G1 F180 Z1.3
G0 F3600 X43.121 Y18.662 Z1.3
G1 F180 Z0.3
G1 F1500 E28.15809
G1 F1050 X41.751 Y18.662 E28.22644
G1 F1500 E23.22644
G1 F180 Z1.3
G0 F3600 X43.281 Y176.808 Z1.3
G1 F180 Z0.3
G1 F1500 E28.22644
G1 F1050 X43.281 Y181.63 E28.46701
G1 X41.6 Y180.934 E28.55778
G1 X41.561 Y180.34 E28.58748
G1 X41.606 Y177.486 E28.72988
G1 X43.281 Y176.808 E28.82004
G0 F3600 X42.656 Y177.233
G1 F1050 X42.656 Y181.197 E29.0178
G0 F3600 X42.873 Y181.288
G1 F1050 X43.12 Y181.288 E29.03012
G1 F1500 E24.03012
G1 F180 Z1.3
G0 F3600 X43.12 Y178.622 Z1.3
G1 F180 Z0.3
G1 F1500 E29.03012
G1 F1050 X41.747 Y178.622 E29.09862
G1 F1500 E24.09862
G1 F180 Z1.3
G0 F3600 X140.184 Y181.725 Z1.3
;TYPE:WALL-INNER
G1 F180 Z0.3
G1 F1500 E29.09862
G1 F1050 X141.126 Y181.465 E29.14738
G1 X142.006 Y181.049 E29.19594
G1 X142.803 Y180.485 E29.24465
G1 X143.491 Y179.791 E29.29341
G1 X144.045 Y178.99 E29.34199
G1 X144.446 Y178.131 E29.38929
G1 X144.698 Y177.188 E29.43799
G1 X144.781 Y176.241 E29.48541
G1 X144.781 Y131.276 E31.72873
G1 X144.721 Y130.466 E31.76925
G1 X144.536 Y129.652 E31.81089
G1 X144.232 Y128.874 E31.85257
G1 X143.816 Y128.152 E31.89414
G1 X143.311 Y127.516 E31.93466
G1 X61.278 Y38.647 E37.96851
G1 X60.59 Y38.019 E38.01498
G1 X59.784 Y37.504 E38.0627
G1 X58.901 Y37.133 E38.11048
G1 X57.967 Y36.918 E38.1583
G1 X57.011 Y36.865 E38.20607
G1 X56.06 Y36.976 E38.25383
G1 X55.142 Y37.247 E38.30159
G1 X54.282 Y37.67 E38.3494
G1 X53.508 Y38.234 E38.39718
G1 X52.841 Y38.922 E38.44499
G1 X52.301 Y39.713 E38.49277
G1 X51.904 Y40.584 E38.54053
G1 X51.66 Y41.511 E38.58835
G1 X51.581 Y42.439 E38.63482
G1 X51.581 Y176.241 E45.31022
G1 X51.664 Y177.188 E45.35765
G1 X51.917 Y178.131 E45.40636
G1 X52.329 Y179.016 E45.45507
G1 X52.889 Y179.816 E45.50378
G1 X53.58 Y180.507 E45.55254
G1 X54.38 Y181.067 E45.60126
G1 X55.265 Y181.479 E45.64996
G1 X56.208 Y181.732 E45.69867
G1 X57.155 Y181.815 E45.7461
G1 X139.236 Y181.813 E49.84113
G1 X140.184 Y181.725 E49.88863
G0 F3600 X140.201 Y181.823
G0 X153.559 Y184.803
G0 X154.191 Y184.857
G0 X154.823 Y184.799
G0 X155.434 Y184.633
G0 X156.011 Y184.363
G0 X156.53 Y183.997
G0 X156.976 Y183.547
G0 X157.268 Y183.126
G0 X157.829 Y181.848
G0 X157.731 Y181.831
G1 F1050 X157.782 Y181.205 E49.91997
G1 X157.727 Y180.58 E49.95127
G1 X157.562 Y179.974 E49.9826
G1 X157.295 Y179.405 E50.01396
G1 X156.933 Y178.893 E50.04525
G1 X156.49 Y178.45 E50.0765
G1 X155.974 Y178.092 E50.10783
G1 X155.403 Y177.827 E50.13924
G1 X154.797 Y177.666 E50.17052
G1 X154.171 Y177.613 E50.20187
G1 X153.546 Y177.67 E50.23318
G1 X152.941 Y177.834 E50.26445
G1 X152.371 Y178.101 E50.29585
G1 X151.859 Y178.463 E50.32714
G1 X151.416 Y178.908 E50.35846
G1 X151.058 Y179.422 E50.38971
G1 X150.793 Y179.993 E50.42112
G1 X150.632 Y180.599 E50.4524
G1 X150.579 Y181.225 E50.48374
G1 X150.636 Y181.85 E50.51505
G1 X150.8 Y182.455 E50.54633
G1 X151.067 Y183.025 E50.57773
G1 X151.429 Y183.537 E50.60901
G1 X151.874 Y183.98 E50.64034
G1 X152.388 Y184.338 E50.67159
G1 X152.959 Y184.603 E50.703
G1 X153.565 Y184.764 E50.73428
G1 X154.191 Y184.817 E50.76562
G1 X154.816 Y184.76 E50.79693
G1 X155.421 Y184.596 E50.82821
G1 X155.991 Y184.329 E50.85961
G1 X156.505 Y183.967 E50.89097
G1 X156.946 Y183.522 E50.92223
G1 X157.304 Y183.008 E50.95348
G1 X157.568 Y182.438 E50.98482
G1 X157.731 Y181.831 E51.01618
G0 F3600 X157.829 Y181.848
G0 X157.766 Y180.573
G0 X157.599 Y179.961
G0 X149.295 Y164.035
G0 X148.88 Y163.144
G0 X148.736 Y162.606
G0 X148.478 Y161.215
G0 X148.578 Y161.215
G1 F1050 X148.664 Y162.188 E51.06491
G1 X148.917 Y163.131 E51.11362
G1 X149.329 Y164.016 E51.16232
G1 X149.889 Y164.816 E51.21104
G1 X150.58 Y165.507 E51.25979
G1 X151.38 Y166.067 E51.30851
G1 X152.265 Y166.479 E51.35722
G1 X153.208 Y166.732 E51.40593
G1 X154.181 Y166.818 E51.45466
G1 X155.155 Y166.732 E51.50344
G1 X156.097 Y166.479 E51.5521
G1 X156.982 Y166.067 E51.60081
G1 X157.782 Y165.507 E51.64952
G1 X158.474 Y164.816 E51.69831
G1 X159.033 Y164.016 E51.747
G1 X159.446 Y163.131 E51.79573
G1 X159.698 Y162.188 E51.84443
G1 X159.784 Y161.215 E51.89316
G1 X159.698 Y160.242 E51.94189
G1 X159.446 Y159.299 E51.99059
G1 X159.033 Y158.414 E52.03931
G1 X158.474 Y157.614 E52.088
G1 X157.782 Y156.923 E52.13679
G1 X156.982 Y156.363 E52.18551
G1 X156.097 Y155.951 E52.23421
G1 X155.155 Y155.698 E52.28287
G1 X154.181 Y155.612 E52.33166
G1 X153.208 Y155.698 E52.38039
G1 X152.265 Y155.951 E52.4291
G1 X151.38 Y156.363 E52.4778
G1 X150.58 Y156.923 E52.52652
G1 X149.889 Y157.614 E52.57528
G1 X149.329 Y158.414 E52.62399
G1 X148.917 Y159.299 E52.6727
G1 X148.664 Y160.242 E52.72141
G1 X148.578 Y161.215 E52.77014
G0 F3600 X148.478 Y161.215
G0 X148.625 Y160.236
G0 X148.88 Y159.286
G0 X149.295 Y158.395
G0 X157.605 Y142.451
G0 X157.829 Y141.848
G0 X157.731 Y141.831
G1 F1050 X157.782 Y141.205 E52.80147
G1 X157.727 Y140.58 E52.83278
G1 X157.562 Y139.974 E52.86411
G1 X157.295 Y139.405 E52.89547
G1 X156.933 Y138.893 E52.92675
G1 X156.49 Y138.45 E52.95801
G1 X155.974 Y138.092 E52.98934
G1 X155.403 Y137.827 E53.02075
G1 X154.797 Y137.666 E53.05203
G1 X154.171 Y137.613 E53.08337
G1 X153.546 Y137.67 E53.11468
G1 X152.941 Y137.834 E53.14595
G1 X152.371 Y138.101 E53.17736
G1 X151.859 Y138.463 E53.20864
G1 X151.416 Y138.908 E53.23997
G1 X151.058 Y139.422 E53.27122
G1 X150.793 Y139.993 E53.30262
G1 X150.632 Y140.599 E53.33391
G1 X150.579 Y141.225 E53.36525
G1 X150.636 Y141.85 E53.39656
G1 X150.8 Y142.455 E53.42783
G1 X151.067 Y143.025 E53.45924
G1 X151.429 Y143.537 E53.49052
G1 X151.874 Y143.98 E53.52185
G1 X152.388 Y144.338 E53.5531
G1 X152.959 Y144.603 E53.5845
G1 X153.565 Y144.764 E53.61578
G1 X154.191 Y144.817 E53.64713
G1 X154.816 Y144.76 E53.67844
G1 X155.421 Y144.596 E53.70971
G1 X155.991 Y144.329 E53.74111
G1 X156.505 Y143.967 E53.77248
G1 X156.946 Y143.522 E53.80373
G1 X157.304 Y143.008 E53.83499
G1 X157.568 Y142.438 E53.86632
G1 X157.731 Y141.831 E53.89768
G0 F3600 X157.829 Y141.848
G0 X157.766 Y140.573
G0 X157.599 Y139.961
G0 X157.329 Y139.385
G0 X156.963 Y138.868
G0 X50.863 Y17.307
G0 X50.39 Y16.605
G0 X50.48 Y16.562
G1 F1050 X50.896 Y17.285 E53.9393
G1 X51.401 Y17.921 E53.97981
G1 X162.403 Y138.174 E62.14448
G1 X162.821 Y138.701 E62.17804
G1 X163.148 Y139.271 E62.21083
G1 X163.385 Y139.875 E62.2432
G1 X163.531 Y140.518 E62.27609
G1 X163.581 Y141.187 E62.30956
G1 X163.581 Y184.203 E64.45564
G1 X163.513 Y184.978 E64.49445
G1 X163.315 Y185.719 E64.53272
G1 X162.992 Y186.41 E64.57077
G1 X162.547 Y187.045 E64.60946
G1 X162.011 Y187.581 E64.64727
G1 X161.378 Y188.024 E64.68582
G1 X160.683 Y188.348 E64.72408
G1 X159.943 Y188.547 E64.76231
G1 X159.163 Y188.615 E64.80137
G1 X44.781 Y188.615 E70.50791
G1 X44.781 Y9.815 E79.42828
G1 X49.931 Y9.815 E79.68521
G1 X49.931 Y14.162 E79.90209
G1 X49.992 Y14.972 E79.94261
G1 X50.177 Y15.785 E79.98421
G1 X50.48 Y16.562 E80.02582
G0 F3600 X50.842 Y16.389
;TYPE:WALL-OUTER
G1 F1050 X51.228 Y17.06 E80.06444
G1 X51.705 Y17.661 E80.10272
G1 X162.708 Y137.915 E88.26746
G1 X163.153 Y138.476 E88.30318
G1 X163.508 Y139.095 E88.33878
G1 X163.769 Y139.759 E88.37438
G1 X163.928 Y140.459 E88.41019
G1 X163.981 Y141.17 E88.44576
G1 X163.981 Y184.215 E90.59328
G1 X163.908 Y185.047 E90.63495
G1 X163.692 Y185.856 E90.67673
G1 X163.338 Y186.613 E90.71842
G1 X162.854 Y187.304 E90.76051
G1 X162.27 Y187.888 E90.80171
G1 X161.577 Y188.373 E90.84391
G1 X160.824 Y188.724 E90.88536
G1 X160.014 Y188.942 E90.92721
G1 X159.175 Y189.015 E90.96923
G1 X44.381 Y189.015 E96.69632
G1 X44.381 Y9.415 E105.6566
G1 X50.331 Y9.415 E105.95345
G1 X50.331 Y14.147 E106.18953
G1 X50.389 Y14.912 E106.22781
G1 X50.56 Y15.667 E106.26643
G1 X50.842 Y16.389 E106.3051
G0 F3600 X50.941 Y16.562
G0 X50.508 Y16.809
G0 X51.371 Y17.947
G0 X156.963 Y138.868
G0 X157.259 Y139.286
G0 X157.814 Y140.521
G0 X157.332 Y140.651
G1 F1050 X157.185 Y140.113 E106.33292
G1 X156.948 Y139.607 E106.3608
G1 X156.626 Y139.152 E106.38861
G1 X156.232 Y138.758 E106.41641
G1 X155.774 Y138.44 E106.44422
G1 X155.267 Y138.205 E106.4721
G1 X154.728 Y138.062 E106.49992
G1 X154.172 Y138.015 E106.52776
G1 X153.617 Y138.065 E106.55556
G1 X153.079 Y138.211 E106.58338
G1 X152.573 Y138.448 E106.61125
G1 X152.118 Y138.77 E106.63906
G1 X151.724 Y139.165 E106.6669
G1 X151.406 Y139.622 E106.69467
G1 X151.171 Y140.129 E106.72255
G1 X151.028 Y140.668 E106.75037
G1 X150.981 Y141.224 E106.77821
G1 X151.031 Y141.779 E106.80601
G1 X151.177 Y142.317 E106.83382
G1 X151.414 Y142.823 E106.8617
G1 X151.736 Y143.278 E106.88951
G1 X152.131 Y143.672 E106.91734
G1 X152.588 Y143.99 E106.94512
G1 X153.095 Y144.225 E106.973
G1 X153.634 Y144.368 E107.00082
G1 X154.19 Y144.415 E107.02866
G1 X154.745 Y144.365 E107.05646
G1 X155.283 Y144.219 E107.08427
G1 X155.789 Y143.982 E107.11215
G1 X156.246 Y143.66 E107.14004
G1 X156.638 Y143.265 E107.1678
G1 X156.956 Y142.808 E107.19558
G1 X157.191 Y142.301 E107.22346
G1 X157.335 Y141.762 E107.25129
G1 X157.381 Y141.206 E107.27913
G1 X157.332 Y140.651 E107.30692
G0 F3600 X157.28 Y140.458
G0 X157.762 Y140.328
G0 X159.824 Y161.215
G0 X159.775 Y161.769
G0 X159.521 Y163.205
G0 X159.069 Y162.994
G1 F1050 X159.303 Y162.118 E107.35216
G1 X159.382 Y161.215 E107.39738
G1 X159.303 Y160.312 E107.4426
G1 X159.069 Y159.436 E107.48784
G1 X158.685 Y158.615 E107.53306
G1 X158.166 Y157.872 E107.57828
G1 X157.524 Y157.231 E107.62354
G1 X156.781 Y156.711 E107.66878
G1 X155.96 Y156.328 E107.71398
G1 X155.085 Y156.093 E107.75918
G1 X154.181 Y156.014 E107.80445
G1 X153.278 Y156.093 E107.84968
G1 X152.402 Y156.328 E107.89492
G1 X151.581 Y156.711 E107.94012
G1 X150.838 Y157.231 E107.98537
G1 X150.197 Y157.872 E108.03059
G1 X149.677 Y158.615 E108.07584
G1 X149.294 Y159.436 E108.12104
G1 X149.059 Y160.312 E108.16628
G1 X148.98 Y161.215 E108.21151
G1 X149.059 Y162.118 E108.25673
G1 X149.294 Y162.994 E108.30198
G1 X149.677 Y163.815 E108.34718
G1 X150.197 Y164.558 E108.39242
G1 X150.838 Y165.199 E108.43765
G1 X151.581 Y165.719 E108.48289
G1 X152.402 Y166.102 E108.52809
G1 X153.278 Y166.337 E108.57334
G1 X154.181 Y166.416 E108.61856
G1 X155.085 Y166.337 E108.66384
G1 X155.96 Y166.102 E108.70904
G1 X156.781 Y165.719 E108.75423
G1 X157.524 Y165.199 E108.79948
G1 X158.166 Y164.558 E108.84474
G1 X158.685 Y163.815 E108.88996
G1 X159.069 Y162.994 E108.93518
G0 F3600 X159.12 Y162.801
G0 X159.602 Y162.93
G0 X157.814 Y180.521
G0 X157.332 Y180.651
G1 F1050 X157.185 Y180.113 E108.963
G1 X156.948 Y179.607 E108.99088
G1 X156.626 Y179.152 E109.01869
G1 X156.232 Y178.758 E109.04648
G1 X155.774 Y178.44 E109.0743
G1 X155.267 Y178.205 E109.10218
G1 X154.728 Y178.062 E109.13
G1 X154.172 Y178.015 E109.15784
G1 X153.617 Y178.065 E109.18564
G1 X153.079 Y178.211 E109.21345
G1 X152.573 Y178.448 E109.24133
G1 X152.118 Y178.77 E109.26914
G1 X151.724 Y179.165 E109.29697
G1 X151.406 Y179.622 E109.32475
G1 X151.171 Y180.129 E109.35263
G1 X151.028 Y180.668 E109.38045
G1 X150.981 Y181.224 E109.40829
G1 X151.031 Y181.779 E109.43609
G1 X151.177 Y182.317 E109.4639
G1 X151.414 Y182.823 E109.49178
G1 X151.736 Y183.278 E109.51959
G1 X152.131 Y183.672 E109.54742
G1 X152.588 Y183.99 E109.5752
G1 X153.095 Y184.225 E109.60308
G1 X153.634 Y184.368 E109.6309
G1 X154.19 Y184.415 E109.65874
G1 X154.745 Y184.365 E109.68654
G1 X155.283 Y184.219 E109.71435
G1 X155.789 Y183.982 E109.74222
G1 X156.246 Y183.66 E109.77012
G1 X156.638 Y183.265 E109.79788
G1 X156.956 Y182.808 E109.82566
G1 X157.191 Y182.301 E109.85354
G1 X157.335 Y181.762 E109.88137
G1 X157.381 Y181.206 E109.9092
G1 X157.332 Y180.651 E109.937
G0 F3600 X157.28 Y180.458
G0 X157.762 Y180.328
G0 X157.329 Y179.385
G0 X156.963 Y178.868
G0 X156.515 Y178.42
G0 X155.993 Y178.058
G0 X155.416 Y177.79
G0 X154.803 Y177.627
G0 X154.171 Y177.573
G0 X153.603 Y177.625
G0 X140.243 Y181.812
G0 X140.112 Y181.33
G1 F1050 X140.986 Y181.089 E109.98223
G1 X141.804 Y180.702 E110.02738
G1 X142.544 Y180.179 E110.07259
G1 X143.182 Y179.535 E110.11781
G1 X143.697 Y178.79 E110.163
G1 X144.069 Y177.994 E110.20683
G1 X144.303 Y177.118 E110.25207
G1 X144.381 Y176.224 E110.29684
G1 X144.381 Y131.291 E112.53856
G1 X144.324 Y130.525 E112.57688
G1 X144.153 Y129.77 E112.6155
G1 X143.87 Y129.048 E112.65419
G1 X143.484 Y128.377 E112.69281
G1 X143.007 Y127.776 E112.73109
G1 X60.996 Y38.931 E118.76332
G1 X60.346 Y38.338 E118.80721
G1 X59.597 Y37.859 E118.85157
G1 X58.778 Y37.515 E118.89589
G1 X57.911 Y37.315 E118.94028
G1 X57.023 Y37.266 E118.98465
G1 X56.14 Y37.369 E119.029
G1 X55.288 Y37.621 E119.07332
G1 X54.49 Y38.014 E119.1177
G1 X53.771 Y38.537 E119.16206
G1 X53.152 Y39.176 E119.20645
G1 X52.651 Y39.91 E119.25078
