;FLAVOR:Marlin
;TIME:9118
;Filament used: 5.77773m
;Layer height: 0.2
;Generated with Cura_SteamEngine 3.4.1
M190 S65
M104 S205
M109 S205
M82 ;absolute extrusion mode
G21 ;metric values
G90 ;absolute positioning
M82 ;set extruder to absolute mode
M107 ;start with the fan off
G28 X0 Y0 ;move X/Y to min endstops
G28 Z0 ;move Z to min endstops
G1 Z15.0 F9000 ;move the platform down 15mm
G92 E0 ;zero the extruded length
G1 F200 E3 ;extrude 3mm of feed stock
G92 E0 ;zero the extruded length again
G1 F9000
;Put printing message on LCD screen
M117 Printing...
G92 E0
G1 F1500 E-5
;LAYER_COUNT:99
;LAYER:0
M107
G0 F3600 X51.197 Y29.341 Z0.3
;TYPE:SKIRT
G1 F1500 E0
G1 F1050 X51.463 Y28.911 E0.02523
G1 X51.793 Y28.528 E0.05045
G1 X52.18 Y28.202 E0.07569
G1 X52.613 Y27.941 E0.10092
G1 X53.081 Y27.751 E0.12612
G1 X53.574 Y27.638 E0.15135
G1 X54.045 Y27.603 E0.17491
G1 X58.032 Y27.604 E0.37382
G1 X58.536 Y27.644 E0.39905
G1 X59.027 Y27.763 E0.42425
G1 X59.494 Y27.958 E0.4495
G1 X60.118 Y28.378 E0.48703
G1 X62.772 Y30.661 E0.66169
G1 X67.075 Y34.034 E0.93446
G1 X71.584 Y37.175 E1.20861
G1 X75.878 Y39.831 E1.46051
G1 X173.14 Y96.578 E7.07845
G1 X173.365 Y96.722 E7.09178
G1 X174.072 Y97.218 E7.13486
G1 X174.493 Y97.572 E7.1623
G1 X175.113 Y98.19 E7.20598
G1 X175.474 Y98.618 E7.23391
G1 X175.965 Y99.318 E7.27657
G1 X176.241 Y99.794 E7.30402
G1 X176.615 Y100.589 E7.34785
G1 X176.806 Y101.11 E7.37554
G1 X177.03 Y101.932 E7.41804
G1 X177.13 Y102.482 E7.44593
G1 X177.209 Y103.346 E7.48922
G1 X177.222 Y103.64 E7.5039
G1 X177.187 Y146.284 E9.63142
G1 X177.132 Y146.874 E9.66098
G1 X176.969 Y147.738 E9.70485
G1 X176.814 Y148.285 E9.73321
G1 X176.496 Y149.119 E9.77774
G1 X176.247 Y149.63 E9.8061
G1 X175.802 Y150.369 E9.84914
G1 X175.477 Y150.817 E9.87675
G1 X174.907 Y151.473 E9.92011
G1 X174.511 Y151.856 E9.94759
G1 X173.856 Y152.389 E9.98972
G1 X173.397 Y152.7 E10.01738
G1 X172.633 Y153.127 E10.06105
G1 X172.126 Y153.355 E10.08878
G1 X171.318 Y153.637 E10.13148
G1 X170.768 Y153.776 E10.15978
G1 X169.859 Y153.921 E10.20571
G1 X169.355 Y153.961 E10.23093
G1 X54.043 Y153.97 E15.98387
G1 X53.539 Y153.93 E16.00909
G1 X53.048 Y153.811 E16.0343
G1 X52.581 Y153.617 E16.05953
G1 X52.151 Y153.351 E16.08475
G1 X51.768 Y153.021 E16.10998
G1 X51.442 Y152.634 E16.13522
G1 X51.181 Y152.201 E16.16044
G1 X50.991 Y151.733 E16.18564
G1 X50.878 Y151.24 E16.21088
G1 X50.843 Y150.77 E16.23439
G1 X50.844 Y30.803 E22.21957
G1 X50.884 Y30.299 E22.24479
G1 X51.003 Y29.808 E22.27
G1 X51.197 Y29.341 E22.29523
G1 F1500 E17.29523
G1 F180 Z1.3
G0 F3600 X59.467 Y34.582 Z1.3
;TYPE:WALL-INNER
G1 F180 Z0.3
G1 F1500 E22.29523
G1 F1050 X60.162 Y35.063 E22.33739
G1 X171.245 Y99.862 E28.75335
G1 X171.87 Y100.303 E28.79151
G1 X172.413 Y100.851 E28.83
G1 X172.849 Y101.476 E28.86802
G1 X173.17 Y102.167 E28.90603
G1 X173.367 Y102.906 E28.94419
G1 X173.434 Y103.678 E28.98285
G1 X173.434 Y145.782 E31.08342
G1 X173.366 Y146.557 E31.12224
G1 X173.168 Y147.295 E31.16036
G1 X172.844 Y147.991 E31.19866
G1 X172.403 Y148.621 E31.23703
G1 X171.861 Y149.162 E31.27523
G1 X171.231 Y149.603 E31.3136
G1 X170.536 Y149.927 E31.35185
G1 X169.796 Y150.126 E31.39008
G1 X169.016 Y150.194 E31.42915
G1 X54.634 Y150.194 E37.13569
G1 X54.634 Y31.394 E43.06264
G1 X57.538 Y31.394 E43.20752
G1 X57.6 Y31.714 E43.22379
G1 X57.893 Y32.531 E43.26709
G1 X58.309 Y33.293 E43.3104
G1 X58.838 Y33.982 E43.35374
G1 X59.467 Y34.582 E43.39711
G0 F3600 X59.404 Y34.659
G0 X168.365 Y104.997
G0 X168.863 Y105.406
G0 X168.787 Y105.47
G1 F1050 X168.34 Y105.027 E43.4285
G1 X167.825 Y104.67 E43.45977
G1 X167.254 Y104.405 E43.49117
G1 X166.647 Y104.244 E43.5225
G1 X166.022 Y104.193 E43.55379
G1 X165.397 Y104.249 E43.5851
G1 X164.791 Y104.414 E43.61643
G1 X164.223 Y104.682 E43.64776
G1 X163.711 Y105.043 E43.67902
G1 X163.268 Y105.487 E43.71031
G1 X162.91 Y106.004 E43.74168
G1 X162.645 Y106.574 E43.77304
G1 X162.485 Y107.181 E43.80436
G1 X162.432 Y107.806 E43.83565
G1 X162.49 Y108.431 E43.86697
G1 X162.654 Y109.037 E43.89829
G1 X162.922 Y109.605 E43.92962
G1 X163.283 Y110.117 E43.96088
G1 X163.728 Y110.56 E43.99221
G1 X164.243 Y110.918 E44.0235
G1 X164.814 Y111.183 E44.0549
G1 X165.421 Y111.343 E44.08622
G1 X166.046 Y111.396 E44.11751
G1 X166.671 Y111.338 E44.14883
G1 X167.276 Y111.174 E44.1801
G1 X167.845 Y110.907 E44.21146
G1 X168.358 Y110.545 E44.24278
G1 X168.802 Y110.099 E44.27418
G1 X169.158 Y109.585 E44.30537
G1 X169.423 Y109.014 E44.33678
G1 X169.584 Y108.407 E44.36811
G1 X169.635 Y107.782 E44.3994
G1 X169.579 Y107.157 E44.4307
G1 X169.414 Y106.551 E44.46204
G1 X169.147 Y105.984 E44.4933
G1 X168.787 Y105.47 E44.52461
G0 F3600 X168.863 Y105.406
G0 X169.451 Y106.538
G0 X169.618 Y107.15
G0 X169.675 Y107.782
G0 X169.623 Y108.413
G0 X169.46 Y109.027
G0 X169.309 Y109.353
G0 X162.369 Y120.925
G0 X162.433 Y121.001
G1 F1050 X161.742 Y121.693 E44.5734
G1 X161.182 Y122.493 E44.62212
G1 X160.77 Y123.378 E44.67082
G1 X160.517 Y124.32 E44.71948
G1 X160.431 Y125.294 E44.76827
G1 X160.517 Y126.267 E44.817
G1 X160.77 Y127.21 E44.86571
G1 X161.182 Y128.095 E44.91441
G1 X161.742 Y128.895 E44.96313
G1 X162.433 Y129.586 E45.01188
G1 X163.233 Y130.146 E45.0606
G1 X164.118 Y130.558 E45.10931
G1 X165.061 Y130.811 E45.15802
G1 X166.034 Y130.897 E45.20675
G1 X167.008 Y130.811 E45.25553
G1 X167.95 Y130.558 E45.30419
G1 X168.835 Y130.146 E45.3529
G1 X169.635 Y129.586 E45.40162
G1 X170.327 Y128.895 E45.4504
G1 X170.887 Y128.095 E45.49912
G1 X171.299 Y127.21 E45.54783
G1 X171.551 Y126.267 E45.59652
G1 X171.637 Y125.294 E45.64526
G1 X171.551 Y124.32 E45.69404
G1 X171.299 Y123.378 E45.74269
G1 X170.887 Y122.493 E45.79139
G1 X170.327 Y121.693 E45.84011
G1 X169.635 Y121.001 E45.88893
G1 X168.835 Y120.442 E45.93762
G1 X167.95 Y120.029 E45.98635
G1 X167.008 Y119.777 E46.035
G1 X166.034 Y119.691 E46.08378
G1 X165.061 Y119.777 E46.13251
G1 X164.118 Y120.029 E46.18121
G1 X163.233 Y120.442 E46.22993
G1 X162.433 Y121.001 E46.27862
G0 F3600 X162.369 Y120.925
G0 X161.712 Y121.668
G0 X161.148 Y122.474
G0 X160.733 Y123.365
G0 X160.478 Y124.314
G0 X160.391 Y125.294
G0 X160.478 Y126.273
G0 X160.733 Y127.223
G0 X161.068 Y127.943
G0 X168.863 Y140.406
G0 X168.787 Y140.47
G1 F1050 X168.34 Y140.027 E46.31002
G1 X167.825 Y139.67 E46.34128
G1 X167.254 Y139.405 E46.37269
G1 X166.647 Y139.244 E46.40402
G1 X166.022 Y139.193 E46.4353
G1 X165.397 Y139.249 E46.46661
G1 X164.791 Y139.414 E46.49795
G1 X164.223 Y139.682 E46.52928
G1 X163.711 Y140.043 E46.56053
G1 X163.268 Y140.487 E46.59182
G1 X162.91 Y141.004 E46.6232
G1 X162.645 Y141.574 E46.65456
G1 X162.485 Y142.181 E46.68588
G1 X162.432 Y142.806 E46.71717
G1 X162.49 Y143.431 E46.74849
G1 X162.654 Y144.037 E46.77981
G1 X162.922 Y144.605 E46.81114
G1 X163.283 Y145.117 E46.84239
G1 X163.728 Y145.56 E46.87372
G1 X164.243 Y145.918 E46.90501
G1 X164.814 Y146.183 E46.93642
G1 X165.421 Y146.343 E46.96774
G1 X166.046 Y146.396 E46.99903
G1 X166.671 Y146.338 E47.03034
G1 X167.276 Y146.174 E47.06162
G1 X167.845 Y145.907 E47.09298
G1 X168.358 Y145.545 E47.1243
G1 X168.802 Y145.099 E47.1557
G1 X169.158 Y144.585 E47.18689
G1 X169.423 Y144.014 E47.2183
G1 X169.584 Y143.407 E47.24963
G1 X169.635 Y142.782 E47.28091
G1 X169.579 Y142.157 E47.31222
G1 X169.414 Y141.551 E47.34355
G1 X169.147 Y140.984 E47.37482
G1 X168.787 Y140.47 E47.40613
G0 F3600 X168.863 Y140.406
G0 X167.844 Y139.636
G0 X167.267 Y139.368
G0 X166.653 Y139.205
G0 X166.022 Y139.153
G0 X165.511 Y139.198
G0 X157.403 Y141.459
G0 X157.327 Y141.395
G1 F1050 X157.887 Y140.595 E47.45485
G1 X158.299 Y139.71 E47.50355
G1 X158.551 Y138.767 E47.55225
G1 X158.634 Y137.82 E47.59967
G1 X158.634 Y103.568 E49.30851
G1 X158.552 Y102.625 E49.35574
G1 X158.301 Y101.686 E49.40423
G1 X157.892 Y100.804 E49.45273
G1 X157.336 Y100.005 E49.5013
G1 X156.652 Y99.316 E49.54973
G1 X155.879 Y98.77 E49.59695
G1 X69.836 Y48.577 E54.56666
G1 X69.043 Y48.197 E54.61053
G1 X68.176 Y47.943 E54.6556
G1 X67.28 Y47.831 E54.70065
G1 X66.376 Y47.864 E54.74578
G1 X65.492 Y48.042 E54.79077
G1 X64.645 Y48.36 E54.83591
G1 X63.862 Y48.81 E54.88096
G1 X63.161 Y49.38 E54.92604
G1 X62.561 Y50.055 E54.97109
G1 X62.076 Y50.819 E55.01624
G1 X61.722 Y51.65 E55.06131
G1 X61.505 Y52.526 E55.10633
G1 X61.434 Y53.403 E55.15023
G1 X61.434 Y137.82 E59.36181
G1 X61.517 Y138.767 E59.40924
G1 X61.77 Y139.71 E59.45795
G1 X62.182 Y140.595 E59.50665
G1 X62.742 Y141.395 E59.55537
G1 X63.433 Y142.086 E59.60412
G1 X64.233 Y142.646 E59.65284
G1 X65.118 Y143.058 E59.70154
G1 X66.061 Y143.311 E59.75025
G1 X67.008 Y143.394 E59.79768
G1 X153.103 Y143.39 E64.09298
G1 X154.008 Y143.311 E64.1383
G1 X154.95 Y143.058 E64.18696
G1 X155.835 Y142.646 E64.23567
G1 X156.635 Y142.086 E64.28438
G1 X157.327 Y141.395 E64.33317
G0 F3600 X157.403 Y141.459
G0 X156.66 Y142.116
G0 X155.854 Y142.68
G0 X155.35 Y142.914
G0 X154.065 Y143.399
G0 X153.938 Y142.916
;TYPE:WALL-OUTER
G1 F1050 X154.813 Y142.681 E64.37837
G1 X155.634 Y142.298 E64.42357
G1 X156.377 Y141.778 E64.46882
G1 X157.019 Y141.137 E64.51408
G1 X157.539 Y140.394 E64.55932
G1 X157.922 Y139.573 E64.60452
G1 X158.156 Y138.697 E64.64976
G1 X158.234 Y137.803 E64.69453
G1 X158.234 Y103.585 E66.40167
G1 X158.157 Y102.694 E66.44629
G1 X157.924 Y101.823 E66.49127
G1 X157.544 Y101.004 E66.53632
G1 X157.028 Y100.262 E66.58141
G1 X156.393 Y99.623 E66.62635
G1 X155.662 Y99.107 E66.67099
G1 X69.648 Y48.931 E71.63902
G1 X68.899 Y48.572 E71.68046
G1 X68.094 Y48.336 E71.72231
G1 X67.262 Y48.232 E71.76414
G1 X66.423 Y48.263 E71.80603
G1 X65.602 Y48.428 E71.84781
G1 X64.816 Y48.723 E71.88969
G1 X64.089 Y49.141 E71.93153
G1 X63.438 Y49.67 E71.97338
G1 X62.881 Y50.297 E72.01522
G1 X62.431 Y51.006 E72.05712
G1 X62.103 Y51.777 E72.09892
G1 X61.901 Y52.591 E72.14076
G1 X61.834 Y53.419 E72.18221
G1 X61.834 Y137.803 E76.39214
G1 X61.912 Y138.697 E76.43691
G1 X62.147 Y139.573 E76.48216
G1 X62.53 Y140.394 E76.52736
G1 X63.05 Y141.137 E76.5726
G1 X63.691 Y141.778 E76.61783
G1 X64.434 Y142.298 E76.66307
G1 X65.255 Y142.681 E76.70827
G1 X66.131 Y142.916 E76.75352
G1 X67.025 Y142.994 E76.79829
G1 X153.086 Y142.99 E81.09189
G1 X153.938 Y142.916 E81.13456
G0 F3600 X154.131 Y142.865
G0 X154.259 Y143.347
G0 X163.167 Y140.458
G0 X163.576 Y140.744
G1 F1050 X163.258 Y141.203 E81.16242
G1 X163.023 Y141.71 E81.1903
G1 X162.881 Y142.249 E81.21811
G1 X162.834 Y142.805 E81.24594
G1 X162.885 Y143.36 E81.27375
G1 X163.031 Y143.898 E81.30156
G1 X163.269 Y144.403 E81.32941
G1 X163.59 Y144.858 E81.35719
G1 X163.985 Y145.252 E81.38503
G1 X164.443 Y145.57 E81.41285
G1 X164.95 Y145.805 E81.44073
G1 X165.489 Y145.947 E81.46853
G1 X166.045 Y145.994 E81.49637
G1 X166.6 Y145.943 E81.52418
G1 X167.138 Y145.797 E81.55199
G1 X167.643 Y145.56 E81.57982
G1 X168.099 Y145.238 E81.60767
G1 X168.493 Y144.842 E81.63554
G1 X168.81 Y144.385 E81.66329
G1 X169.045 Y143.878 E81.69117
G1 X169.188 Y143.339 E81.71899
G1 X169.234 Y142.783 E81.74682
G1 X169.184 Y142.228 E81.77462
G1 X169.037 Y141.69 E81.80245
G1 X168.8 Y141.185 E81.83028
G1 X168.48 Y140.729 E81.85807
G1 X168.083 Y140.336 E81.88594
G1 X167.625 Y140.018 E81.91376
G1 X167.118 Y139.783 E81.94164
G1 X166.579 Y139.64 E81.96946
G1 X166.023 Y139.594 E81.99729
G1 X165.468 Y139.644 E82.02509
G1 X164.93 Y139.791 E82.05292
G1 X164.425 Y140.029 E82.08077
G1 X163.97 Y140.35 E82.10855
G1 X163.576 Y140.744 E82.13635
G0 F3600 X163.463 Y140.908
G0 X163.053 Y140.623
G0 X160.478 Y126.273
G0 X160.391 Y125.294
G0 X160.478 Y124.314
G0 X160.733 Y123.365
G0 X161.148 Y122.474
G0 X161.712 Y121.668
G0 X162.408 Y120.971
G0 X162.864 Y120.653
G0 X164.045 Y119.953
G0 X164.255 Y120.406
G1 F1050 X163.434 Y120.79 E82.18157
G1 X162.691 Y121.309 E82.22679
G1 X162.05 Y121.951 E82.27205
G1 X161.53 Y122.694 E82.31729
G1 X161.147 Y123.515 E82.36249
G1 X160.912 Y124.39 E82.40769
G1 X160.833 Y125.294 E82.45296
G1 X160.912 Y126.197 E82.49819
G1 X161.147 Y127.073 E82.54344
G1 X161.53 Y127.894 E82.58863
G1 X162.05 Y128.637 E82.63388
G1 X162.691 Y129.278 E82.6791
G1 X163.434 Y129.798 E82.72435
G1 X164.255 Y130.181 E82.76955
G1 X165.131 Y130.416 E82.8148
G1 X166.034 Y130.495 E82.86002
G1 X166.938 Y130.416 E82.90529
G1 X167.813 Y130.181 E82.95049
G1 X168.634 Y129.798 E82.99569
G1 X169.377 Y129.278 E83.04093
G1 X170.019 Y128.637 E83.0862
G1 X170.539 Y127.894 E83.13144
G1 X170.922 Y127.073 E83.17664
G1 X171.156 Y126.197 E83.22187
G1 X171.235 Y125.294 E83.2671
G1 X171.156 Y124.39 E83.31237
G1 X170.922 Y123.515 E83.35756
G1 X170.539 Y122.694 E83.40276
G1 X170.019 Y121.951 E83.448
G1 X169.377 Y121.309 E83.4933
G1 X168.634 Y120.79 E83.53851
G1 X167.813 Y120.406 E83.58373
G1 X166.938 Y120.172 E83.62892
G1 X166.034 Y120.093 E83.67419
G1 X165.131 Y120.172 E83.71942
G1 X164.255 Y120.406 E83.76465
G0 F3600 X164.074 Y120.49
G0 X163.864 Y120.038
G0 X162.392 Y107.806
G0 X162.446 Y107.175
G0 X162.576 Y106.679
G0 X163.167 Y105.458
G0 X163.576 Y105.744
G1 F1050 X163.258 Y106.203 E83.79251
G1 X163.023 Y106.71 E83.82039
G1 X162.881 Y107.249 E83.8482
G1 X162.834 Y107.805 E83.87604
G1 X162.885 Y108.36 E83.90384
G1 X163.031 Y108.898 E83.93165
G1 X163.269 Y109.403 E83.95951
G1 X163.59 Y109.858 E83.98729
G1 X163.985 Y110.252 E84.01512
G1 X164.443 Y110.57 E84.04294
G1 X164.95 Y110.805 E84.07082
G1 X165.489 Y110.947 E84.09863
G1 X166.045 Y110.994 E84.12646
G1 X166.6 Y110.943 E84.15427
G1 X167.138 Y110.797 E84.18208
G1 X167.643 Y110.56 E84.20991
G1 X168.099 Y110.238 E84.23776
G1 X168.493 Y109.842 E84.26563
G1 X168.81 Y109.385 E84.29338
G1 X169.045 Y108.878 E84.32126
G1 X169.188 Y108.339 E84.34908
G1 X169.234 Y107.783 E84.37691
G1 X169.184 Y107.228 E84.40472
G1 X169.037 Y106.69 E84.43254
G1 X168.8 Y106.185 E84.46037
G1 X168.48 Y105.729 E84.48816
G1 X168.083 Y105.336 E84.51603
G1 X167.625 Y105.018 E84.54385
G1 X167.118 Y104.783 E84.57173
G1 X166.579 Y104.64 E84.59955
G1 X166.023 Y104.594 E84.62739
G1 X165.468 Y104.644 E84.65519
G1 X164.93 Y104.791 E84.68301
G1 X164.425 Y105.029 E84.71086
G1 X163.97 Y105.35 E84.73864
G1 X163.576 Y105.744 E84.76644
G0 F3600 X163.463 Y105.908
G0 X163.053 Y105.623
G0 X156.677 Y99.286
G0 X59.436 Y34.681
G0 X59.72 Y34.271
G1 F1050 X60.377 Y34.725 E84.80629
G1 X171.453 Y99.52 E91.22184
G1 X172.131 Y99.998 E91.26323
G1 X172.721 Y100.593 E91.30503
G1 X173.197 Y101.276 E91.34656
G1 X173.546 Y102.028 E91.38792
G1 X173.762 Y102.837 E91.4297
G1 X173.834 Y103.666 E91.47121
G1 X173.834 Y145.794 E93.57299
G1 X173.761 Y146.626 E93.61466
G1 X173.544 Y147.437 E93.65654
G1 X173.193 Y148.19 E93.69799
G1 X172.71 Y148.88 E93.74001
G1 X172.12 Y149.469 E93.7816
G1 X171.43 Y149.952 E93.82362
G1 X170.677 Y150.303 E93.86507
G1 X169.867 Y150.521 E93.90692
G1 X169.028 Y150.594 E93.94894
G1 X54.234 Y150.594 E99.67603
G1 X54.234 Y30.994 E105.6429
G1 X57.869 Y30.994 E105.82425
G1 X57.987 Y31.608 E105.85544
G1 X58.259 Y32.367 E105.89567
G1 X58.645 Y33.074 E105.93585
G1 X59.136 Y33.714 E105.9761
G1 X59.72 Y34.271 E106.01636
G0 F3600 X59.884 Y34.384
G0 X59.6 Y34.794
G0 X59.22 Y34.886
;TYPE:SKIN
G1 F1050 X59.953 Y35.392 E106.0608
G1 X171.041 Y100.195 E112.47707
G1 X171.614 Y100.599 E112.51205
G1 X172.113 Y101.103 E112.54743
G1 X172.512 Y101.675 E112.58223
G1 X172.8 Y102.294 E112.61629
G1 X172.983 Y102.979 E112.65166
G1 X173.044 Y103.678 E112.68667
G1 X173.044 Y145.782 E114.78724
G1 X172.981 Y146.49 E114.8227
G1 X172.801 Y147.162 E114.85741
G1 X172.509 Y147.789 E114.89192
G1 X172.099 Y148.374 E114.92756
G1 X171.614 Y148.858 E114.96174
G1 X171.031 Y149.267 E114.99727
G1 X170.4 Y149.561 E115.032
G1 X169.728 Y149.741 E115.06671
G1 X169.006 Y149.804 E115.10287
G1 X55.024 Y149.804 E120.78945
G1 X55.024 Y31.784 E126.6775
G1 X57.216 Y31.784 E126.78686
G1 X57.536 Y32.691 E126.83484
G1 X57.981 Y33.506 E126.88117
G1 X58.547 Y34.243 E126.92753
G1 X59.22 Y34.886 E126.97396
G0 F3600 X64.478 Y48.006
G1 F1050 X63.64 Y48.488 E127.02219
G1 X62.89 Y49.097 E127.07039
G1 X62.249 Y49.819 E127.11856
G1 X61.729 Y50.637 E127.16692
G1 X61.351 Y51.526 E127.21512
G1 X61.119 Y52.463 E127.26327
G1 X61.044 Y53.387 E127.30953
G1 X61.044 Y137.837 E131.52275
G1 X61.131 Y138.835 E131.57273
G1 X61.402 Y139.844 E131.62486
G1 X61.843 Y140.79 E131.67693
G1 X62.442 Y141.647 E131.72909
G1 X63.181 Y142.386 E131.78123
