;FLAVOR:Marlin
;TIME:4812
;Filament used: 3.49909m
;Layer height: 0.2
;Generated with Cura_SteamEngine 3.4.1
M190 S67
M104 S210
M109 S210
M82 ;absolute extrusion mode
G21 ;metric values
G90 ;absolute positioning
M82 ;set extruder to absolute mode
M107 ;start with the fan off
G28 X0 Y0 ;move X/Y to min endstops
G28 Z0 ;move Z to min endstops
G1 Z15.0 F9000 ;move the platform down 15mm
G92 E0 ;zero the extruded length
G1 F200 E3 ;extrude 3mm of feed stock
G92 E0 ;zero the extruded length again
G1 F9000
;Put printing message on LCD screen
M117 Printing...
G92 E0
G1 F1500 E-5
;LAYER_COUNT:395
;LAYER:0
M107
G0 F3600 X90.948 Y72.828 Z0.3
;TYPE:SKIRT
G1 F1500 E0
G1 F1050 X91.34 Y72.462 E0.02676
G1 X91.782 Y72.159 E0.05349
G1 X92.264 Y71.924 E0.08024
G1 X92.775 Y71.763 E0.10697
G1 X93.305 Y71.681 E0.13373
G1 X93.594 Y71.669 E0.14816
G1 X109.575 Y71.67 E0.94546
G1 X110.11 Y71.71 E0.97222
G1 X110.633 Y71.829 E0.99898
G1 X111.132 Y72.024 E1.02571
G1 X111.597 Y72.292 E1.05249
G1 X112.017 Y72.625 E1.07923
G1 X112.383 Y73.017 E1.10598
G1 X112.687 Y73.459 E1.13275
G1 X112.921 Y73.942 E1.15952
G1 X113.081 Y74.454 E1.18628
G1 X113.164 Y74.983 E1.213
G1 X113.175 Y75.273 E1.22748
G1 X113.137 Y121.75 E3.54623
G1 X113.075 Y122.414 E3.5795
G1 X112.912 Y123.278 E3.62336
G1 X112.708 Y123.969 E3.65931
G1 X112.251 Y125.091 E3.71975
G1 X111.872 Y125.789 E3.75938
G1 X111.371 Y126.509 E3.80314
G1 X110.974 Y126.986 E3.8341
G1 X110.369 Y127.597 E3.877
G1 X109.891 Y128.002 E3.90825
G1 X109.182 Y128.504 E3.95159
G1 X108.638 Y128.822 E3.98303
G1 X107.845 Y129.196 E4.02677
G1 X107.258 Y129.413 E4.058
G1 X106.424 Y129.641 E4.10113
G1 X105.804 Y129.753 E4.13256
G1 X104.932 Y129.833 E4.17625
G1 X104.584 Y129.848 E4.19363
G1 X98.078 Y129.813 E4.51822
G1 X97.413 Y129.747 E4.55156
G1 X96.504 Y129.571 E4.59775
G1 X95.896 Y129.397 E4.6293
G1 X95.134 Y129.104 E4.67003
G1 X94.579 Y128.834 E4.70082
G1 X93.813 Y128.376 E4.74535
G1 X93.299 Y128.004 E4.77701
G1 X92.637 Y127.429 E4.82075
G1 X92.199 Y126.975 E4.85222
G1 X91.662 Y126.311 E4.89483
G1 X91.315 Y125.796 E4.92581
G1 X90.893 Y125.037 E4.96914
G1 X90.636 Y124.463 E5.00051
G1 X90.357 Y123.655 E5.04316
G1 X90.205 Y123.049 E5.07433
G1 X90.064 Y122.168 E5.11884
G1 X90.019 Y121.601 E5.14722
G1 X89.994 Y75.271 E7.45863
G1 X90.034 Y74.736 E7.4854
G1 X90.152 Y74.213 E7.51215
G1 X90.347 Y73.714 E7.53888
G1 X90.614 Y73.249 E7.56563
G1 X90.948 Y72.828 E7.59244
G0 F3600 X91.342 Y72.995
G1 F1050 X91.728 Y72.669 E7.61764
G1 X92.161 Y72.408 E7.64287
G1 X92.63 Y72.218 E7.66811
G1 X93.122 Y72.104 E7.69331
G1 X93.594 Y72.069 E7.71692
G1 X109.575 Y72.07 E8.51422
G1 X110.079 Y72.11 E8.53944
G1 X110.571 Y72.229 E8.5647
G1 X111.037 Y72.424 E8.5899
G1 X111.467 Y72.689 E8.6151
G1 X111.85 Y73.02 E8.64035
G1 X112.176 Y73.406 E8.66556
G1 X112.437 Y73.839 E8.69078
G1 X112.627 Y74.308 E8.71603
G1 X112.74 Y74.8 E8.74121
G1 X112.775 Y75.273 E8.76488
G1 X112.737 Y121.75 E11.08362
G1 X112.682 Y122.34 E11.11319
G1 X112.519 Y123.204 E11.15705
G1 X112.338 Y123.818 E11.18899
G1 X111.881 Y124.94 E11.24943
G1 X111.544 Y125.561 E11.28468
G1 X111.043 Y126.281 E11.32844
G1 X110.69 Y126.705 E11.35597
G1 X110.085 Y127.316 E11.39886
G1 X109.66 Y127.676 E11.42665
G1 X108.951 Y128.178 E11.46999
G1 X108.467 Y128.46 E11.49794
G1 X107.674 Y128.834 E11.54168
G1 X107.153 Y129.027 E11.5694
G1 X106.319 Y129.255 E11.61254
G1 X105.767 Y129.355 E11.64052
G1 X104.895 Y129.435 E11.68421
G1 X104.586 Y129.448 E11.69964
G1 X98.08 Y129.413 E12.02423
G1 X97.489 Y129.355 E12.05386
G1 X96.58 Y129.179 E12.10005
G1 X96.04 Y129.024 E12.12808
G1 X95.278 Y128.731 E12.16881
G1 X94.784 Y128.491 E12.19621
G1 X94.018 Y128.033 E12.24073
G1 X93.562 Y127.702 E12.26885
G1 X92.9 Y127.127 E12.31259
G1 X92.51 Y126.723 E12.34061
G1 X91.973 Y126.059 E12.38321
G1 X91.664 Y125.602 E12.41073
G1 X91.242 Y124.843 E12.45406
G1 X91.014 Y124.332 E12.48198
G1 X90.735 Y123.524 E12.52462
G1 X90.6 Y122.986 E12.5523
G1 X90.459 Y122.105 E12.59681
G1 X90.419 Y121.601 E12.62203
G1 X90.394 Y75.271 E14.93345
G1 X90.434 Y74.767 E14.95867
G1 X90.552 Y74.275 E14.98391
G1 X90.747 Y73.809 E15.00911
G1 X91.012 Y73.378 E15.03436
G1 X91.342 Y72.995 E15.05958
G1 F1500 E10.05958
G1 F180 Z1.3
G0 F3600 X103.9 Y80.499 Z1.3
;TYPE:WALL-INNER
G1 F180 Z0.3
G1 F1500 E15.05958
G1 F1050 X103.384 Y80.14 E15.09094
G1 X102.817 Y79.875 E15.12216
G1 X102.21 Y79.712 E15.15352
G1 X101.584 Y79.658 E15.18487
G1 X100.958 Y79.712 E15.21622
G1 X100.351 Y79.875 E15.24757
G1 X99.783 Y80.14 E15.27884
G1 X99.269 Y80.499 E15.31012
G1 X98.824 Y80.944 E15.34152
G1 X98.464 Y81.459 E15.37287
G1 X98.199 Y82.028 E15.40418
G1 X98.037 Y82.634 E15.43548
G1 X97.981 Y83.26 E15.46683
G1 X98.037 Y83.886 E15.49819
G1 X98.199 Y84.492 E15.52948
G1 X98.464 Y85.061 E15.5608
G1 X98.824 Y85.575 E15.59211
G1 X99.269 Y86.02 E15.6235
G1 X99.783 Y86.38 E15.65481
G1 X100.352 Y86.645 E15.68613
G1 X100.958 Y86.807 E15.71742
G1 X101.584 Y86.863 E15.74878
G1 X102.21 Y86.807 E15.78013
G1 X102.816 Y86.645 E15.81143
G1 X103.385 Y86.38 E15.84274
G1 X103.9 Y86.02 E15.87409
G1 X104.344 Y85.575 E15.90545
G1 X104.704 Y85.061 E15.93676
G1 X104.969 Y84.493 E15.96803
G1 X105.132 Y83.886 E15.99939
G1 X105.186 Y83.26 E16.03074
G1 X105.132 Y82.634 E16.06208
G1 X104.969 Y82.027 E16.09344
G1 X104.704 Y81.459 E16.12471
G1 X104.344 Y80.944 E16.15606
G1 X103.9 Y80.499 E16.18742
G0 F3600 X103.964 Y80.423
G0 X104.738 Y81.44
G0 X105.006 Y82.014
G0 X105.171 Y82.628
G0 X105.201 Y82.985
G0 X103.964 Y115.423
G0 X103.9 Y115.499
G1 F1050 X103.384 Y115.14 E16.21878
G1 X102.817 Y114.875 E16.25001
G1 X102.21 Y114.712 E16.28136
G1 X101.584 Y114.658 E16.31271
G1 X100.958 Y114.712 E16.34406
G1 X100.351 Y114.875 E16.37541
G1 X99.783 Y115.14 E16.40668
G1 X99.269 Y115.499 E16.43796
G1 X98.824 Y115.944 E16.46936
G1 X98.464 Y116.459 E16.50071
G1 X98.199 Y117.028 E16.53202
G1 X98.037 Y117.634 E16.56332
G1 X97.981 Y118.26 E16.59467
G1 X98.037 Y118.886 E16.62603
G1 X98.199 Y119.492 E16.65732
G1 X98.464 Y120.061 E16.68864
G1 X98.824 Y120.575 E16.71995
G1 X99.269 Y121.02 E16.75134
G1 X99.783 Y121.38 E16.78265
G1 X100.352 Y121.645 E16.81397
G1 X100.958 Y121.807 E16.84526
G1 X101.584 Y121.863 E16.87662
G1 X102.21 Y121.807 E16.90797
G1 X102.816 Y121.645 E16.93927
G1 X103.385 Y121.38 E16.97058
G1 X103.9 Y121.02 E17.00193
G1 X104.344 Y120.575 E17.0333
G1 X104.704 Y120.061 E17.0646
G1 X104.969 Y119.493 E17.09587
G1 X105.132 Y118.886 E17.12723
G1 X105.186 Y118.26 E17.15858
G1 X105.132 Y117.634 E17.18992
G1 X104.969 Y117.027 E17.22128
G1 X104.704 Y116.459 E17.25255
G1 X104.344 Y115.944 E17.2839
G1 X103.9 Y115.499 E17.31526
G0 F3600 X103.964 Y115.423
G0 X108.885 Y121.244
G0 X108.984 Y121.248
G1 F1050 X108.916 Y122.023 E17.35407
G1 X108.718 Y122.764 E17.39234
G1 X108.395 Y123.455 E17.43039
G1 X107.95 Y124.09 E17.46908
G1 X107.414 Y124.626 E17.5069
G1 X106.781 Y125.069 E17.54544
G1 X106.086 Y125.393 E17.5837
G1 X105.345 Y125.592 E17.62198
G1 X104.566 Y125.66 E17.66099
G1 X98.602 Y125.66 E17.95854
G1 X97.823 Y125.592 E17.99755
G1 X97.082 Y125.393 E18.03583
G1 X96.387 Y125.069 E18.07408
G1 X95.754 Y124.626 E18.11263
G1 X95.218 Y124.09 E18.15045
G1 X94.775 Y123.457 E18.18899
G1 X94.451 Y122.762 E18.22725
G1 X94.252 Y122.021 E18.26553
G1 X94.184 Y121.248 E18.30424
G1 X94.184 Y75.86 E20.56866
G1 X108.984 Y75.86 E21.30703
G1 X108.984 Y121.248 E23.57145
G0 F3600 X109.384 Y121.26
;TYPE:WALL-OUTER
G1 F1050 X109.311 Y122.092 E23.61312
G1 X109.095 Y122.901 E23.65489
G1 X108.741 Y123.658 E23.69658
G1 X108.257 Y124.349 E23.73867
G1 X107.673 Y124.933 E23.77988
G1 X106.98 Y125.418 E23.82208
G1 X106.227 Y125.769 E23.86353
G1 X105.416 Y125.987 E23.90542
G1 X104.578 Y126.06 E23.94739
G1 X98.59 Y126.06 E24.24613
G1 X97.752 Y125.987 E24.2881
G1 X96.941 Y125.769 E24.33
G1 X96.188 Y125.418 E24.37144
G1 X95.495 Y124.933 E24.41364
G1 X94.911 Y124.349 E24.45485
G1 X94.426 Y123.656 E24.49705
G1 X94.075 Y122.903 E24.5385
G1 X93.857 Y122.092 E24.58039
G1 X93.784 Y121.26 E24.62206
G1 X93.784 Y75.46 E26.90703
G1 X109.384 Y75.46 E27.68532
G1 X109.384 Y121.26 E29.97029
G0 F3600 X109.367 Y121.459
G0 X108.87 Y121.415
G0 X103.995 Y115.454
G0 X103.642 Y115.807
G1 F1050 X103.184 Y115.488 E29.99814
G1 X102.679 Y115.252 E30.02595
G1 X102.14 Y115.107 E30.0538
G1 X101.584 Y115.059 E30.08164
G1 X101.028 Y115.107 E30.10948
G1 X100.489 Y115.252 E30.13733
G1 X99.984 Y115.488 E30.16514
G1 X99.527 Y115.807 E30.19294
G1 X99.132 Y116.202 E30.22081
G1 X98.812 Y116.66 E30.24869
G1 X98.576 Y117.165 E30.2765
G1 X98.432 Y117.704 E30.30433
G1 X98.383 Y118.26 E30.33218
G1 X98.432 Y118.816 E30.36002
G1 X98.576 Y119.355 E30.38786
G1 X98.812 Y119.86 E30.41567
G1 X99.132 Y120.317 E30.4435
G1 X99.527 Y120.712 E30.47137
G1 X99.984 Y121.032 E30.4992
G1 X100.489 Y121.268 E30.52701
G1 X101.028 Y121.412 E30.55485
G1 X101.584 Y121.461 E30.58269
G1 X102.14 Y121.412 E30.61054
G1 X102.679 Y121.268 E30.63837
G1 X103.184 Y121.032 E30.66618
G1 X103.642 Y120.712 E30.69406
G1 X104.036 Y120.317 E30.72189
G1 X104.356 Y119.86 E30.74973
G1 X104.592 Y119.355 E30.77754
G1 X104.737 Y118.816 E30.80538
G1 X104.785 Y118.26 E30.83322
G1 X104.737 Y117.704 E30.86107
G1 X104.592 Y117.165 E30.88891
G1 X104.356 Y116.66 E30.91672
G1 X104.036 Y116.202 E30.9446
G1 X103.642 Y115.807 E30.97243
G0 F3600 X103.478 Y115.693
G0 X103.764 Y115.283
G0 X105.226 Y83.26
G0 X105.171 Y82.628
G0 X105.006 Y82.014
G0 X104.79 Y81.55
G0 X103.995 Y80.454
G0 X103.642 Y80.807
G1 F1050 X103.184 Y80.488 E31.00028
G1 X102.679 Y80.252 E31.02809
G1 X102.14 Y80.107 E31.05593
G1 X101.584 Y80.059 E31.08378
G1 X101.028 Y80.107 E31.11162
G1 X100.489 Y80.252 E31.13947
G1 X99.984 Y80.488 E31.16728
G1 X99.527 Y80.807 E31.19508
G1 X99.132 Y81.202 E31.22295
G1 X98.812 Y81.66 E31.25082
G1 X98.576 Y82.165 E31.27863
G1 X98.432 Y82.704 E31.30647
G1 X98.383 Y83.26 E31.33432
G1 X98.432 Y83.816 E31.36216
G1 X98.576 Y84.355 E31.39
G1 X98.812 Y84.86 E31.41781
G1 X99.132 Y85.317 E31.44564
G1 X99.527 Y85.712 E31.47351
G1 X99.984 Y86.032 E31.50134
G1 X100.489 Y86.268 E31.52915
G1 X101.028 Y86.412 E31.55699
G1 X101.584 Y86.461 E31.58483
G1 X102.14 Y86.412 E31.61268
G1 X102.679 Y86.268 E31.64051
G1 X103.184 Y86.032 E31.66832
G1 X103.642 Y85.712 E31.6962
G1 X104.036 Y85.317 E31.72403
G1 X104.356 Y84.86 E31.75187
G1 X104.592 Y84.355 E31.77968
G1 X104.737 Y83.816 E31.80752
G1 X104.785 Y83.26 E31.83536
G1 X104.737 Y82.704 E31.86321
G1 X104.592 Y82.165 E31.89105
G1 X104.356 Y81.66 E31.91886
G1 X104.036 Y81.202 E31.94674
G1 X103.642 Y80.807 E31.97457
G0 F3600 X103.478 Y80.693
G0 X103.764 Y80.283
G0 X104.151 Y80.199
;TYPE:SKIN
G1 F1050 X103.579 Y79.801 E32.00934
G1 X102.951 Y79.507 E32.04393
G1 X102.278 Y79.326 E32.0787
G1 X101.584 Y79.266 E32.11345
G1 X100.89 Y79.326 E32.14821
G1 X100.217 Y79.507 E32.18298
G1 X99.588 Y79.801 E32.21762
G1 X99.018 Y80.199 E32.2523
G1 X98.524 Y80.692 E32.28712
G1 X98.125 Y81.264 E32.32191
G1 X97.831 Y81.894 E32.3566
G1 X97.651 Y82.566 E32.39131
G1 X97.589 Y83.26 E32.42607
G1 X97.651 Y83.954 E32.46083
G1 X97.831 Y84.626 E32.49554
G1 X98.125 Y85.256 E32.53022
G1 X98.524 Y85.827 E32.56497
G1 X99.017 Y86.32 E32.59976
G1 X99.588 Y86.719 E32.63451
G1 X100.218 Y87.013 E32.6692
G1 X100.89 Y87.193 E32.7039
G1 X101.584 Y87.255 E32.73867
G1 X102.278 Y87.193 E32.77343
G1 X102.95 Y87.013 E32.80814
G1 X103.58 Y86.719 E32.84282
G1 X104.152 Y86.32 E32.87762
G1 X104.644 Y85.826 E32.9124
G1 X105.043 Y85.256 E32.94711
G1 X105.337 Y84.627 E32.98175
G1 X105.518 Y83.954 E33.01652
G1 X105.578 Y83.26 E33.05127
G1 X105.518 Y82.566 E33.08603
G1 X105.337 Y81.893 E33.1208
G1 X105.043 Y81.264 E33.15544
G1 X104.644 Y80.693 E33.19019
G1 X104.151 Y80.199 E33.22501
G0 F3600 X108.594 Y76.25
G1 F1050 X108.594 Y121.248 E35.46997
G1 X108.532 Y121.95 E35.50513
G1 X108.35 Y122.631 E35.54029
G1 X108.057 Y123.256 E35.57473
G1 X107.644 Y123.846 E35.61066
G1 X107.17 Y124.32 E35.6441
G1 X106.581 Y124.733 E35.67999
G1 X105.956 Y125.024 E35.71439
G1 X105.272 Y125.208 E35.74973
G1 X104.556 Y125.27 E35.78558
G1 X98.612 Y125.27 E36.08213
G1 X97.896 Y125.208 E36.11799
G1 X97.212 Y125.024 E36.15332
G1 X96.587 Y124.733 E36.18772
G1 X95.998 Y124.32 E36.22361
G1 X95.524 Y123.846 E36.25705
G1 X95.111 Y123.257 E36.29294
G1 X94.817 Y122.626 E36.32767
G1 X94.637 Y121.955 E36.36233
G1 X94.574 Y121.241 E36.39809
G1 X94.574 Y76.25 E38.6427
G1 X108.594 Y76.25 E39.34216
G0 F3600 X101.584 Y114.266
G1 F1050 X100.89 Y114.326 E39.37691
G1 X100.217 Y114.507 E39.41168
G1 X99.588 Y114.801 E39.44632
G1 X99.018 Y115.199 E39.48101
G1 X98.524 Y115.692 E39.51583
G1 X98.125 Y116.264 E39.55062
G1 X97.831 Y116.894 E39.58531
G1 X97.651 Y117.566 E39.62001
G1 X97.589 Y118.26 E39.65478
G1 X97.651 Y118.954 E39.68954
G1 X97.831 Y119.626 E39.72424
G1 X98.125 Y120.256 E39.75893
G1 X98.524 Y120.827 E39.79368
G1 X99.017 Y121.32 E39.82847
G1 X99.588 Y121.719 E39.86322
G1 X100.218 Y122.013 E39.8979
G1 X100.89 Y122.193 E39.93261
G1 X101.584 Y122.255 E39.96737
G1 X102.278 Y122.193 E40.00214
G1 X102.95 Y122.013 E40.03684
G1 X103.58 Y121.719 E40.07153
G1 X104.152 Y121.32 E40.10632
G1 X104.644 Y120.826 E40.14111
G1 X105.043 Y120.256 E40.17582
G1 X105.337 Y119.627 E40.21046
G1 X105.518 Y118.954 E40.24523
G1 X105.578 Y118.26 E40.27998
G1 X105.518 Y117.566 E40.31473
G1 X105.337 Y116.893 E40.3495
G1 X105.043 Y116.264 E40.38414
G1 X104.644 Y115.693 E40.4189
G1 X104.151 Y115.199 E40.45372
G1 X103.579 Y114.801 E40.48848
G1 X102.951 Y114.507 E40.52308
G1 X102.278 Y114.326 E40.55784
G1 X101.584 Y114.266 E40.5926
G0 F3600 X99.764 Y115.106
G0 X99.244 Y115.469
G0 X98.794 Y115.919
G0 X98.589 Y116.213
G0 X95.109 Y122.827
G1 F1050 X97.014 Y124.732 E40.72701
G1 X97.084 Y124.802
G0 F3600 X97.858 Y125.011
G1 F1050 X94.83 Y121.983 E40.94065
G1 X94.76 Y121.913
G0 F3600 X94.764 Y121.351
G1 F1050 X98.49 Y125.077 E41.20354
G1 X98.56 Y125.147
G0 F3600 X99.067 Y125.089
G1 F1050 X94.753 Y120.775 E41.50791
G1 X94.683 Y120.705
G0 F3600 X94.753 Y120.209
G1 F1050 X99.633 Y125.089 E41.85222
G1 X99.703 Y125.159
G0 F3600 X100.199 Y125.089
G1 F1050 X94.753 Y119.643 E42.23647
G1 X94.683 Y119.573
G0 F3600 X94.753 Y119.078
G1 F1050 X100.764 Y125.089 E42.66058
G1 X100.834 Y125.159
G0 F3600 X101.33 Y125.089
G1 F1050 X94.753 Y118.512 E43.12462
G1 X94.683 Y118.442
G0 F3600 X94.753 Y117.946
G1 F1050 X101.896 Y125.089 E43.6286
G1 X101.966 Y125.159
G0 F3600 X102.461 Y125.089
G1 F1050 X94.753 Y117.381 E44.17244
G1 X94.683 Y117.311
G0 F3600 X94.753 Y116.815
G1 F1050 X97.691 Y119.752 E44.37969
G1 X97.761 Y119.822
G0 F3600 X97.471 Y118.967
G1 F1050 X94.753 Y116.249 E44.57146
G1 X94.683 Y116.179
G0 F3600 X94.753 Y115.684
G1 F1050 X97.415 Y118.345 E44.75925
G1 X97.485 Y118.415
G0 F3600 X97.448 Y117.813
G1 F1050 X94.753 Y115.118 E44.94939
G1 X94.683 Y115.048
G0 F3600 X94.753 Y114.552
G1 F1050 X97.528 Y117.327 E45.14518
G1 X97.598 Y117.397
G0 F3600 X97.647 Y116.88
G1 F1050 X94.753 Y113.987 E45.34934
G1 X94.683 Y113.917
G0 F3600 X94.753 Y113.421
G1 F1050 X97.821 Y116.488 E45.56577
G1 X97.891 Y116.558
G0 F3600 X98.01 Y116.112
G1 F1050 X94.753 Y112.855 E45.79556
G1 X94.683 Y112.785
G0 F3600 X94.753 Y112.289
G1 F1050 X98.243 Y115.779 E46.0418
G1 X98.313 Y115.849
G0 F3600 X98.495 Y115.465
G1 F1050 X94.753 Y111.724 E46.30579
G1 X94.683 Y111.654
G0 F3600 X94.753 Y111.158
G1 F1050 X98.777 Y115.182 E46.5897
G1 X98.847 Y115.252
G0 F3600 X99.088 Y114.927
G1 F1050 X94.753 Y110.592 E46.89556
G1 X94.683 Y110.522
G0 F3600 X94.753 Y110.027
G1 F1050 X99.422 Y114.695 E47.22495
G1 X99.492 Y114.765
G0 F3600 X99.795 Y114.503
G1 F1050 X94.753 Y109.461 E47.58069
G1 X94.683 Y109.391
G0 F3600 X94.753 Y108.895
G1 F1050 X100.185 Y114.327 E47.96394
G1 X100.255 Y114.397
G0 F3600 X100.631 Y114.207
G1 F1050 X94.753 Y108.33 E48.37863
G1 X94.683 Y108.26
G0 F3600 X94.753 Y107.764
G1 F1050 X101.114 Y114.124 E48.8274
G1 X101.184 Y114.194
G0 F3600 X101.644 Y114.089
G1 F1050 X94.753 Y107.198 E49.3136
G1 X94.683 Y107.128
G0 F3600 X94.753 Y106.633
G1 F1050 X102.263 Y114.143 E49.84347
G1 X102.333 Y114.213
G0 F3600 X103.028 Y114.341
G1 F1050 X94.753 Y106.067 E50.42728
G1 X94.683 Y105.997
G0 F3600 X94.753 Y105.501
G1 F1050 X108.414 Y119.162 E51.39114
G1 X108.484 Y119.232
G0 F3600 X108.414 Y119.728
