;FLAVOR:Marlin
;TIME:513
;Filament used: 0.46628m
;Layer height: 0.3
;Generated with Cura_SteamEngine 3.4.1
M190 S64
M104 S200
M109 S200
M82 ;absolute extrusion mode
G21 ;metric values
G90 ;absolute positioning
M82 ;set extruder to absolute mode
M107 ;start with the fan off
G28 X0 Y0 ;move X/Y to min endstops
G28 Z0 ;move Z to min endstops
G1 Z15.0 F9000 ;move the platform down 15mm
G92 E0 ;zero the extruded length
G1 F200 E3 ;extrude 3mm of feed stock
G92 E0 ;zero the extruded length again
G1 F9000
;Put printing message on LCD screen
M117 Printing...
G92 E0
G1 F1500 E-5
;LAYER_COUNT:37
;LAYER:0
M107
G0 F3600 X85.402 Y91.637 Z0.3
;TYPE:SKIRT
G1 F1500 E0
G1 F1050 X85.833 Y91.271 E0.02821
G1 X86.148 Y91.062 E0.04707
G1 X86.741 Y90.708 E0.08153
G1 X87.245 Y90.454 E0.10968
G1 X88.045 Y90.213 E0.15137
G1 X88.73 Y90.083 E0.18615
G1 X89.475 Y90.013 E0.22348
G1 X110.483 Y90.01 E1.27158
G1 X111.047 Y90.05 E1.29979
G1 X111.404 Y90.117 E1.31791
G1 X112.305 Y90.33 E1.3641
G1 X112.845 Y90.499 E1.39233
G1 X113.355 Y90.742 E1.42051
G1 X113.823 Y91.052 E1.44852
G1 X114.441 Y91.527 E1.4874
G1 X114.863 Y91.902 E1.51557
G1 X115.229 Y92.333 E1.54378
G1 X115.438 Y92.648 E1.56264
G1 X115.792 Y93.241 E1.59709
G1 X116.046 Y93.745 E1.62525
G1 X116.287 Y94.545 E1.66694
G1 X116.417 Y95.23 E1.70172
G1 X116.487 Y95.975 E1.73905
G1 X116.49 Y103.983 E2.13857
G1 X116.433 Y104.659 E2.17242
G1 X116.315 Y105.348 E2.20729
G1 X116.18 Y105.897 E2.2355
G1 X116.008 Y106.34 E2.25921
G1 X115.875 Y106.63 E2.27513
G1 X115.603 Y107.126 E2.30335
G1 X115.358 Y107.467 E2.3243
G1 X114.935 Y107.994 E2.35801
G1 X114.551 Y108.409 E2.38622
G1 X113.921 Y108.892 E2.42582
G1 X113.365 Y109.236 E2.45844
G1 X112.864 Y109.498 E2.48665
G1 X112.445 Y109.654 E2.50895
G1 X112.071 Y109.77 E2.52849
G1 X111.521 Y109.899 E2.55667
G1 X110.893 Y109.95 E2.58811
G1 X89.409 Y109.986 E3.65995
G1 X88.845 Y109.947 E3.68816
G1 X88.38 Y109.853 E3.71182
G1 X87.578 Y109.641 E3.75321
G1 X87.043 Y109.458 E3.78142
G1 X86.515 Y109.188 E3.81101
G1 X86.235 Y109.017 E3.82737
G1 X85.775 Y108.689 E3.85556
G1 X85.396 Y108.332 E3.88154
G1 X84.907 Y107.808 E3.91729
G1 X84.551 Y107.369 E3.94549
G1 X84.261 Y106.883 E3.97373
G1 X84.128 Y106.592 E3.98969
G1 X83.853 Y105.919 E4.02596
G1 X83.677 Y105.382 E4.05415
G1 X83.578 Y104.825 E4.08238
G1 X83.556 Y104.42 E4.10261
G1 X83.526 Y95.805 E4.53242
G1 X83.564 Y95.241 E4.56062
G1 X83.686 Y94.672 E4.58966
G1 X83.883 Y93.996 E4.62478
G1 X84.079 Y93.466 E4.65298
G1 X84.348 Y92.968 E4.68121
G1 X84.552 Y92.677 E4.69894
G1 X85.027 Y92.059 E4.73783
G1 X85.402 Y91.637 E4.766
G0 F3600 X85.701 Y91.903
G1 F1050 X86.114 Y91.561 E4.79275
G1 X86.353 Y91.406 E4.80696
G1 X86.946 Y91.052 E4.84142
G1 X87.425 Y90.812 E4.86815
G1 X88.12 Y90.606 E4.90431
G1 X88.805 Y90.476 E4.9391
G1 X89.475 Y90.413 E4.97267
G1 X110.483 Y90.41 E6.02076
G1 X111.018 Y90.45 E6.04753
G1 X111.312 Y90.507 E6.06247
G1 X112.213 Y90.72 E6.10866
G1 X112.724 Y90.881 E6.13539
G1 X113.206 Y91.118 E6.16219
G1 X113.579 Y91.369 E6.18462
G1 X114.197 Y91.844 E6.2235
G1 X114.597 Y92.201 E6.25025
G1 X114.939 Y92.614 E6.277
G1 X115.094 Y92.853 E6.29122
G1 X115.448 Y93.446 E6.32567
G1 X115.688 Y93.925 E6.3524
G1 X115.894 Y94.62 E6.38856
G1 X116.024 Y95.305 E6.42335
G1 X116.087 Y95.975 E6.45692
G1 X116.09 Y103.983 E6.85644
G1 X116.038 Y104.592 E6.88694
G1 X115.92 Y105.281 E6.92181
G1 X115.791 Y105.801 E6.94854
G1 X115.644 Y106.174 E6.96854
G1 X115.511 Y106.464 E6.98446
G1 X115.252 Y106.933 E7.01119
G1 X115.046 Y107.216 E7.02865
G1 X114.623 Y107.743 E7.06237
G1 X114.258 Y108.136 E7.08913
G1 X113.71 Y108.551 E7.12342
G1 X113.154 Y108.895 E7.15604
G1 X112.678 Y109.143 E7.18282
G1 X112.326 Y109.272 E7.20152
G1 X111.952 Y109.388 E7.22106
G1 X111.43 Y109.509 E7.24779
G1 X110.892 Y109.55 E7.27471
G1 X89.408 Y109.586 E8.34655
G1 X88.873 Y109.547 E8.37331
G1 X88.482 Y109.466 E8.39324
G1 X87.68 Y109.254 E8.43462
G1 X87.173 Y109.079 E8.46138
G1 X86.724 Y108.846 E8.48662
G1 X86.444 Y108.675 E8.50299
G1 X86.008 Y108.363 E8.52973
G1 X85.688 Y108.059 E8.55175
G1 X85.199 Y107.535 E8.58751
G1 X84.863 Y107.117 E8.61427
G1 X84.498 Y106.441 E8.6526
G1 X84.223 Y105.768 E8.68887
G1 X84.058 Y105.258 E8.71561
G1 X83.97 Y104.728 E8.74241
G1 X83.956 Y104.419 E8.75785
G1 X83.926 Y95.804 E9.18765
G1 X83.964 Y95.269 E9.21441
G1 X84.07 Y94.784 E9.23918
G1 X84.267 Y94.108 E9.27431
G1 X84.455 Y93.606 E9.30105
G1 X84.869 Y92.921 E9.34098
G1 X85.344 Y92.303 E9.37987
G1 X85.701 Y91.903 E9.40662
G0 F3600 X86 Y92.172
G1 F1050 X86.558 Y91.749 E9.44155
G1 X87.151 Y91.395 E9.47601
G1 X87.604 Y91.171 E9.50122
G1 X88.194 Y90.999 E9.53188
G1 X88.879 Y90.869 E9.56666
G1 X89.476 Y90.813 E9.59658
G1 X110.484 Y90.81 E10.64467
G1 X111.22 Y90.896 E10.68164
G1 X112.121 Y91.109 E10.72783
G1 X112.602 Y91.264 E10.75304
G1 X113.053 Y91.492 E10.77826
G1 X113.335 Y91.686 E10.79533
G1 X113.953 Y92.161 E10.83422
G1 X114.328 Y92.5 E10.85944
G1 X114.751 Y93.058 E10.89437
G1 X115.105 Y93.651 E10.92883
G1 X115.329 Y94.104 E10.95404
G1 X115.501 Y94.694 E10.9847
G1 X115.631 Y95.379 E11.01949
G1 X115.687 Y95.975 E11.04935
G1 X115.69 Y103.983 E11.44887
G1 X115.644 Y104.524 E11.47596
G1 X115.526 Y105.213 E11.51084
G1 X115.402 Y105.703 E11.53605
G1 X115.281 Y106.007 E11.55238
G1 X115.148 Y106.297 E11.56829
G1 X114.901 Y106.738 E11.59351
G1 X114.735 Y106.966 E11.60758
G1 X114.312 Y107.493 E11.6413
G1 X113.965 Y107.861 E11.66653
G1 X113.5 Y108.211 E11.69557
G1 X112.944 Y108.555 E11.72819
G1 X112.494 Y108.786 E11.75342
G1 X112.208 Y108.89 E11.7686
G1 X111.834 Y109.006 E11.78814
G1 X111.341 Y109.118 E11.81336
G1 X110.891 Y109.15 E11.83587
G1 X89.407 Y109.186 E12.90771
G1 X88.903 Y109.147 E12.93293
G1 X88.584 Y109.08 E12.94919
G1 X87.782 Y108.868 E12.99058
G1 X87.305 Y108.7 E13.01581
G1 X86.932 Y108.505 E13.03681
G1 X86.652 Y108.334 E13.05318
G1 X86.243 Y108.037 E13.0784
G1 X85.98 Y107.786 E13.09653
G1 X85.491 Y107.262 E13.13229
G1 X85.177 Y106.867 E13.15747
G1 X84.869 Y106.289 E13.19014
G1 X84.594 Y105.616 E13.22641
G1 X84.44 Y105.135 E13.25161
G1 X84.356 Y104.417 E13.28767
G1 X84.326 Y95.802 E13.71748
G1 X84.364 Y95.298 E13.7427
G1 X84.454 Y94.896 E13.76325
G1 X84.651 Y94.22 E13.79838
G1 X84.83 Y93.747 E13.82361
G1 X85.186 Y93.165 E13.85765
G1 X85.661 Y92.547 E13.89653
G1 X86 Y92.172 E13.92175
G1 F1500 E8.92175
G1 F180 Z1.3
G0 F3600 X110.743 Y94.623 Z1.3
;TYPE:WALL-INNER
G1 F180 Z0.3
G1 F1500 E13.92175
G1 F1050 X110.977 Y94.686 E13.93384
G1 X111.197 Y94.789 E13.94596
G1 X111.402 Y94.932 E13.95843
G1 X111.568 Y95.098 E13.97015
G1 X111.711 Y95.303 E13.98262
G1 X111.814 Y95.523 E13.99473
G1 X111.877 Y95.756 E14.00678
G1 X111.9 Y96.023 E14.02015
G1 X111.9 Y103.977 E14.41697
G1 X111.877 Y104.244 E14.43034
G1 X111.814 Y104.477 E14.44239
G1 X111.711 Y104.697 E14.4545
G1 X111.568 Y104.902 E14.46697
G1 X111.402 Y105.068 E14.47869
G1 X111.197 Y105.211 E14.49116
G1 X110.977 Y105.314 E14.50328
G1 X110.743 Y105.377 E14.51537
G1 X110.473 Y105.4 E14.52888
G1 X89.521 Y105.4 E15.57418
G1 X89.285 Y105.381 E15.586
G1 X89.066 Y105.329 E15.59723
G1 X88.864 Y105.245 E15.60814
G1 X88.677 Y105.131 E15.61907
G1 X88.512 Y104.988 E15.62996
G1 X88.369 Y104.823 E15.64085
G1 X88.255 Y104.636 E15.65178
G1 X88.171 Y104.434 E15.66269
G1 X88.119 Y104.215 E15.67392
G1 X88.1 Y103.981 E15.68564
G1 X88.1 Y96.023 E16.08266
G1 X88.123 Y95.756 E16.09603
G1 X88.186 Y95.523 E16.10808
G1 X88.289 Y95.303 E16.12019
G1 X88.432 Y95.098 E16.13266
G1 X88.598 Y94.932 E16.14438
G1 X88.803 Y94.789 E16.15685
G1 X89.023 Y94.686 E16.16897
G1 X89.257 Y94.623 E16.18106
G1 X89.527 Y94.6 E16.19457
G1 X110.473 Y94.6 E17.23957
G1 X110.743 Y94.623 E17.25309
G0 F3600 X110.811 Y94.227
;TYPE:WALL-OUTER
G1 F1050 X111.117 Y94.31 E17.26891
G1 X111.396 Y94.44 E17.28427
G1 X111.661 Y94.625 E17.30039
G1 X111.875 Y94.839 E17.31549
G1 X112.06 Y95.104 E17.33161
G1 X112.19 Y95.383 E17.34697
G1 X112.273 Y95.689 E17.36279
G1 X112.3 Y96 E17.37836
G1 X112.3 Y104 E17.77749
G1 X112.273 Y104.311 E17.79306
G1 X112.19 Y104.617 E17.80888
G1 X112.06 Y104.896 E17.82423
G1 X111.875 Y105.161 E17.84036
G1 X111.661 Y105.375 E17.85546
G1 X111.396 Y105.56 E17.87158
G1 X111.117 Y105.69 E17.88694
G1 X110.811 Y105.773 E17.90275
G1 X110.495 Y105.8 E17.91858
G1 X89.503 Y105.8 E18.96587
G1 X89.224 Y105.778 E18.97983
G1 X88.94 Y105.71 E18.9944
G1 X88.684 Y105.604 E19.00823
G1 X88.441 Y105.455 E19.02245
G1 X88.228 Y105.272 E19.03646
G1 X88.045 Y105.059 E19.05047
G1 X87.896 Y104.816 E19.06469
G1 X87.79 Y104.56 E19.07851
G1 X87.722 Y104.276 E19.09308
G1 X87.7 Y104 E19.1069
G1 X87.7 Y96 E19.50602
G1 X87.727 Y95.689 E19.52159
G1 X87.81 Y95.383 E19.53741
G1 X87.94 Y95.104 E19.55277
G1 X88.125 Y94.839 E19.56889
G1 X88.339 Y94.625 E19.58399
G1 X88.604 Y94.44 E19.60011
G1 X88.883 Y94.31 E19.61547
G1 X89.189 Y94.227 E19.63129
G1 X89.505 Y94.2 E19.64711
G1 X110.495 Y94.2 E20.6943
G1 X110.811 Y94.227 E20.71013
G0 F3600 X111.004 Y94.279
G0 X110.839 Y95.052
;TYPE:SKIN
G1 F1050 X111.001 Y95.128 E20.71905
G1 X111.156 Y95.236 E20.72848
G1 X111.264 Y95.344 E20.7361
G1 X111.372 Y95.499 E20.74552
G1 X111.448 Y95.66 E20.75441
G1 X111.493 Y95.825 E20.76294
G1 X111.51 Y96.023 E20.77285
G1 X111.51 Y103.977 E21.16968
G1 X111.493 Y104.175 E21.1796
G1 X111.448 Y104.34 E21.18813
G1 X111.372 Y104.501 E21.19701
G1 X111.264 Y104.656 E21.20644
G1 X111.156 Y104.764 E21.21406
G1 X111.001 Y104.872 E21.22348
G1 X110.839 Y104.948 E21.23241
G1 X110.676 Y104.992 E21.24083
G1 X110.464 Y105.01 E21.25145
G1 X89.527 Y105.01 E22.296
G1 X89.354 Y104.996 E22.30466
G1 X89.186 Y104.956 E22.31327
G1 X89.036 Y104.893 E22.32139
G1 X88.909 Y104.816 E22.3288
G1 X88.789 Y104.711 E22.33675
G1 X88.684 Y104.591 E22.34471
G1 X88.607 Y104.464 E22.35212
G1 X88.544 Y104.314 E22.36023
G1 X88.504 Y104.146 E22.36885
G1 X88.49 Y103.981 E22.37711
G1 X88.49 Y96.023 E22.77414
G1 X88.507 Y95.825 E22.78405
G1 X88.552 Y95.66 E22.79259
G1 X88.628 Y95.499 E22.80147
G1 X88.736 Y95.344 E22.81089
G1 X88.844 Y95.236 E22.81851
G1 X88.999 Y95.128 E22.82794
G1 X89.161 Y95.052 E22.83687
G1 X89.324 Y95.008 E22.84529
G1 X89.536 Y94.99 E22.8559
G1 X110.464 Y94.99 E23.90001
G1 X110.676 Y95.008 E23.91062
G1 X110.839 Y95.052 E23.91904
G0 F3600 X110.443 Y95.17
G1 F1050 X111.329 Y96.056 E23.98156
G1 X111.399 Y96.126
G0 F3600 X111.329 Y96.621
G1 F1050 X109.878 Y95.17 E24.08393
G1 X109.808 Y95.1
G0 F3600 X109.312 Y95.17
G1 F1050 X111.329 Y97.187 E24.22624
G1 X111.399 Y97.257
G0 F3600 X111.329 Y97.753
G1 F1050 X108.746 Y95.17 E24.40849
G1 X108.676 Y95.1
G0 F3600 X108.18 Y95.17
G1 F1050 X111.329 Y98.318 E24.63063
G1 X111.399 Y98.388
G0 F3600 X111.329 Y98.884
G1 F1050 X107.615 Y95.17 E24.89267
G1 X107.545 Y95.1
G0 F3600 X107.049 Y95.17
G1 F1050 X111.329 Y99.45 E25.19465
G1 X111.399 Y99.52
G0 F3600 X111.329 Y100.016
G1 F1050 X106.483 Y95.17 E25.53656
G1 X106.413 Y95.1
G0 F3600 X105.918 Y95.17
G1 F1050 X111.329 Y100.581 E25.91834
G1 X111.399 Y100.651
G0 F3600 X111.329 Y101.147
G1 F1050 X105.352 Y95.17 E26.34005
G1 X105.282 Y95.1
G0 F3600 X104.786 Y95.17
G1 F1050 X111.329 Y101.713 E26.80169
G1 X111.399 Y101.783
G0 F3600 X111.329 Y102.278
G1 F1050 X104.221 Y95.17 E27.3032
G1 X104.151 Y95.1
G0 F3600 X103.655 Y95.17
G1 F1050 X111.329 Y102.844 E27.84464
G1 X111.399 Y102.914
G0 F3600 X111.329 Y103.41
G1 F1050 X103.089 Y95.17 E28.42602
G1 X103.019 Y95.1
G0 F3600 X102.524 Y95.17
G1 F1050 X111.329 Y103.975 E29.04726
G1 X111.399 Y104.045
G0 F3600 X111.208 Y104.42
G1 F1050 X101.958 Y95.17 E29.69989
G1 X101.888 Y95.1
G0 F3600 X101.392 Y95.17
G1 F1050 X110.926 Y104.704 E30.37257
G1 X110.996 Y104.774
G0 F3600 X110.484 Y104.827
G1 F1050 X100.827 Y95.17 E31.05392
G1 X100.757 Y95.1
G0 F3600 X100.261 Y95.17
G1 F1050 X109.92 Y104.829 E31.73542
G1 X109.99 Y104.899
G0 F3600 X109.354 Y104.829
G1 F1050 X99.695 Y95.17 E32.41691
G1 X99.625 Y95.1
G0 F3600 X99.13 Y95.17
G1 F1050 X108.789 Y104.829 E33.09841
G1 X108.859 Y104.899
G0 F3600 X108.223 Y104.829
G1 F1050 X98.564 Y95.17 E33.7799
G1 X98.494 Y95.1
G0 F3600 X97.998 Y95.17
G1 F1050 X107.657 Y104.829 E34.4614
G1 X107.727 Y104.899
G0 F3600 X107.092 Y104.829
G1 F1050 X97.432 Y95.17 E35.14293
G1 X97.362 Y95.1
G0 F3600 X96.867 Y95.17
G1 F1050 X106.526 Y104.829 E35.82442
G1 X106.596 Y104.899
G0 F3600 X105.96 Y104.829
G1 F1050 X96.301 Y95.17 E36.50592
G1 X96.231 Y95.1
G0 F3600 X95.735 Y95.17
G1 F1050 X105.394 Y104.829 E37.18741
G1 X105.464 Y104.899
G0 F3600 X104.829 Y104.829
G1 F1050 X95.17 Y95.17 E37.8689
G1 X95.1 Y95.1
G0 F3600 X94.604 Y95.17
G1 F1050 X104.263 Y104.829 E38.5504
G1 X104.333 Y104.899
G0 F3600 X103.697 Y104.829
G1 F1050 X94.038 Y95.17 E39.23189
G1 X93.968 Y95.1
G0 F3600 X93.473 Y95.17
G1 F1050 X103.132 Y104.829 E39.91339
G1 X103.202 Y104.899
G0 F3600 X102.566 Y104.829
G1 F1050 X92.907 Y95.17 E40.59488
G1 X92.837 Y95.1
G0 F3600 X92.341 Y95.17
G1 F1050 X102 Y104.829 E41.27638
G1 X102.07 Y104.899
G0 F3600 X101.435 Y104.829
G1 F1050 X91.776 Y95.17 E41.95787
G1 X91.706 Y95.1
G0 F3600 X91.21 Y95.17
G1 F1050 X100.869 Y104.829 E42.63937
G1 X100.939 Y104.899
G0 F3600 X100.303 Y104.829
G1 F1050 X90.644 Y95.17 E43.32086
G1 X90.574 Y95.1
G0 F3600 X90.079 Y95.17
G1 F1050 X99.738 Y104.829 E44.00236
G1 X99.808 Y104.899
G0 F3600 X99.172 Y104.829
G1 F1050 X89.514 Y95.171 E44.68378
G1 X89.444 Y95.101
G0 F3600 X89.072 Y95.295
G1 F1050 X98.606 Y104.829 E45.35646
G1 X98.676 Y104.899
G0 F3600 X98.041 Y104.829
G1 F1050 X88.79 Y95.578 E46.00916
G1 X88.72 Y95.508
G0 F3600 X88.669 Y96.023
G1 F1050 X97.475 Y104.829 E46.63047
G1 X97.545 Y104.899
G0 F3600 X96.909 Y104.829
G1 F1050 X88.669 Y96.589 E47.21185
G1 X88.599 Y96.519
G0 F3600 X88.669 Y97.155
G1 F1050 X96.344 Y104.829 E47.75333
G1 X96.414 Y104.899
G0 F3600 X95.778 Y104.829
G1 F1050 X88.669 Y97.72 E48.25491
G1 X88.599 Y97.65
G0 F3600 X88.669 Y98.286
G1 F1050 X95.212 Y104.829 E48.71655
G1 X95.282 Y104.899
G0 F3600 X94.646 Y104.829
G1 F1050 X88.669 Y98.852 E49.13826
G1 X88.599 Y98.782
G0 F3600 X88.669 Y99.417
G1 F1050 X94.081 Y104.829 E49.52011
G1 X94.151 Y104.899
G0 F3600 X93.515 Y104.829
G1 F1050 X88.669 Y99.983 E49.86202
G1 X88.599 Y99.913
G0 F3600 X88.669 Y100.549
G1 F1050 X92.949 Y104.829 E50.16399
G1 X93.019 Y104.899
G0 F3600 X92.384 Y104.829
M104 S195
G1 F1050 X88.669 Y101.114 E50.42611
G1 X88.599 Y101.044
G0 F3600 X88.669 Y101.68
G1 F1050 X91.818 Y104.829 E50.64829
G1 X91.888 Y104.899
G0 F3600 X91.252 Y104.829
G1 F1050 X88.669 Y102.246 E50.83053
G1 X88.599 Y102.176
G0 F3600 X88.669 Y102.811
G1 F1050 X90.687 Y104.829 E50.97291
G1 X90.757 Y104.899
G0 F3600 X90.121 Y104.829
G1 F1050 X88.669 Y103.377 E51.07536
G1 X88.599 Y103.307
G0 F3600 X88.669 Y103.943
G1 F1050 X89.555 Y104.829 E51.13787
G1 X89.625 Y104.899
G0 F3600 X110.726 Y94.721
G0 X110.743 Y94.623
;TIME_ELAPSED:75.811614
;LAYER:1
M140 S64
M106 S255
G0 F5400 X110.743 Y94.623 Z0.6
;TYPE:WALL-INNER
G1 F1575 X110.977 Y94.686 E51.14996
G1 X111.197 Y94.789 E51.16208
G1 X111.402 Y94.932 E51.17455
G1 X111.568 Y95.098 E51.18626
G1 X111.711 Y95.303 E51.19873
G1 X111.814 Y95.523 E51.21085
G1 X111.877 Y95.756 E51.22289
G1 X111.9 Y96.023 E51.23626
G1 X111.9 Y103.977 E51.63309
G1 X111.877 Y104.244 E51.64646
G1 X111.814 Y104.477 E51.6585
G1 X111.711 Y104.697 E51.67062
G1 X111.568 Y104.902 E51.68309
G1 X111.402 Y105.068 E51.6948
G1 X111.197 Y105.211 E51.70727
G1 X110.977 Y105.314 E51.71939
G1 X110.743 Y105.377 E51.73148
G1 X110.473 Y105.4 E51.745
G1 X89.521 Y105.4 E52.7903
G1 X89.285 Y105.381 E52.80211
G1 X89.066 Y105.329 E52.81334
G1 X88.864 Y105.245 E52.82426
G1 X88.677 Y105.131 E52.83518
G1 X88.512 Y104.988 E52.84608
G1 X88.369 Y104.823 E52.85697
G1 X88.255 Y104.636 E52.8679
G1 X88.171 Y104.434 E52.87881
G1 X88.119 Y104.215 E52.89004
G1 X88.1 Y103.981 E52.90175
G1 X88.1 Y96.023 E53.29878
G1 X88.123 Y95.756 E53.31215
G1 X88.186 Y95.523 E53.32419
G1 X88.289 Y95.303 E53.33631
G1 X88.432 Y95.098 E53.34878
G1 X88.598 Y94.932 E53.36049
G1 X88.803 Y94.789 E53.37296
G1 X89.023 Y94.686 E53.38508
G1 X89.257 Y94.623 E53.39717
G1 X89.527 Y94.6 E53.41069
G1 X110.473 Y94.6 E54.45569
G1 X110.743 Y94.623 E54.46921
G0 F5400 X110.811 Y94.227
;TYPE:WALL-OUTER
G1 F1050 X111.117 Y94.31 E54.48503
G1 X111.396 Y94.44 E54.50038
G1 X111.661 Y94.625 E54.51651
