;FLAVOR:Marlin
;TIME:447
;Filament used: 0.277492m
;Layer height: 0.2
;Generated with Cura_SteamEngine 3.4.1
M190 S65
M104 S210
M109 S210
M82 ;absolute extrusion mode
G21 ;metric values
G90 ;absolute positioning
M82 ;set extruder to absolute mode
M107 ;start with the fan off
G28 X0 Y0 ;move X/Y to min endstops
G28 Z0 ;move Z to min endstops
G1 Z15.0 F9000 ;move the platform down 15mm
G92 E0 ;zero the extruded length
G1 F200 E3 ;extrude 3mm of feed stock
G92 E0 ;zero the extruded length again
G1 F9000
;Put printing message on LCD screen
M117 Printing...
G92 E0
G1 F1500 E-5
;LAYER_COUNT:30
;LAYER:0
M107
G0 F3600 X73.84 Y64.979 Z0.3
;TYPE:SKIRT
G1 F1500 E0
G1 F1050 X74.694 Y64.04 E0.06332
G1 X75.122 Y63.629 E0.09293
G1 X75.407 Y63.408 E0.11092
G1 X76.498 Y62.636 E0.1776
G1 X77.219 Y62.222 E0.21908
G1 X78.264 Y61.747 E0.27635
G1 X78.819 Y61.539 E0.30592
G1 X79.121 Y61.46 E0.32149
G1 X80.399 Y61.173 E0.38684
G1 X80.985 Y61.082 E0.41642
G1 X81.31 Y61.066 E0.43266
G1 X82.637 Y61.05 E0.49887
G1 X83.229 Y61.083 E0.52845
G1 X83.618 Y61.149 E0.54813
G1 X84.93 Y61.432 E0.61509
G1 X85.733 Y61.688 E0.65714
G1 X86.509 Y62.02 E0.69925
G1 X87.173 Y62.374 E0.73679
G1 X88.568 Y63.279 E0.81975
G1 X89.042 Y63.634 E0.8493
G1 X89.414 Y63.995 E0.87516
G1 X90.275 Y64.933 E0.93868
G1 X90.646 Y65.395 E0.96824
G1 X90.892 Y65.793 E0.99159
G1 X91.682 Y67.234 E1.07357
G1 X91.932 Y67.772 E1.10317
G1 X92.059 Y68.156 E1.12335
G1 X92.398 Y69.36 E1.18575
G1 X92.541 Y70.116 E1.22414
G1 X92.643 Y71.138 E1.27538
G1 X92.662 Y71.731 E1.30498
G1 X92.626 Y72.163 E1.32661
G1 X92.408 Y73.78 E1.40801
G1 X92.21 Y74.618 E1.45097
G1 X91.876 Y75.593 E1.50239
G1 X91.534 Y76.349 E1.54378
G1 X91.051 Y77.195 E1.59238
G1 X90.638 Y77.796 E1.62876
G1 X89.899 Y78.701 E1.68706
G1 X89.369 Y79.247 E1.72502
G1 X88.572 Y79.936 E1.77758
G1 X88.129 Y80.272 E1.80532
G1 X87.554 Y80.654 E1.83976
G1 X86.987 Y80.973 E1.87222
G1 X86.281 Y81.304 E1.91112
G1 X85.552 Y81.57 E1.94983
G1 X83.937 Y82.003 E2.03325
G1 X83.356 Y82.118 E2.0628
G1 X82.855 Y82.153 E2.08786
G1 X81.539 Y82.17 E2.15352
G1 X80.947 Y82.137 E2.1831
G1 X80.568 Y82.074 E2.20227
G1 X79.25 Y81.794 E2.26949
G1 X78.439 Y81.538 E2.31192
G1 X77.653 Y81.203 E2.35455
G1 X76.983 Y80.846 E2.39242
G1 X75.584 Y79.938 E2.47563
G1 X75.109 Y79.582 E2.50524
G1 X74.674 Y79.152 E2.53576
G1 X73.707 Y78.052 E2.60883
G1 X73.216 Y77.372 E2.65067
G1 X72.665 Y76.432 E2.70503
G1 X72.4 Y75.901 E2.73464
G1 X72.293 Y75.618 E2.74974
G1 X71.877 Y74.389 E2.81447
G1 X71.725 Y73.816 E2.84404
G1 X71.673 Y73.476 E2.8612
G1 X71.518 Y72.116 E2.92949
G1 X71.491 Y71.524 E2.95906
G1 X71.514 Y71.158 E2.97736
G1 X71.648 Y69.884 E3.04127
G1 X71.75 Y69.3 E3.07084
G1 X71.841 Y68.98 E3.08744
G1 X72.264 Y67.683 E3.1555
G1 X72.485 Y67.133 E3.18508
G1 X72.649 Y66.826 E3.20244
G1 X73.297 Y65.718 E3.26648
G1 X73.63 Y65.227 E3.29608
G1 X73.84 Y64.979 E3.31229
G0 F3600 X74.136 Y65.248
G1 F1050 X74.99 Y64.309 E3.37561
G1 X75.399 Y63.918 E3.40384
G1 X75.639 Y63.735 E3.4189
G1 X76.73 Y62.963 E3.48558
G1 X77.385 Y62.587 E3.52326
G1 X78.43 Y62.112 E3.58053
G1 X79.209 Y61.85 E3.62153
G1 X80.487 Y61.563 E3.68688
G1 X81.315 Y61.466 E3.72847
G1 X82.642 Y61.45 E3.79468
G1 X83.206 Y61.483 E3.82286
G1 X83.533 Y61.54 E3.83942
G1 X84.845 Y61.823 E3.90639
G1 X85.575 Y62.055 E3.9446
G1 X86.351 Y62.387 E3.98671
G1 X86.955 Y62.709 E4.02086
G1 X88.35 Y63.614 E4.10382
G1 X88.801 Y63.955 E4.13203
G1 X89.12 Y64.265 E4.15422
G1 X89.981 Y65.203 E4.21774
G1 X90.333 Y65.646 E4.24597
G1 X90.541 Y65.985 E4.26581
G1 X91.331 Y67.426 E4.3478
G1 X91.568 Y67.94 E4.37604
G1 X91.674 Y68.265 E4.39309
G1 X92.013 Y69.469 E4.4555
G1 X92.143 Y70.156 E4.49038
G1 X92.245 Y71.178 E4.54162
G1 X92.261 Y71.743 E4.56982
G1 X92.229 Y72.109 E4.58815
G1 X92.011 Y73.726 E4.66955
G1 X91.831 Y74.488 E4.70861
G1 X91.497 Y75.463 E4.76003
G1 X91.187 Y76.15 E4.79763
G1 X90.704 Y76.996 E4.84623
G1 X90.328 Y77.543 E4.87935
G1 X89.589 Y78.448 E4.93764
G1 X89.107 Y78.944 E4.97215
G1 X88.31 Y79.633 E5.02471
G1 X87.907 Y79.939 E5.04995
G1 X87.332 Y80.321 E5.08439
G1 X86.817 Y80.611 E5.11388
G1 X86.111 Y80.942 E5.15278
G1 X85.449 Y81.184 E5.18795
G1 X83.834 Y81.617 E5.27136
G1 X83.279 Y81.724 E5.29956
G1 X82.85 Y81.753 E5.32102
G1 X81.534 Y81.77 E5.38668
G1 X80.969 Y81.737 E5.41491
G1 X80.651 Y81.683 E5.431
G1 X79.333 Y81.403 E5.49823
G1 X78.596 Y81.17 E5.53679
G1 X77.81 Y80.835 E5.57942
G1 X77.2 Y80.51 E5.6139
G1 X75.801 Y79.602 E5.69711
G1 X75.35 Y79.262 E5.72529
G1 X74.975 Y78.888 E5.75171
G1 X74.008 Y77.788 E5.82478
G1 X73.561 Y77.17 E5.86283
G1 X73.01 Y76.23 E5.91719
G1 X72.672 Y75.489 E5.95782
G1 X72.256 Y74.26 E6.02256
G1 X72.113 Y73.714 E6.05072
G1 X72.071 Y73.431 E6.06499
G1 X71.916 Y72.071 E6.13328
G1 X71.892 Y71.506 E6.16149
G1 X71.912 Y71.2 E6.17679
G1 X72.046 Y69.926 E6.2407
G1 X72.221 Y69.104 E6.28263
G1 X72.644 Y67.807 E6.35069
G1 X72.857 Y67.283 E6.37891
G1 X72.994 Y67.028 E6.39335
G1 X73.642 Y65.92 E6.45739
G1 X74.136 Y65.248 E6.499
G0 F3600 X74.432 Y65.517
G1 F1050 X75.286 Y64.578 E6.56233
G1 X75.87 Y64.061 E6.60124
G1 X76.961 Y63.289 E6.66792
G1 X77.55 Y62.951 E6.7018
G1 X78.595 Y62.476 E6.75907
G1 X79.296 Y62.24 E6.79597
G1 X80.574 Y61.953 E6.86132
G1 X81.32 Y61.866 E6.89879
G1 X82.647 Y61.85 E6.965
G1 X83.182 Y61.884 E6.99174
G1 X83.449 Y61.931 E7.00527
G1 X84.761 Y62.214 E7.07223
G1 X85.418 Y62.423 E7.10662
G1 X86.194 Y62.755 E7.14873
G1 X86.737 Y63.045 E7.17944
G1 X88.132 Y63.95 E7.2624
G1 X88.559 Y64.274 E7.28915
G1 X88.825 Y64.536 E7.30777
G1 X89.686 Y65.474 E7.3713
G1 X90.018 Y65.895 E7.39804
G1 X90.191 Y66.177 E7.41455
G1 X90.981 Y67.618 E7.49654
G1 X91.203 Y68.107 E7.52333
G1 X91.289 Y68.373 E7.53728
G1 X91.628 Y69.577 E7.59968
G1 X91.745 Y70.195 E7.63106
G1 X91.847 Y71.217 E7.6823
G1 X91.861 Y71.754 E7.7091
G1 X91.833 Y72.056 E7.72423
G1 X91.615 Y73.673 E7.80564
G1 X91.453 Y74.359 E7.8408
G1 X91.119 Y75.334 E7.89222
G1 X90.839 Y75.952 E7.92607
G1 X90.356 Y76.798 E7.97467
G1 X90.018 Y77.29 E8.00445
G1 X89.279 Y78.195 E8.06274
G1 X88.845 Y78.641 E8.09379
G1 X88.048 Y79.33 E8.14635
G1 X87.686 Y79.606 E8.16906
G1 X87.111 Y79.988 E8.2035
G1 X86.647 Y80.249 E8.23006
G1 X85.941 Y80.58 E8.26896
G1 X85.345 Y80.797 E8.30061
G1 X83.73 Y81.23 E8.38402
G1 X83.203 Y81.33 E8.41079
G1 X82.845 Y81.353 E8.42868
G1 X81.529 Y81.37 E8.49434
G1 X80.734 Y81.291 E8.5342
G1 X79.416 Y81.011 E8.60143
G1 X78.753 Y80.802 E8.63611
G1 X77.967 Y80.467 E8.67873
G1 X77.418 Y80.175 E8.70976
G1 X76.019 Y79.267 E8.79297
G1 X75.592 Y78.942 E8.81974
G1 X75.275 Y78.624 E8.84214
G1 X74.308 Y77.524 E8.91521
G1 X73.906 Y76.968 E8.94944
G1 X73.355 Y76.028 E9.0038
G1 X73.051 Y75.361 E9.04037
G1 X72.635 Y74.132 E9.1051
G1 X72.468 Y73.386 E9.14324
G1 X72.313 Y72.026 E9.21153
G1 X72.31 Y71.241 E9.25069
G1 X72.444 Y69.967 E9.3146
G1 X72.601 Y69.228 E9.3523
G1 X73.024 Y67.931 E9.42036
G1 X73.339 Y67.23 E9.4587
G1 X73.987 Y66.122 E9.52274
G1 X74.432 Y65.517 E9.56021
G0 F3600 X74.728 Y65.786
G1 F1050 X75.582 Y64.847 E9.62353
G1 X76.101 Y64.388 E9.6581
G1 X77.192 Y63.616 E9.72478
G1 X77.716 Y63.315 E9.75492
G1 X78.761 Y62.84 E9.81219
G1 X79.384 Y62.631 E9.84498
G1 X80.662 Y62.344 E9.91032
G1 X81.324 Y62.266 E9.94358
G1 X82.651 Y62.25 E10.00979
G1 X83.365 Y62.322 E10.04559
G1 X84.677 Y62.605 E10.11255
G1 X85.261 Y62.791 E10.14313
G1 X86.037 Y63.123 E10.18524
G1 X86.52 Y63.38 E10.21254
G1 X87.915 Y64.285 E10.2955
G1 X88.316 Y64.593 E10.32072
G1 X88.53 Y64.806 E10.33579
G1 X89.391 Y65.744 E10.39931
G1 X89.703 Y66.142 E10.42454
G1 X89.84 Y66.37 E10.43781
G1 X90.63 Y67.811 E10.5198
G1 X90.904 Y68.482 E10.55596
G1 X91.243 Y69.686 E10.61836
G1 X91.347 Y70.235 E10.64624
G1 X91.449 Y71.257 E10.69748
G1 X91.436 Y72.003 E10.7347
G1 X91.218 Y73.62 E10.8161
G1 X91.074 Y74.229 E10.84732
G1 X90.74 Y75.204 E10.89874
G1 X90.492 Y75.754 E10.92884
G1 X90.009 Y76.6 E10.97744
G1 X89.709 Y77.037 E11.00389
G1 X88.97 Y77.942 E11.06218
G1 X88.584 Y78.339 E11.08981
G1 X87.787 Y79.028 E11.14237
G1 X87.465 Y79.272 E11.16252
G1 X86.89 Y79.654 E11.19696
G1 X86.477 Y79.886 E11.2206
G1 X85.771 Y80.217 E11.2595
G1 X85.242 Y80.411 E11.28761
G1 X83.627 Y80.844 E11.37103
G1 X83.13 Y80.936 E11.39624
G1 X82.839 Y80.953 E11.41079
G1 X81.523 Y80.97 E11.47645
G1 X80.817 Y80.9 E11.51184
G1 X79.499 Y80.62 E11.57906
G1 X78.909 Y80.434 E11.60993
G1 X78.123 Y80.099 E11.65255
G1 X77.636 Y79.839 E11.6801
G1 X76.237 Y78.931 E11.76331
G1 X75.836 Y78.623 E11.78853
G1 X75.576 Y78.36 E11.80698
G1 X74.609 Y77.26 E11.88005
G1 X74.251 Y76.765 E11.91053
G1 X73.7 Y75.825 E11.96489
G1 X73.43 Y75.233 E11.99735
G1 X73.014 Y74.004 E12.06208
G1 X72.866 Y73.34 E12.09602
G1 X72.711 Y71.98 E12.16431
G1 X72.708 Y71.283 E12.19909
G1 X72.842 Y70.009 E12.263
G1 X72.982 Y69.352 E12.29651
G1 X73.405 Y68.055 E12.36457
G1 X73.685 Y67.432 E12.39865
G1 X74.333 Y66.324 E12.46269
G1 X74.728 Y65.786 E12.49599
G1 F1500 E7.49599
G1 F180 Z1.3
G0 F3600 X83.845 Y66.301 Z1.3
;TYPE:WALL-INNER
G1 F180 Z0.3
G1 F1500 E12.49599
G1 F1050 X84.776 Y66.714 E12.5468
G1 X84.923 Y66.792 E12.5551
G1 X85.845 Y67.466 E12.61208
G1 X86.583 Y68.286 E12.66712
G1 X86.657 Y68.4 E12.6739
G1 X87.172 Y69.288 E12.72511
G1 X87.235 Y69.457 E12.73411
G1 X87.552 Y70.43 E12.78517
G1 X87.566 Y70.517 E12.78956
G1 X87.677 Y71.591 E12.84343
G1 X87.574 Y72.647 E12.89636
G1 X87.551 Y72.787 E12.90344
G1 X87.238 Y73.754 E12.95415
G1 X87.169 Y73.937 E12.96391
G1 X86.666 Y74.807 E13.01404
G1 X86.58 Y74.937 E13.02182
G1 X85.836 Y75.762 E13.07725
G1 X84.926 Y76.426 E13.13345
G1 X84.766 Y76.51 E13.14246
G1 X83.842 Y76.923 E13.19296
G1 X83.669 Y76.965 E13.20184
G1 X82.66 Y77.178 E13.25329
G1 X81.535 Y77.18 E13.30941
G1 X80.311 Y76.919 E13.37185
G1 X79.38 Y76.506 E13.42266
G1 X79.228 Y76.425 E13.43126
G1 X78.336 Y75.776 E13.48629
G1 X77.577 Y74.937 E13.54274
G1 X77.491 Y74.807 E13.55051
G1 X76.985 Y73.933 E13.6009
G1 X76.919 Y73.756 E13.61032
G1 X76.605 Y72.792 E13.6609
G1 X76.587 Y72.685 E13.66632
G1 X76.481 Y71.675 E13.71698
G1 X76.481 Y71.55 E13.72322
G1 X76.59 Y70.517 E13.77504
G1 X76.605 Y70.435 E13.7792
G1 X76.922 Y69.457 E13.83049
G1 X76.986 Y69.289 E13.83946
G1 X77.499 Y68.4 E13.89067
G1 X77.575 Y68.285 E13.89755
G1 X78.326 Y67.454 E13.95343
G1 X79.23 Y66.794 E14.00927
G1 X79.391 Y66.709 E14.01835
G1 X80.314 Y66.297 E14.06878
G1 X80.494 Y66.253 E14.07802
G1 X81.496 Y66.042 E14.12911
G1 X82.622 Y66.04 E14.18529
G1 X83.845 Y66.301 E14.24768
G0 F3600 X83.815 Y66.396
G0 X83.614 Y69.384
G0 X83.558 Y69.466
G1 F1050 X83.002 Y69.175 E14.27898
G1 X82.392 Y69.025 E14.31032
G1 X81.764 Y69.025 E14.34165
G1 X81.155 Y69.175 E14.37295
G1 X80.599 Y69.466 E14.40425
G1 X80.128 Y69.883 E14.43564
G1 X79.772 Y70.4 E14.46696
G1 X79.549 Y70.988 E14.49833
G1 X79.474 Y71.61 E14.52959
G1 X79.549 Y72.233 E14.56089
G1 X79.772 Y72.821 E14.59227
G1 X80.129 Y73.337 E14.62357
G1 X80.599 Y73.754 E14.65492
G1 X81.154 Y74.045 E14.68618
G1 X81.764 Y74.196 E14.71753
G1 X82.392 Y74.196 E14.74886
G1 X83.003 Y74.045 E14.78026
G1 X83.558 Y73.754 E14.81153
G1 X84.028 Y73.337 E14.84288
G1 X84.384 Y72.821 E14.87415
G1 X84.607 Y72.233 E14.90553
G1 X84.682 Y71.61 E14.93683
G1 X84.607 Y70.988 E14.96809
G1 X84.384 Y70.4 E14.99946
G1 X84.028 Y69.883 E15.03078
G1 X83.558 Y69.466 E15.06213
G0 F3600 X83.614 Y69.384
G0 X83.016 Y69.138
G0 X82.396 Y68.986
G0 X81.76 Y68.986
G0 X81.141 Y69.138
G0 X80.577 Y69.434
G0 X80.099 Y69.857
G0 X79.737 Y70.382
G0 X79.511 Y70.979
G0 X79.468 Y71.336
G0 X79.473 Y72.312
G0 X79.94 Y72.137
;TYPE:WALL-OUTER
G1 F1050 X80.129 Y72.634 E15.08865
G1 X80.43 Y73.07 E15.11509
G1 X80.828 Y73.422 E15.14159
G1 X81.297 Y73.668 E15.16802
G1 X81.813 Y73.796 E15.19454
G1 X82.343 Y73.796 E15.22098
G1 X82.86 Y73.668 E15.24755
G1 X83.329 Y73.422 E15.27398
G1 X83.726 Y73.07 E15.30045
G1 X84.027 Y72.634 E15.32688
G1 X84.216 Y72.137 E15.35341
G1 X84.279 Y71.61 E15.37989
G1 X84.216 Y71.084 E15.40632
G1 X84.027 Y70.587 E15.43284
G1 X83.726 Y70.15 E15.45932
G1 X83.329 Y69.798 E15.48579
G1 X82.859 Y69.552 E15.51225
G1 X82.343 Y69.425 E15.53877
G1 X81.813 Y69.425 E15.56521
G1 X81.298 Y69.552 E15.59167
G1 X80.828 Y69.798 E15.61814
G1 X80.43 Y70.15 E15.64464
G1 X80.129 Y70.587 E15.67112
G1 X79.94 Y71.084 E15.69765
G1 X79.877 Y71.61 E15.72408
G1 X79.94 Y72.137 E15.75055
G0 F3600 X80.011 Y72.324
G0 X79.544 Y72.501
G0 X81.545 Y77.081
G0 X81.493 Y77.58
G1 F1050 X80.455 Y77.364 E15.80345
G1 X80.18 Y77.299 E15.81755
G1 X79.209 Y76.868 E15.87055
G1 X79.019 Y76.767 E15.88128
G1 X78.079 Y76.083 E15.93928
G1 X78.022 Y76.029 E15.9432
G1 X77.255 Y75.176 E16.00043
G1 X77.157 Y75.028 E16.00929
G1 X76.622 Y74.105 E16.06251
G1 X76.544 Y73.895 E16.07369
G1 X76.214 Y72.883 E16.12679
G1 X76.192 Y72.751 E16.13347
G1 X76.081 Y71.698 E16.18629
G1 X76.081 Y71.527 E16.19483
G1 X76.193 Y70.465 E16.2481
G1 X76.216 Y70.337 E16.25459
G1 X76.543 Y69.328 E16.30751
G1 X76.624 Y69.116 E16.31883
G1 X77.152 Y68.2 E16.37158
G1 X77.258 Y68.039 E16.3812
G1 X78.026 Y67.186 E16.43846
G1 X78.073 Y67.143 E16.44164
G1 X79.019 Y66.453 E16.50005
G1 X79.208 Y66.353 E16.51072
G1 X80.183 Y65.918 E16.56399
G1 X80.398 Y65.865 E16.57503
G1 X81.456 Y65.642 E16.62898
G1 X82.664 Y65.64 E16.68924
G1 X83.702 Y65.856 E16.74214
G1 X83.976 Y65.921 E16.75619
G1 X84.947 Y66.352 E16.80919
G1 X85.137 Y66.453 E16.81993
G1 X86.078 Y67.136 E16.87794
G1 X86.131 Y67.187 E16.8816
G1 X86.9 Y68.042 E16.93898
G1 X87.003 Y68.199 E16.94834
G1 X87.535 Y69.116 E17.00124
G1 X87.61 Y69.318 E17.01199
G1 X87.942 Y70.338 E17.0655
G1 X87.964 Y70.475 E17.07242
G1 X88.076 Y71.527 E17.1252
G1 X88.078 Y71.603 E17.129
G1 X87.97 Y72.702 E17.18409
G1 X87.941 Y72.882 E17.19319
G1 X87.614 Y73.893 E17.2462
G1 X87.533 Y74.105 E17.25752
G1 X87.004 Y75.021 E17.31029
G1 X86.898 Y75.181 E17.31987
G1 X86.132 Y76.033 E17.37703
G1 X86.086 Y76.075 E17.38014
G1 X85.137 Y76.767 E17.43873
G1 X84.95 Y76.866 E17.44929
G1 X83.973 Y77.302 E17.50267
G1 X83.758 Y77.355 E17.51371
G1 X82.701 Y77.578 E17.56761
G1 X81.493 Y77.58 E17.62788
G0 F3600 X81.298 Y77.54
G0 X81.403 Y77.051
G0 X81.579 Y76.79
;TYPE:SKIN
G1 F1050 X80.431 Y76.545 E17.68644
G1 X79.551 Y76.155 E17.73446
G1 X79.438 Y76.095 E17.74084
G1 X78.593 Y75.48 E17.79298
G1 X77.887 Y74.699 E17.84551
G1 X77.816 Y74.592 E17.85192
G1 X77.339 Y73.767 E17.89946
G1 X77.287 Y73.627 E17.90691
G1 X76.983 Y72.693 E17.95591
G1 X76.871 Y71.654 E18.00805
G1 X76.871 Y71.572 E18.01214
G1 X76.984 Y70.53 E18.06443
G1 X77.29 Y69.587 E18.11389
G1 X77.338 Y69.46 E18.12067
G1 X77.831 Y68.605 E18.16991
G1 X77.885 Y68.523 E18.1748
G1 X78.586 Y67.747 E18.22698
G1 X79.437 Y67.126 E18.27954
G1 X79.562 Y67.06 E18.28659
G1 X80.443 Y66.667 E18.33472
G1 X81.538 Y66.432 E18.39059
G1 X82.578 Y66.43 E18.44248
G1 X83.725 Y66.675 E18.50099
G1 X84.608 Y67.066 E18.54917
G1 X84.72 Y67.126 E18.55551
G1 X85.579 Y67.754 E18.60859
G1 X86.272 Y68.524 E18.66028
G1 X86.33 Y68.613 E18.66558
G1 X86.818 Y69.454 E18.71409
G1 X86.864 Y69.578 E18.72069
G1 X87.172 Y70.524 E18.77032
G1 X87.285 Y71.591 E18.82385
G1 X87.187 Y72.596 E18.87423
G1 X87.171 Y72.693 E18.87913
G1 X86.873 Y73.616 E18.92752
G1 X86.815 Y73.769 E18.93569
G1 X86.34 Y74.592 E18.98309
G1 X86.271 Y74.697 E18.98936
G1 X85.574 Y75.47 E19.04129
G1 X84.717 Y76.096 E19.09424
G1 X84.606 Y76.154 E19.10048
G1 X83.713 Y76.553 E19.14928
G1 X83.597 Y76.582 E19.15525
G1 X82.618 Y76.788 E19.20516
G1 X81.579 Y76.79 E19.257
G0 F3600 X81.717 Y74.586
G1 F1050 X82.439 Y74.586 E19.29302
G1 X83.142 Y74.412 E19.32915
G1 X83.781 Y74.078 E19.36512
G1 X84.322 Y73.598 E19.4012
G1 X84.731 Y73.004 E19.43718
G1 X84.989 Y72.327 E19.47333
G1 X85.074 Y71.61 E19.50935
G1 X84.989 Y70.894 E19.54532
G1 X84.731 Y70.217 E19.58147
G1 X84.322 Y69.623 E19.61745
G1 X83.781 Y69.142 E19.65356
G1 X83.141 Y68.808 E19.68958
G1 X82.439 Y68.635 E19.72565
G1 X81.717 Y68.635 E19.76167
G1 X81.016 Y68.808 E19.79769
G1 X80.377 Y69.142 E19.83367
G1 X79.834 Y69.622 E19.86982
G1 X79.425 Y70.217 E19.90584
G1 X79.167 Y70.894 E19.94199
G1 X79.082 Y71.61 E19.97796
G1 X79.167 Y72.327 E20.01398
G1 X79.425 Y73.004 E20.05013
G1 X79.835 Y73.598 E20.08614
G1 X80.376 Y74.078 E20.12222
G1 X81.015 Y74.412 E20.15819
G1 X81.717 Y74.586 E20.19427
G0 F3600 X78.805 Y75.411
G1 F1050 X78.466 Y75.072 E20.21819
