;FLAVOR:Marlin
;TIME:12919
;Filament used: 8.6247m
;Layer height: 0.2
;Generated with Cura_SteamEngine 3.4.1
M190 S65
M104 S210
M109 S210
M82 ;absolute extrusion mode
G21 ;metric values
G90 ;absolute positioning
M82 ;set extruder to absolute mode
M107 ;start with the fan off
G28 X0 Y0 ;move X/Y to min endstops
G28 Z0 ;move Z to min endstops
G1 Z15.0 F9000 ;move the platform down 15mm
G92 E0 ;zero the extruded length
G1 F200 E3 ;extrude 3mm of feed stock
G92 E0 ;zero the extruded length again
G1 F9000
;Put printing message on LCD screen
M117 Printing...
G92 E0
G1 F1500 E-5
;LAYER_COUNT:111
;LAYER:0
M107
G0 F3600 X41.006 Y4.301 Z0.3
;TYPE:SKIRT
G1 F1500 E0
G1 F1050 X41.125 Y3.81 E0.02521
G1 X41.319 Y3.343 E0.05043
G1 X41.585 Y2.913 E0.07566
G1 X41.915 Y2.53 E0.10088
G1 X42.302 Y2.204 E0.12613
G1 X42.735 Y1.943 E0.15135
G1 X43.203 Y1.753 E0.17655
G1 X43.696 Y1.64 E0.20178
G1 X44.168 Y1.605 E0.2254
G1 X50.502 Y1.608 E0.5414
G1 X51.005 Y1.648 E0.56658
G1 X51.497 Y1.767 E0.59183
G1 X51.963 Y1.962 E0.61703
G1 X52.393 Y2.228 E0.64226
G1 X52.776 Y2.559 E0.66751
G1 X53.102 Y2.945 E0.69272
G1 X53.346 Y3.346 E0.71614
G1 X56.442 Y9.373 E1.05418
G1 X59.246 Y14.091 E1.32799
G1 X62.289 Y18.611 E1.59984
G1 X65.623 Y23.006 E1.87506
G1 X67.359 Y25.103 E2.01087
G1 X69.905 Y27.972 E2.20224
G1 X165.185 Y131.208 E9.21105
G1 X165.476 Y131.575 E9.23442
G1 X166.268 Y132.736 E9.30454
G1 X166.591 Y133.337 E9.33858
G1 X166.878 Y134.045 E9.37669
G1 X167.025 Y134.504 E9.40074
G1 X167.189 Y135.191 E9.43597
G1 X167.269 Y135.725 E9.46291
G1 X167.349 Y136.946 E9.52396
G1 X167.356 Y137.156 E9.53444
G1 X167.347 Y179.757 E11.65981
G1 X167.336 Y180.025 E11.6732
G1 X167.262 Y180.903 E11.71715
G1 X167.168 Y181.449 E11.74479
G1 X166.944 Y182.3 E11.7887
G1 X166.777 Y182.777 E11.81391
G1 X166.665 Y183.006 E11.82663
G1 X165.998 Y184.241 E11.89666
G1 X165.601 Y184.815 E11.93148
G1 X165.037 Y185.466 E11.97445
G1 X164.635 Y185.855 E12.00236
G1 X163.96 Y186.403 E12.04573
G1 X163.5 Y186.715 E12.07346
G1 X162.751 Y187.132 E12.11623
G1 X162.246 Y187.358 E12.14383
G1 X161.442 Y187.638 E12.18631
G1 X160.903 Y187.775 E12.21405
G1 X160.016 Y187.919 E12.25889
G1 X159.503 Y187.96 E12.28456
G1 X44.165 Y187.972 E18.0388
G1 X43.661 Y187.932 E18.06402
G1 X43.17 Y187.813 E18.08923
G1 X42.703 Y187.619 E18.11446
G1 X42.273 Y187.353 E18.13968
G1 X41.89 Y187.023 E18.1649
G1 X41.564 Y186.636 E18.19015
G1 X41.303 Y186.204 E18.21533
G1 X41.113 Y185.735 E18.24058
G1 X41 Y185.242 E18.26581
G1 X40.965 Y184.772 E18.28932
G1 X40.966 Y4.805 E27.26791
G1 X41.006 Y4.301 E27.29314
G1 F1500 E22.29314
G1 F180 Z1.3
G0 F3600 X49.966 Y10.553 Z1.3
;TYPE:WALL-INNER
G1 F180 Z0.3
G1 F1500 E27.29314
G1 F1050 X50.152 Y11.366 E27.33474
G1 X50.455 Y12.143 E27.37635
G1 X50.871 Y12.866 E27.41797
G1 X51.376 Y13.502 E27.45848
G1 X162.376 Y133.752 E35.62298
G1 X162.796 Y134.283 E35.65675
G1 X163.123 Y134.851 E35.68945
G1 X163.359 Y135.454 E35.72176
G1 X163.506 Y136.1 E35.75481
G1 X163.556 Y136.768 E35.78823
G1 X163.556 Y179.784 E37.93431
G1 X163.488 Y180.557 E37.97302
G1 X163.289 Y181.298 E38.0113
G1 X162.965 Y181.993 E38.04956
G1 X162.522 Y182.626 E38.0881
G1 X161.986 Y183.162 E38.12592
G1 X161.353 Y183.605 E38.16447
G1 X160.658 Y183.929 E38.20272
G1 X159.917 Y184.128 E38.241
G1 X159.138 Y184.196 E38.28001
G1 X44.756 Y184.196 E43.98655
G1 X44.756 Y5.396 E52.90692
G1 X49.906 Y5.396 E53.16386
G1 X49.906 Y9.742 E53.38068
G1 X49.966 Y10.553 E53.42125
G0 F3600 X49.868 Y10.567
G0 X50.419 Y12.16
G0 X50.796 Y12.815
G0 X152.296 Y133.596
G0 X152.346 Y133.682
G1 F1050 X151.834 Y134.044 E53.45253
G1 X151.391 Y134.489 E53.48386
G1 X151.033 Y135.003 E53.51511
G1 X150.768 Y135.574 E53.54652
G1 X150.607 Y136.18 E53.5778
G1 X150.554 Y136.806 E53.60914
G1 X150.611 Y137.431 E53.64045
G1 X150.775 Y138.036 E53.67173
G1 X151.042 Y138.606 E53.70313
G1 X151.404 Y139.118 E53.73441
G1 X151.849 Y139.561 E53.76574
G1 X152.363 Y139.919 E53.79699
G1 X152.934 Y140.184 E53.8284
G1 X153.54 Y140.345 E53.85968
G1 X154.166 Y140.398 E53.89102
G1 X154.791 Y140.341 E53.92233
G1 X155.396 Y140.177 E53.9536
G1 X155.966 Y139.91 E53.98501
G1 X156.478 Y139.548 E54.01629
G1 X156.921 Y139.103 E54.04762
G1 X157.279 Y138.589 E54.07887
G1 X157.544 Y138.018 E54.11027
G1 X157.705 Y137.412 E54.14156
G1 X157.758 Y136.786 E54.1729
G1 X157.701 Y136.161 E54.20421
G1 X157.537 Y135.556 E54.23548
G1 X157.27 Y134.986 E54.26689
G1 X156.908 Y134.474 E54.29817
G1 X156.463 Y134.031 E54.3295
G1 X155.949 Y133.673 E54.36075
G1 X155.378 Y133.408 E54.39215
G1 X154.772 Y133.247 E54.42343
G1 X154.146 Y133.194 E54.45478
G1 X153.521 Y133.251 E54.48609
G1 X152.916 Y133.415 E54.51736
G1 X152.346 Y133.682 E54.54876
G0 F3600 X152.296 Y133.596
G0 X151.361 Y134.464
G0 X150.999 Y134.984
G0 X150.731 Y135.561
G0 X150.6 Y136.056
G0 X148.453 Y156.796
G0 X148.553 Y156.796
G1 F1050 X148.639 Y157.769 E54.5975
G1 X148.892 Y158.712 E54.64621
G1 X149.304 Y159.597 E54.69491
G1 X149.864 Y160.397 E54.74363
G1 X150.555 Y161.088 E54.79238
G1 X151.355 Y161.648 E54.8411
G1 X152.24 Y162.06 E54.8898
G1 X153.183 Y162.313 E54.93851
G1 X154.156 Y162.399 E54.98725
G1 X155.129 Y162.313 E55.03598
G1 X156.072 Y162.06 E55.08469
G1 X156.957 Y161.648 E55.13339
G1 X157.757 Y161.088 E55.18211
G1 X158.448 Y160.397 E55.23086
G1 X159.008 Y159.597 E55.27958
G1 X159.42 Y158.712 E55.32829
G1 X159.673 Y157.769 E55.377
G1 X159.759 Y156.796 E55.42573
G1 X159.673 Y155.823 E55.47446
G1 X159.42 Y154.88 E55.52317
G1 X159.008 Y153.995 E55.57187
G1 X158.448 Y153.195 E55.62059
G1 X157.757 Y152.504 E55.66935
G1 X156.957 Y151.944 E55.71807
G1 X156.072 Y151.532 E55.76677
G1 X155.129 Y151.279 E55.81548
G1 X154.156 Y151.193 E55.86421
G1 X153.183 Y151.279 E55.91294
G1 X152.24 Y151.532 E55.96165
G1 X151.355 Y151.944 E56.01036
G1 X150.555 Y152.504 E56.05908
G1 X149.864 Y153.195 E56.10783
G1 X149.304 Y153.995 E56.15655
G1 X148.892 Y154.88 E56.20525
G1 X148.639 Y155.823 E56.25396
G1 X148.553 Y156.796 E56.30269
G0 F3600 X148.453 Y156.796
G0 X148.535 Y157.35
G0 X152.296 Y173.596
G0 X152.346 Y173.682
G1 F1050 X151.834 Y174.044 E56.33398
G1 X151.391 Y174.489 E56.36531
G1 X151.033 Y175.003 E56.39656
G1 X150.768 Y175.574 E56.42796
G1 X150.607 Y176.18 E56.45924
G1 X150.554 Y176.806 E56.49059
G1 X150.611 Y177.431 E56.5219
G1 X150.775 Y178.036 E56.55317
G1 X151.042 Y178.606 E56.58457
G1 X151.404 Y179.118 E56.61586
G1 X151.849 Y179.561 E56.64718
G1 X152.363 Y179.919 E56.67843
G1 X152.934 Y180.184 E56.70984
G1 X153.54 Y180.345 E56.74112
G1 X154.166 Y180.398 E56.77246
G1 X154.791 Y180.341 E56.80378
G1 X155.396 Y180.177 E56.83505
G1 X155.966 Y179.91 E56.86645
G1 X156.478 Y179.548 E56.89773
G1 X156.921 Y179.103 E56.92906
G1 X157.279 Y178.589 E56.96031
G1 X157.544 Y178.018 E56.99172
G1 X157.705 Y177.412 E57.023
G1 X157.758 Y176.786 E57.05434
G1 X157.701 Y176.161 E57.08565
G1 X157.537 Y175.556 E57.11693
G1 X157.27 Y174.986 E57.14833
G1 X156.908 Y174.474 E57.17961
G1 X156.463 Y174.031 E57.21094
G1 X155.949 Y173.673 E57.24219
G1 X155.378 Y173.408 E57.2736
G1 X154.772 Y173.247 E57.30488
G1 X154.146 Y173.194 E57.33622
G1 X153.521 Y173.251 E57.36753
G1 X152.916 Y173.415 E57.3988
G1 X152.346 Y173.682 E57.43021
G0 F3600 X152.296 Y173.596
G0 X140.176 Y177.404
G0 X140.159 Y177.306
G1 F1050 X141.101 Y177.046 E57.47896
G1 X141.981 Y176.63 E57.52752
G1 X142.779 Y176.066 E57.57627
G1 X143.465 Y175.372 E57.62496
G1 X144.02 Y174.571 E57.67358
G1 X144.42 Y173.712 E57.72085
G1 X144.673 Y172.769 E57.76956
G1 X144.756 Y171.822 E57.81699
G1 X144.756 Y126.857 E60.0603
G1 X144.696 Y126.046 E60.10087
G1 X144.51 Y125.233 E60.14248
G1 X144.207 Y124.456 E60.18409
G1 X143.791 Y123.733 E60.2257
G1 X143.286 Y123.097 E60.26622
G1 X61.253 Y34.228 E66.30007
G1 X60.565 Y33.6 E66.34655
G1 X59.758 Y33.084 E66.39433
G1 X58.875 Y32.714 E66.4421
G1 X57.941 Y32.499 E66.48991
G1 X56.986 Y32.446 E66.53763
G1 X56.035 Y32.557 E66.5854
G1 X55.116 Y32.828 E66.6332
G1 X54.257 Y33.251 E66.68097
G1 X53.483 Y33.815 E66.72875
G1 X52.817 Y34.503 E66.77652
G1 X52.276 Y35.293 E66.82429
G1 X51.879 Y36.165 E66.87209
G1 X51.635 Y37.092 E66.91992
G1 X51.556 Y38.019 E66.96633
G1 X51.556 Y171.822 E73.64179
G1 X51.639 Y172.769 E73.68922
G1 X51.892 Y173.712 E73.73793
G1 X52.304 Y174.597 E73.78663
G1 X52.864 Y175.397 E73.83535
G1 X53.555 Y176.088 E73.8841
G1 X54.355 Y176.648 E73.93282
G1 X55.24 Y177.06 E73.98153
G1 X56.183 Y177.313 E74.03024
G1 X57.13 Y177.396 E74.07766
G1 X139.211 Y177.394 E78.1727
G1 X140.159 Y177.306 E78.2202
G0 F3600 X140.087 Y176.911
;TYPE:WALL-OUTER
G1 F1050 X140.961 Y176.67 E78.26543
G1 X141.779 Y176.283 E78.31058
G1 X142.519 Y175.76 E78.35579
G1 X143.156 Y175.116 E78.40098
G1 X143.672 Y174.371 E78.44619
G1 X144.043 Y173.575 E78.49001
G1 X144.278 Y172.699 E78.53525
G1 X144.356 Y171.805 E78.58003
G1 X144.356 Y126.872 E80.82174
G1 X144.299 Y126.106 E80.86006
G1 X144.127 Y125.351 E80.8987
G1 X143.845 Y124.629 E80.93737
G1 X143.459 Y123.958 E80.97599
G1 X142.982 Y123.357 E81.01427
G1 X60.971 Y34.512 E87.04649
G1 X60.321 Y33.919 E87.09039
G1 X59.572 Y33.44 E87.13475
G1 X58.752 Y33.096 E87.17911
G1 X57.885 Y32.896 E87.2235
G1 X56.998 Y32.847 E87.26782
G1 X56.115 Y32.95 E87.31217
G1 X55.262 Y33.202 E87.35655
G1 X54.465 Y33.595 E87.40088
G1 X53.746 Y34.118 E87.44524
G1 X53.128 Y34.757 E87.48959
G1 X52.626 Y35.49 E87.53391
G1 X52.257 Y36.3 E87.57832
G1 X52.031 Y37.16 E87.62268
G1 X51.956 Y38.036 E87.66654
G1 X51.956 Y171.805 E94.34031
G1 X52.034 Y172.699 E94.38508
G1 X52.269 Y173.575 E94.43033
G1 X52.652 Y174.396 E94.47552
G1 X53.172 Y175.139 E94.52077
G1 X53.813 Y175.78 E94.566
G1 X54.556 Y176.3 E94.61124
G1 X55.377 Y176.683 E94.65644
G1 X56.253 Y176.918 E94.70169
G1 X57.147 Y176.996 E94.74646
G1 X139.192 Y176.994 E98.8397
G1 X140.087 Y176.911 E98.88454
G0 F3600 X140.279 Y176.858
G0 X140.41 Y177.34
G0 X152.261 Y173.621
G0 X152.548 Y174.029
G1 F1050 X152.093 Y174.351 E98.91235
G1 X151.699 Y174.746 E98.94019
G1 X151.381 Y175.203 E98.96796
G1 X151.146 Y175.71 E98.99584
G1 X151.003 Y176.249 E99.02366
G1 X150.956 Y176.805 E99.0515
G1 X151.006 Y177.36 E99.0793
G1 X151.152 Y177.898 E99.10711
G1 X151.389 Y178.404 E99.13499
G1 X151.711 Y178.859 E99.1628
G1 X152.106 Y179.253 E99.19063
G1 X152.563 Y179.571 E99.21841
G1 X153.07 Y179.806 E99.24629
G1 X153.609 Y179.949 E99.27411
G1 X154.165 Y179.996 E99.30195
G1 X154.72 Y179.946 E99.32975
G1 X155.258 Y179.8 E99.35756
G1 X155.764 Y179.563 E99.38544
G1 X156.219 Y179.241 E99.41325
G1 X156.613 Y178.846 E99.44108
G1 X156.931 Y178.389 E99.46886
G1 X157.166 Y177.882 E99.49674
G1 X157.309 Y177.343 E99.52456
G1 X157.356 Y176.787 E99.5524
G1 X157.306 Y176.232 E99.5802
G1 X157.16 Y175.694 E99.60801
G1 X156.923 Y175.188 E99.63589
G1 X156.601 Y174.733 E99.6637
G1 X156.206 Y174.339 E99.69153
G1 X155.749 Y174.021 E99.71931
G1 X155.242 Y173.786 E99.74719
G1 X154.703 Y173.643 E99.77501
G1 X154.147 Y173.596 E99.80284
G1 X153.592 Y173.646 E99.83065
G1 X153.054 Y173.792 E99.85846
G1 X152.548 Y174.029 E99.88633
G0 F3600 X152.385 Y174.144
G0 X152.098 Y173.736
G0 X148.6 Y157.775
G0 X148.513 Y156.796
G0 X148.6 Y155.817
G0 X148.855 Y154.867
G0 X149.27 Y153.976
G0 X149.834 Y153.17
G0 X150.53 Y152.474
G0 X151.336 Y151.91
G0 X151.84 Y151.676
G0 X153.209 Y151.177
G0 X153.253 Y151.674
G1 F1050 X152.377 Y151.909 E99.93158
G1 X151.556 Y152.292 E99.97678
G1 X150.813 Y152.812 E100.02203
G1 X150.172 Y153.453 E100.06725
G1 X149.652 Y154.196 E100.1125
G1 X149.269 Y155.017 E100.15769
G1 X149.034 Y155.893 E100.20294
G1 X148.955 Y156.796 E100.24817
G1 X149.034 Y157.699 E100.29339
G1 X149.269 Y158.575 E100.33864
G1 X149.652 Y159.396 E100.38384
G1 X150.172 Y160.139 E100.42908
G1 X150.813 Y160.78 E100.47431
G1 X151.556 Y161.3 E100.51955
G1 X152.377 Y161.683 E100.56475
G1 X153.253 Y161.918 E100.61
G1 X154.156 Y161.997 E100.65522
G1 X155.059 Y161.918 E100.70044
G1 X155.935 Y161.683 E100.74569
G1 X156.756 Y161.3 E100.79089
G1 X157.499 Y160.78 E100.83614
G1 X158.14 Y160.139 E100.88136
G1 X158.66 Y159.396 E100.92661
G1 X159.043 Y158.575 E100.9718
G1 X159.278 Y157.699 E101.01705
G1 X159.357 Y156.796 E101.06228
G1 X159.278 Y155.893 E101.1075
G1 X159.043 Y155.017 E101.15275
G1 X158.66 Y154.196 E101.19795
G1 X158.14 Y153.453 E101.24319
G1 X157.499 Y152.812 E101.28842
G1 X156.756 Y152.292 E101.33366
G1 X155.935 Y151.909 E101.37886
G1 X155.059 Y151.674 E101.42411
G1 X154.156 Y151.595 E101.46933
G1 X153.253 Y151.674 E101.51455
G0 F3600 X153.06 Y151.725
G0 X152.932 Y151.243
G0 X150.572 Y137.438
G0 X150.514 Y136.806
G0 X150.568 Y136.174
G0 X150.731 Y135.561
G0 X150.999 Y134.984
G0 X151.291 Y134.563
G0 X152.261 Y133.621
G0 X152.548 Y134.029
G1 F1050 X152.093 Y134.351 E101.54236
G1 X151.699 Y134.746 E101.5702
G1 X151.381 Y135.203 E101.59797
G1 X151.146 Y135.71 E101.62585
G1 X151.003 Y136.249 E101.65367
G1 X150.956 Y136.805 E101.68151
G1 X151.006 Y137.36 E101.70931
G1 X151.152 Y137.898 E101.73713
G1 X151.389 Y138.404 E101.765
G1 X151.711 Y138.859 E101.79281
G1 X152.106 Y139.253 E101.82065
G1 X152.563 Y139.571 E101.84842
G1 X153.07 Y139.806 E101.8763
G1 X153.609 Y139.949 E101.90412
G1 X154.165 Y139.996 E101.93196
G1 X154.72 Y139.946 E101.95976
G1 X155.258 Y139.8 E101.98757
G1 X155.764 Y139.563 E102.01545
G1 X156.219 Y139.241 E102.04326
G1 X156.613 Y138.846 E102.07109
G1 X156.931 Y138.389 E102.09887
G1 X157.166 Y137.882 E102.12675
G1 X157.309 Y137.343 E102.15457
G1 X157.356 Y136.787 E102.18241
G1 X157.306 Y136.232 E102.21021
G1 X157.16 Y135.694 E102.23802
G1 X156.923 Y135.188 E102.2659
G1 X156.601 Y134.733 E102.29371
G1 X156.206 Y134.339 E102.32154
G1 X155.749 Y134.021 E102.34932
G1 X155.242 Y133.786 E102.3772
G1 X154.703 Y133.643 E102.40502
G1 X154.147 Y133.596 E102.43286
G1 X153.592 Y133.646 E102.46066
G1 X153.054 Y133.792 E102.48847
G1 X152.548 Y134.029 E102.51634
G0 F3600 X152.385 Y134.144
G0 X152.098 Y133.736
G0 X143.316 Y123.071
G0 X50.838 Y12.888
G0 X50.461 Y12.233
G0 X49.875 Y10.604
G0 X50.363 Y10.493
G1 F1050 X50.535 Y11.248 E102.55498
G1 X50.817 Y11.97 E102.59365
G1 X51.203 Y12.641 E102.63227
G1 X51.68 Y13.242 E102.67055
G1 X162.683 Y133.495 E110.83525
G1 X163.128 Y134.057 E110.87102
G1 X163.483 Y134.675 E110.90657
G1 X163.743 Y135.339 E110.94215
G1 X163.903 Y136.041 E110.97807
G1 X163.956 Y136.751 E111.01359
G1 X163.956 Y179.796 E113.16111
G1 X163.883 Y180.628 E113.20278
G1 X163.665 Y181.439 E113.24468
G1 X163.314 Y182.192 E113.28613
G1 X162.829 Y182.885 E113.32833
G1 X162.245 Y183.469 E113.36953
G1 X161.552 Y183.954 E113.41173
G1 X160.799 Y184.305 E113.45318
G1 X159.988 Y184.523 E113.49508
G1 X159.15 Y184.596 E113.53704
G1 X44.356 Y184.596 E119.26414
G1 X44.356 Y4.996 E128.22442
G1 X50.306 Y4.996 E128.52127
G1 X50.306 Y9.727 E128.7573
G1 X50.363 Y10.493 E128.79562
G0 F3600 X50.407 Y10.688
G0 X49.92 Y10.798
G0 X49.58 Y10.611
;TYPE:SKIN
G1 F1050 X49.778 Y11.481 E128.84013
G1 X50.102 Y12.312 E128.88463
G1 X50.547 Y13.086 E128.92917
G1 X51.08 Y13.756 E128.97189
G1 X162.085 Y134.013 E137.13681
G1 X162.472 Y134.502 E137.16792
G1 X162.771 Y135.023 E137.19789
G1 X162.986 Y135.57 E137.22721
G1 X163.12 Y136.162 E137.25749
G1 X163.166 Y136.768 E137.28781
G1 X163.166 Y179.777 E139.43354
G1 X163.103 Y180.491 E139.4693
G1 X162.923 Y181.162 E139.50396
G1 X162.629 Y181.793 E139.53869
G1 X162.216 Y182.382 E139.57458
G1 X161.742 Y182.856 E139.60802
G1 X161.153 Y183.269 E139.64391
G1 X160.528 Y183.56 E139.67831
G1 X159.844 Y183.744 E139.71364
G1 X159.128 Y183.806 E139.7495
G1 X45.146 Y183.806 E145.43608
G1 X45.146 Y5.786 E154.31754
G1 X49.516 Y5.786 E154.53556
G1 X49.516 Y9.756 E154.73362
G1 X49.58 Y10.611 E154.7764
G0 F3600 X55.957 Y32.173
G1 F1050 X54.974 Y32.463 E154.82753
G1 X54.054 Y32.916 E154.87869
G1 X53.226 Y33.52 E154.92982
G1 X52.514 Y34.255 E154.98088
G1 X51.935 Y35.1 E155.03198
G1 X51.51 Y36.034 E155.08318
G1 X51.249 Y37.025 E155.1343
G1 X51.166 Y38.002 E155.18322
G1 X51.166 Y171.839 E161.86038
G1 X51.253 Y172.837 E161.91036
G1 X51.524 Y173.846 E161.96248
G1 X51.965 Y174.792 E162.01455
G1 X52.564 Y175.649 E162.06672
G1 X53.303 Y176.388 E162.11886
G1 X54.16 Y176.987 E162.17102
G1 X55.106 Y177.428 E162.22309
G1 X56.115 Y177.699 E162.27522
G1 X57.113 Y177.786 E162.3252
G1 X139.229 Y177.784 E166.42198
