;FLAVOR:Marlin
;TIME:493
;Filament used: 0.437582m
;Layer height: 0.3
;Generated with Cura_SteamEngine 3.4.1
M190 S64
M104 S200
M109 S200
M82 ;absolute extrusion mode
G21 ;metric values
G90 ;absolute positioning
M82 ;set extruder to absolute mode
M107 ;start with the fan off
G28 X0 Y0 ;move X/Y to min endstops
G28 Z0 ;move Z to min endstops
G1 Z15.0 F9000 ;move the platform down 15mm
G92 E0 ;zero the extruded length
G1 F200 E3 ;extrude 3mm of feed stock
G92 E0 ;zero the extruded length again
G1 F9000
;Put printing message on LCD screen
M117 Printing...
G92 E0
G1 F1500 E-5
;LAYER_COUNT:37
;LAYER:0
M107
G0 F3600 X84.917 Y89.081 Z0.3
;TYPE:SKIRT
G1 F1500 E0
G1 F1050 X85.451 Y88.618 E0.03526
G1 X85.903 Y88.279 E0.06345
G1 X86.321 Y88.043 E0.0874
G1 X86.619 Y87.898 E0.10393
G1 X87.143 Y87.687 E0.13211
G1 X87.565 Y87.577 E0.15387
G1 X88.194 Y87.448 E0.1859
G1 X88.997 Y87.366 E0.22617
G1 X110.066 Y87.359 E1.27731
G1 X110.71 Y87.411 E1.30955
G1 X111.367 Y87.518 E1.34276
G1 X111.917 Y87.648 E1.37095
G1 X112.663 Y87.968 E1.41145
G1 X113.289 Y88.315 E1.44716
G1 X113.763 Y88.623 E1.47536
G1 X114.141 Y88.948 E1.50023
G1 X114.374 Y89.175 E1.51646
G1 X114.75 Y89.597 E1.54466
G1 X115.014 Y89.984 E1.56803
G1 X115.38 Y90.595 E1.60356
G1 X115.636 Y91.1 E1.63181
G1 X115.818 Y91.635 E1.66
G1 X115.884 Y91.934 E1.67528
G1 X116.011 Y92.631 E1.71063
G1 X116.076 Y93.356 E1.74694
G1 X116.06 Y101.566 E2.15654
G1 X116.019 Y102.13 E2.18475
G1 X115.891 Y102.707 E2.21424
G1 X115.678 Y103.417 E2.25122
G1 X115.478 Y103.946 E2.27944
G1 X115.205 Y104.441 E2.30764
G1 X114.992 Y104.74 E2.32595
G1 X114.533 Y105.324 E2.36301
G1 X114.153 Y105.742 E2.39119
G1 X113.718 Y106.103 E2.4194
G1 X113.442 Y106.285 E2.43589
G1 X112.852 Y106.638 E2.47019
G1 X112.347 Y106.893 E2.49842
G1 X111.885 Y107.054 E2.52283
G1 X111.531 Y107.154 E2.54118
G1 X110.978 Y107.269 E2.56936
G1 X110.45 Y107.305 E2.59576
G1 X89.002 Y107.335 E3.66581
G1 X88.438 Y107.296 E3.69401
G1 X87.976 Y107.203 E3.71752
G1 X87.161 Y106.988 E3.75957
G1 X86.626 Y106.805 E3.78778
G1 X86.122 Y106.549 E3.81599
G1 X85.828 Y106.354 E3.83359
G1 X85.325 Y105.988 E3.86462
G1 X84.892 Y105.624 E3.89284
G1 X84.515 Y105.203 E3.92104
G1 X84.278 Y104.861 E3.9418
G1 X83.799 Y104.088 E3.98717
G1 X83.536 Y103.588 E4.01535
G1 X83.32 Y102.959 E4.04853
G1 X83.263 Y102.733 E4.06016
G1 X83.164 Y102.177 E4.08834
G1 X83.142 Y101.784 E4.10797
G1 X83.086 Y94.051 E4.49378
G1 X83.099 Y93.705 E4.51106
G1 X83.198 Y92.461 E4.57332
G1 X83.282 Y91.902 E4.60152
G1 X83.445 Y91.36 E4.62976
G1 X83.638 Y90.928 E4.65336
G1 X83.99 Y90.253 E4.69134
G1 X84.286 Y89.772 E4.71952
G1 X84.648 Y89.337 E4.74775
G1 X84.917 Y89.081 E4.76628
G0 F3600 X85.179 Y89.383
G1 F1050 X85.713 Y88.92 E4.80154
G1 X86.143 Y88.6 E4.82828
G1 X86.496 Y88.403 E4.84845
G1 X86.794 Y88.258 E4.86498
G1 X87.292 Y88.06 E4.89172
G1 X87.646 Y87.968 E4.90997
G1 X88.275 Y87.839 E4.942
G1 X88.997 Y87.766 E4.97821
G1 X110.066 Y87.759 E6.02934
G1 X110.646 Y87.806 E6.05837
G1 X111.303 Y87.913 E6.09158
G1 X111.824 Y88.038 E6.11831
G1 X112.469 Y88.317 E6.15338
G1 X113.095 Y88.664 E6.18908
G1 X113.544 Y88.959 E6.21589
G1 X113.862 Y89.234 E6.23686
G1 X114.095 Y89.461 E6.25309
G1 X114.45 Y89.863 E6.27985
G1 X114.671 Y90.19 E6.29954
G1 X115.037 Y90.801 E6.33507
G1 X115.278 Y91.28 E6.36182
G1 X115.491 Y92.006 E6.39957
G1 X115.618 Y92.703 E6.43492
G1 X115.676 Y93.355 E6.46757
G1 X115.66 Y101.565 E6.87717
G1 X115.619 Y102.1 E6.90394
G1 X115.508 Y102.592 E6.9291
G1 X115.295 Y103.302 E6.96609
G1 X115.103 Y103.803 E6.99285
G1 X114.839 Y104.27 E7.01962
G1 X114.677 Y104.493 E7.03337
G1 X114.218 Y105.077 E7.07043
G1 X113.857 Y105.472 E7.09712
G1 X113.236 Y105.941 E7.13595
G1 X112.646 Y106.294 E7.17025
G1 X112.167 Y106.535 E7.197
G1 X111.777 Y106.669 E7.21758
G1 X111.423 Y106.769 E7.23593
G1 X110.897 Y106.876 E7.26271
G1 X110.449 Y106.905 E7.2851
G1 X89.001 Y106.935 E8.35515
G1 X88.466 Y106.896 E8.38191
G1 X88.078 Y106.816 E8.40168
G1 X87.263 Y106.601 E8.44373
G1 X86.756 Y106.426 E8.47049
G1 X86.063 Y106.031 E8.51028
G1 X85.56 Y105.665 E8.54132
G1 X85.151 Y105.318 E8.56808
G1 X84.798 Y104.914 E8.59484
G1 X84.618 Y104.65 E8.61079
G1 X84.139 Y103.877 E8.65615
G1 X83.891 Y103.402 E8.68289
G1 X83.708 Y102.861 E8.71138
G1 X83.651 Y102.635 E8.72301
G1 X83.559 Y102.107 E8.74975
G1 X83.542 Y101.781 E8.76603
G1 X83.486 Y94.048 E9.15185
G1 X83.497 Y93.736 E9.16742
G1 X83.596 Y92.492 E9.22968
G1 X83.679 Y91.962 E9.25644
G1 X83.839 Y91.451 E9.28316
G1 X83.993 Y91.113 E9.30169
G1 X84.345 Y90.438 E9.33967
G1 X84.628 Y89.983 E9.3664
G1 X84.975 Y89.574 E9.39316
G1 X85.179 Y89.383 E9.4071
G0 F3600 X85.441 Y89.685
G1 F1050 X85.975 Y89.222 E9.44236
G1 X86.382 Y88.922 E9.46759
G1 X86.671 Y88.763 E9.48405
G1 X86.969 Y88.618 E9.50058
G1 X87.44 Y88.433 E9.52583
G1 X87.726 Y88.36 E9.54055
G1 X88.355 Y88.231 E9.57259
G1 X88.997 Y88.166 E9.60478
G1 X110.066 Y88.159 E10.65592
G1 X110.581 Y88.201 E10.68169
G1 X111.238 Y88.308 E10.7149
G1 X111.729 Y88.428 E10.74012
G1 X112.275 Y88.667 E10.76986
G1 X112.901 Y89.014 E10.80557
G1 X113.323 Y89.293 E10.8308
G1 X113.583 Y89.521 E10.84806
G1 X113.816 Y89.748 E10.86429
G1 X114.149 Y90.128 E10.88949
G1 X114.328 Y90.396 E10.90557
G1 X114.694 Y91.007 E10.94111
G1 X114.919 Y91.459 E10.9663
G1 X115.097 Y92.077 E10.99838
G1 X115.224 Y92.774 E11.03373
G1 X115.276 Y93.354 E11.06278
G1 X115.26 Y101.564 E11.47238
G1 X115.219 Y102.068 E11.49761
G1 X115.125 Y102.478 E11.51859
G1 X114.912 Y103.188 E11.55557
G1 X114.729 Y103.659 E11.58078
G1 X114.363 Y104.245 E11.61525
G1 X113.904 Y104.829 E11.65231
G1 X113.561 Y105.201 E11.67756
G1 X113.031 Y105.598 E11.71059
G1 X112.441 Y105.951 E11.74489
G1 X111.988 Y106.176 E11.77013
G1 X111.668 Y106.284 E11.78698
G1 X111.314 Y106.384 E11.80533
G1 X110.818 Y106.483 E11.83056
G1 X110.448 Y106.505 E11.84906
G1 X89 Y106.535 E12.9191
G1 X88.496 Y106.496 E12.94432
G1 X88.18 Y106.429 E12.96044
G1 X87.365 Y106.214 E13.00249
G1 X86.888 Y106.047 E13.0277
G1 X86.298 Y105.708 E13.06165
G1 X85.795 Y105.342 E13.09269
G1 X85.411 Y105.013 E13.11791
G1 X84.958 Y104.44 E13.15436
G1 X84.479 Y103.667 E13.19972
G1 X84.247 Y103.217 E13.22498
G1 X84.096 Y102.764 E13.24881
G1 X84.039 Y102.538 E13.26043
G1 X83.955 Y102.039 E13.28568
G1 X83.942 Y101.778 E13.29872
G1 X83.886 Y94.045 E13.68453
G1 X83.896 Y93.768 E13.69836
G1 X83.995 Y92.524 E13.76062
G1 X84.075 Y92.025 E13.78583
G1 X84.232 Y91.544 E13.81107
G1 X84.348 Y91.298 E13.82464
G1 X84.7 Y90.623 E13.86262
G1 X84.968 Y90.195 E13.88782
G1 X85.441 Y89.685 E13.92252
G1 F1500 E8.92252
G1 F180 Z1.3
G0 F3600 X110.329 Y91.972 Z1.3
;TYPE:WALL-INNER
G1 F180 Z0.3
G1 F1500 E13.92252
G1 F1050 X110.565 Y92.035 E13.9347
G1 X110.784 Y92.138 E13.94678
G1 X110.989 Y92.282 E13.95928
G1 X111.155 Y92.447 E13.97095
G1 X111.298 Y92.652 E13.98342
G1 X111.401 Y92.873 E13.99559
G1 X111.463 Y93.103 E14.00747
G1 X111.486 Y93.371 E14.02089
G1 X111.486 Y101.326 E14.41777
G1 X111.463 Y101.593 E14.43114
G1 X111.401 Y101.825 E14.44312
G1 X111.299 Y102.043 E14.45513
G1 X111.153 Y102.252 E14.46785
G1 X110.988 Y102.417 E14.47949
G1 X110.783 Y102.561 E14.49199
G1 X110.562 Y102.664 E14.50415
G1 X110.33 Y102.726 E14.51613
G1 X110.067 Y102.749 E14.5293
G1 X89.108 Y102.749 E15.57495
G1 X88.871 Y102.73 E15.58681
G1 X88.654 Y102.678 E15.59795
G1 X88.449 Y102.593 E15.60902
G1 X88.266 Y102.482 E15.6197
G1 X88.098 Y102.337 E15.63077
G1 X87.952 Y102.167 E15.64195
G1 X87.839 Y101.982 E15.65276
G1 X87.758 Y101.788 E15.66325
G1 X87.705 Y101.564 E15.67474
G1 X87.686 Y101.33 E15.68645
G1 X87.686 Y93.368 E16.08367
G1 X87.709 Y93.107 E16.09675
G1 X87.772 Y92.873 E16.10884
G1 X87.875 Y92.652 E16.121
G1 X88.018 Y92.447 E16.13347
G1 X88.186 Y92.28 E16.14529
G1 X88.389 Y92.138 E16.15765
G1 X88.606 Y92.036 E16.16961
G1 X88.844 Y91.972 E16.18191
G1 X89.113 Y91.949 E16.19538
G1 X110.059 Y91.949 E17.24038
G1 X110.329 Y91.972 E17.2539
G0 F3600 X110.398 Y91.576
;TYPE:WALL-OUTER
G1 F1050 X110.702 Y91.657 E17.26959
G1 X110.984 Y91.79 E17.28515
G1 X111.244 Y91.972 E17.30098
G1 X111.464 Y92.191 E17.31647
G1 X111.647 Y92.453 E17.33241
G1 X111.777 Y92.732 E17.34777
G1 X111.859 Y93.037 E17.36352
G1 X111.886 Y93.349 E17.37915
G1 X111.886 Y101.349 E17.77827
G1 X111.859 Y101.66 E17.79384
G1 X111.777 Y101.966 E17.80965
G1 X111.647 Y102.245 E17.825
G1 X111.462 Y102.509 E17.84109
G1 X111.247 Y102.724 E17.85626
G1 X110.984 Y102.908 E17.87227
G1 X110.702 Y103.04 E17.8878
G1 X110.399 Y103.121 E17.90345
G1 X110.079 Y103.149 E17.91948
G1 X89.09 Y103.149 E18.96662
G1 X88.81 Y103.127 E18.98064
G1 X88.53 Y103.06 E18.995
G1 X88.269 Y102.951 E19.00911
G1 X88.028 Y102.804 E19.02319
G1 X87.814 Y102.621 E19.03724
G1 X87.629 Y102.405 E19.05143
G1 X87.483 Y102.167 E19.06536
G1 X87.376 Y101.909 E19.0793
G1 X87.308 Y101.625 E19.09387
G1 X87.286 Y101.349 E19.10768
G1 X87.286 Y93.356 E19.50645
G1 X87.314 Y93.036 E19.52248
G1 X87.396 Y92.732 E19.53819
G1 X87.526 Y92.453 E19.55354
G1 X87.709 Y92.191 E19.56949
G1 X87.929 Y91.972 E19.58497
G1 X88.188 Y91.79 E19.60077
G1 X88.471 Y91.657 E19.61637
G1 X88.775 Y91.576 E19.63206
G1 X89.091 Y91.549 E19.64788
G1 X110.081 Y91.549 E20.69508
G1 X110.398 Y91.576 E20.71095
G0 F3600 X110.591 Y91.627
G0 X110.429 Y92.402
;TYPE:SKIN
G1 F1050 X110.586 Y92.477 E20.71963
G1 X110.739 Y92.584 E20.72895
G1 X110.856 Y92.701 E20.7372
G1 X110.961 Y92.851 E20.74634
G1 X111.033 Y93.005 E20.75482
G1 X111.079 Y93.172 E20.76346
G1 X111.096 Y93.371 E20.77342
G1 X111.096 Y101.326 E21.1703
G1 X111.079 Y101.52 E21.18002
G1 X111.033 Y101.692 E21.1889
G1 X110.961 Y101.844 E21.19729
G1 X110.847 Y102.008 E21.20726
G1 X110.744 Y102.111 E21.21452
G1 X110.58 Y102.226 E21.22452
G1 X110.428 Y102.297 E21.23289
G1 X110.262 Y102.341 E21.24145
G1 X110.057 Y102.359 E21.25172
G1 X89.115 Y102.359 E22.29652
G1 X88.935 Y102.344 E22.30553
G1 X88.776 Y102.307 E22.31368
G1 X88.625 Y102.244 E22.32184
G1 X88.496 Y102.165 E22.32939
G1 X88.375 Y102.061 E22.33735
G1 X88.269 Y101.937 E22.34549
G1 X88.189 Y101.806 E22.35314
G1 X88.131 Y101.668 E22.36061
G1 X88.09 Y101.495 E22.36948
G1 X88.076 Y101.33 E22.37774
G1 X88.076 Y93.371 E22.77482
G1 X88.094 Y93.175 E22.78464
G1 X88.14 Y93.005 E22.79343
G1 X88.212 Y92.851 E22.80191
G1 X88.317 Y92.7 E22.81108
G1 X88.436 Y92.582 E22.81944
G1 X88.588 Y92.475 E22.82872
G1 X88.739 Y92.404 E22.83704
G1 X88.917 Y92.356 E22.84624
G1 X89.122 Y92.339 E22.8565
G1 X110.05 Y92.339 E23.9006
G1 X110.257 Y92.356 E23.91097
G1 X110.429 Y92.402 E23.91985
G0 F3600 X110.056 Y92.519
G1 F1050 X110.915 Y93.379 E23.98049
G1 X110.985 Y93.449
G0 F3600 X110.915 Y93.944
G1 F1050 X109.489 Y92.518 E24.0811
G1 X109.419 Y92.448
G0 F3600 X108.923 Y92.518
G1 F1050 X110.915 Y94.51 E24.22165
G1 X110.985 Y94.58
G0 F3600 X110.915 Y95.076
G1 F1050 X108.357 Y92.518 E24.40213
G1 X108.287 Y92.448
G0 F3600 X107.792 Y92.518
G1 F1050 X110.915 Y95.641 E24.62247
G1 X110.985 Y95.711
G0 F3600 X110.915 Y96.207
G1 F1050 X107.226 Y92.518 E24.88275
G1 X107.156 Y92.448
G0 F3600 X106.66 Y92.518
G1 F1050 X110.915 Y96.773 E25.18297
G1 X110.985 Y96.843
G0 F3600 X110.915 Y97.338
G1 F1050 X106.095 Y92.518 E25.52304
G1 X106.025 Y92.448
G0 F3600 X105.529 Y92.518
G1 F1050 X110.915 Y97.904 E25.90306
G1 X110.985 Y97.974
G0 F3600 X110.915 Y98.47
G1 F1050 X104.963 Y92.518 E26.323
G1 X104.893 Y92.448
G0 F3600 X104.397 Y92.518
G1 F1050 X110.915 Y99.035 E26.78285
G1 X110.985 Y99.105
G0 F3600 X110.915 Y99.601
G1 F1050 X103.832 Y92.518 E27.28259
G1 X103.762 Y92.448
G0 F3600 X103.266 Y92.518
G1 F1050 X110.915 Y100.167 E27.82227
G1 X110.985 Y100.237
G0 F3600 X110.915 Y100.733
G1 F1050 X102.7 Y92.518 E28.40188
G1 X102.63 Y92.448
G0 F3600 X102.135 Y92.518
G1 F1050 X110.915 Y101.298 E29.02136
G1 X110.985 Y101.368
G0 F3600 X110.803 Y101.752
G1 F1050 X101.569 Y92.518 E29.67287
G1 X101.499 Y92.448
G0 F3600 X101.003 Y92.518
G1 F1050 X110.527 Y102.041 E30.3448
G1 X110.597 Y102.111
G0 F3600 X110.093 Y102.174
G1 F1050 X100.438 Y92.518 E31.02605
G1 X100.368 Y92.448
G0 F3600 X99.872 Y92.518
G1 F1050 X109.532 Y102.178 E31.70761
G1 X109.602 Y102.248
G0 F3600 X108.966 Y102.178
G1 F1050 X99.306 Y92.518 E32.38918
G1 X99.236 Y92.448
G0 F3600 X98.741 Y92.518
G1 F1050 X108.4 Y102.178 E33.07071
G1 X108.47 Y102.248
G0 F3600 X107.835 Y102.178
G1 F1050 X98.175 Y92.518 E33.75227
G1 X98.105 Y92.448
G0 F3600 X97.609 Y92.518
G1 F1050 X107.269 Y102.178 E34.43384
G1 X107.339 Y102.248
G0 F3600 X106.703 Y102.178
G1 F1050 X97.044 Y92.518 E35.11537
G1 X96.974 Y92.448
G0 F3600 X96.478 Y92.518
G1 F1050 X106.138 Y102.178 E35.79693
G1 X106.208 Y102.248
G0 F3600 X105.572 Y102.178
G1 F1050 X95.912 Y92.518 E36.4785
G1 X95.842 Y92.448
G0 F3600 X95.346 Y92.518
G1 F1050 X105.006 Y102.178 E37.16006
G1 X105.076 Y102.248
G0 F3600 X104.441 Y102.178
G1 F1050 X94.781 Y92.518 E37.84163
G1 X94.711 Y92.448
G0 F3600 X94.215 Y92.518
G1 F1050 X103.875 Y102.178 E38.52319
G1 X103.945 Y102.248
G0 F3600 X103.309 Y102.178
G1 F1050 X93.649 Y92.518 E39.20476
G1 X93.579 Y92.448
G0 F3600 X93.084 Y92.518
G1 F1050 X102.744 Y102.178 E39.88632
G1 X102.814 Y102.248
G0 F3600 X102.178 Y102.178
G1 F1050 X92.518 Y92.518 E40.56789
G1 X92.448 Y92.448
G0 F3600 X91.952 Y92.518
G1 F1050 X101.612 Y102.178 E41.24945
G1 X101.682 Y102.248
G0 F3600 X101.046 Y102.178
G1 F1050 X91.387 Y92.518 E41.93098
G1 X91.317 Y92.448
G0 F3600 X90.821 Y92.518
G1 F1050 X100.481 Y102.178 E42.61255
G1 X100.551 Y102.248
G0 F3600 X99.915 Y102.178
G1 F1050 X90.255 Y92.518 E43.29411
G1 X90.185 Y92.448
G0 F3600 X89.69 Y92.518
G1 F1050 X99.349 Y102.178 E43.97564
G1 X99.419 Y102.248
G0 F3600 X98.784 Y102.178
G1 F1050 X89.125 Y92.519 E44.65714
G1 X89.055 Y92.449
G0 F3600 X88.674 Y92.634
G1 F1050 X98.218 Y102.178 E45.33052
G1 X98.288 Y102.248
G0 F3600 X97.652 Y102.178
G1 F1050 X88.387 Y92.913 E45.98422
G1 X88.317 Y92.843
G0 F3600 X88.257 Y93.348
G1 F1050 X97.087 Y102.178 E46.60722
G1 X97.157 Y102.248
G0 F3600 X96.521 Y102.178
G1 F1050 X88.255 Y93.912 E47.19043
G1 X88.185 Y93.842
G0 F3600 X88.255 Y94.477
G1 F1050 X95.955 Y102.178 E47.73374
G1 X96.025 Y102.248
G0 F3600 X95.39 Y102.178
G1 F1050 X88.255 Y95.043 E48.23716
G1 X88.185 Y94.973
G0 F3600 X88.255 Y95.609
G1 F1050 X94.824 Y102.178 E48.70063
G1 X94.894 Y102.248
G0 F3600 X94.258 Y102.178
G1 F1050 X88.255 Y96.175 E49.12418
G1 X88.185 Y96.105
G0 F3600 X88.255 Y96.74
G1 F1050 X93.693 Y102.178 E49.50786
G1 X93.763 Y102.248
G0 F3600 X93.127 Y102.178
G1 F1050 X88.255 Y97.306 E49.8516
G1 X88.185 Y97.236
G0 F3600 X88.255 Y97.872
G1 F1050 X92.561 Y102.178 E50.15542
G1 X92.631 Y102.248
G0 F3600 X91.996 Y102.178
M104 S195
G1 F1050 X88.255 Y98.437 E50.41936
G1 X88.185 Y98.367
G0 F3600 X88.255 Y99.003
G1 F1050 X91.43 Y102.178 E50.64338
G1 X91.5 Y102.248
G0 F3600 X90.864 Y102.178
G1 F1050 X88.255 Y99.569 E50.82746
G1 X88.185 Y99.499
G0 F3600 X88.255 Y100.134
G1 F1050 X90.298 Y102.178 E50.97164
G1 X90.368 Y102.248
G0 F3600 X89.733 Y102.178
G1 F1050 X88.255 Y100.7 E51.07592
G1 X88.185 Y100.63
G0 F3600 X88.255 Y101.266
G1 F1050 X89.167 Y102.178 E51.14026
G1 X89.237 Y102.248
G0 F3600 X110.312 Y92.07
G0 X110.329 Y91.972
;TIME_ELAPSED:75.812981
;LAYER:1
M140 S64
M106 S255
G0 F5400 X110.329 Y91.972 Z0.6
;TYPE:WALL-INNER
G1 F1575 X110.565 Y92.035 E51.15245
G1 X110.784 Y92.138 E51.16452
G1 X110.989 Y92.282 E51.17702
G1 X111.155 Y92.447 E51.1887
G1 X111.298 Y92.652 E51.20117
G1 X111.401 Y92.873 E51.21333
G1 X111.463 Y93.103 E51.22522
G1 X111.486 Y93.371 E51.23864
G1 X111.486 Y101.326 E51.63551
G1 X111.463 Y101.593 E51.64888
G1 X111.401 Y101.825 E51.66087
G1 X111.299 Y102.043 E51.67287
G1 X111.153 Y102.252 E51.68559
G1 X110.988 Y102.417 E51.69723
G1 X110.783 Y102.561 E51.70973
G1 X110.562 Y102.664 E51.7219
G1 X110.33 Y102.726 E51.73388
G1 X110.067 Y102.749 E51.74705
G1 X89.108 Y102.749 E52.7927
G1 X88.871 Y102.73 E52.80456
G1 X88.654 Y102.678 E52.81569
G1 X88.449 Y102.593 E52.82676
G1 X88.266 Y102.482 E52.83744
G1 X88.098 Y102.337 E52.84851
G1 X87.952 Y102.167 E52.85969
G1 X87.839 Y101.982 E52.87051
G1 X87.758 Y101.788 E52.881
G1 X87.705 Y101.564 E52.89248
G1 X87.686 Y101.33 E52.90419
G1 X87.686 Y93.368 E53.30142
G1 X87.709 Y93.107 E53.31449
G1 X87.772 Y92.873 E53.32658
G1 X87.875 Y92.652 E53.33875
G1 X88.018 Y92.447 E53.35122
