;FLAVOR:Marlin
;TIME:1604
;Filament used: 0.869677m
;Layer height: 0.2
;Generated with Cura_SteamEngine 3.4.1
M190 S60
M104 S235
M109 S235
M82 ;absolute extrusion mode
G21 ;metric values
G90 ;absolute positioning
M82 ;set extruder to absolute mode
M107 ;start with the fan off
G28 X0 Y0 ;move X/Y to min endstops
G28 Z0 ;move Z to min endstops
G1 Z15.0 F9000 ;move the platform down 15mm
G92 E0 ;zero the extruded length
G1 F200 E3 ;extrude 3mm of feed stock
G92 E0 ;zero the extruded length again
G1 F9000
;Put printing message on LCD screen
M117 Printing...
G92 E0
G1 F1500 E-6.5
;LAYER_COUNT:25
;LAYER:0
M107
G0 F3600 X100.259 Y71.511 Z0.3
;TYPE:WALL-INNER
G1 F1500 E0
G1 F1050 X100.639 Y71.675 E0.02065
G1 X100.957 Y71.766 E0.03715
G1 X101.363 Y71.824 E0.05761
G1 X101.705 Y71.826 E0.07467
G1 X102.084 Y71.778 E0.09373
G1 X102.46 Y71.677 E0.11316
G1 X102.845 Y71.506 E0.13417
G1 X103.14 Y71.328 E0.15136
G1 X103.455 Y71.068 E0.17174
G1 X103.726 Y70.787 E0.19122
G1 X103.76 Y70.767 E0.19319
G1 X103.863 Y70.741 E0.19849
G1 X103.941 Y70.751 E0.20241
G1 X104.02 Y70.791 E0.20683
G1 X104.544 Y71.165 E0.23894
G1 X105.166 Y71.7 E0.27988
G1 X105.212 Y71.792 E0.28501
G1 X105.222 Y71.856 E0.28824
G1 X105.206 Y71.943 E0.29265
G1 X104.95 Y72.359 E0.31702
G1 X104.81 Y72.665 E0.33381
G1 X104.697 Y73.029 E0.35283
G1 X104.635 Y73.409 E0.37203
G1 X104.626 Y73.755 E0.3893
G1 X104.673 Y74.177 E0.41049
G1 X104.782 Y74.575 E0.43107
G1 X104.907 Y74.874 E0.44724
G1 X105.071 Y75.163 E0.46382
G1 X105.325 Y75.498 E0.48479
G1 X105.603 Y75.768 E0.50413
G1 X105.916 Y75.997 E0.52348
G1 X106.29 Y76.193 E0.54454
G1 X106.615 Y76.313 E0.56183
G1 X107.014 Y76.396 E0.58216
G1 X107.357 Y76.423 E0.59932
G1 X107.447 Y76.451 E0.60403
G1 X107.524 Y76.512 E0.60893
G1 X107.57 Y76.594 E0.61362
G1 X107.577 Y76.628 E0.61535
G1 X107.616 Y77.295 E0.64868
G1 X107.586 Y78.123 E0.69002
G1 X107.543 Y78.222 E0.69541
G1 X107.521 Y78.247 E0.69707
G1 X107.446 Y78.301 E0.70168
G1 X107.37 Y78.321 E0.7056
G1 X107.021 Y78.354 E0.72309
G1 X106.615 Y78.448 E0.74388
G1 X106.289 Y78.575 E0.76133
G1 X105.886 Y78.802 E0.78441
G1 X105.612 Y79.016 E0.80175
G1 X105.373 Y79.257 E0.81869
G1 X105.121 Y79.587 E0.8394
G1 X104.928 Y79.943 E0.85961
G1 X104.806 Y80.259 E0.87651
G1 X104.712 Y80.665 E0.8973
G1 X104.681 Y81.009 E0.91453
G1 X104.696 Y81.394 E0.93375
G1 X104.776 Y81.81 E0.95489
G1 X104.887 Y82.137 E0.97211
G1 X105.07 Y82.5 E0.9924
G1 X105.268 Y82.796 E1.01016
G1 X105.292 Y82.85 E1.01311
G1 X105.302 Y82.897 E1.01551
G1 X105.299 Y82.964 E1.01885
G1 X105.271 Y83.046 E1.02318
G1 X105.217 Y83.111 E1.02739
G1 X104.732 Y83.543 E1.0598
G1 X104.073 Y84.029 E1.10065
G1 X103.984 Y84.054 E1.10526
G1 X103.907 Y84.048 E1.10911
G1 X103.829 Y84.015 E1.11334
G1 X103.481 Y83.673 E1.13768
G1 X103.213 Y83.468 E1.15451
G1 X102.916 Y83.296 E1.17164
G1 X102.488 Y83.123 E1.19467
G1 X102.145 Y83.039 E1.21229
G1 X101.729 Y83.001 E1.23313
G1 X101.391 Y83.014 E1.25
G1 X100.998 Y83.085 E1.26993
G1 X100.674 Y83.186 E1.28686
G1 X100.298 Y83.367 E1.30768
G1 X100.011 Y83.557 E1.32485
G1 X99.719 Y83.811 E1.34416
G1 X99.444 Y84.133 E1.36528
G1 X99.257 Y84.423 E1.3825
G1 X99.087 Y84.793 E1.40281
G1 X98.981 Y85.13 E1.42044
G1 X98.94 Y85.202 E1.42457
G1 X98.869 Y85.261 E1.42918
G1 X98.779 Y85.29 E1.4339
G1 X98.732 Y85.292 E1.43624
G1 X98.076 Y85.181 E1.46944
G1 X97.893 Y85.14 E1.47879
G1 X97.323 Y84.988 E1.50822
G1 X97.228 Y84.941 E1.51351
G1 X97.165 Y84.874 E1.5181
G1 X97.134 Y84.797 E1.52224
G1 X97.131 Y84.71 E1.52658
G1 X97.179 Y84.286 E1.54787
G1 X97.173 Y83.948 E1.56474
G1 X97.123 Y83.604 E1.58208
G1 X96.988 Y83.162 E1.60514
G1 X96.841 Y82.843 E1.62266
G1 X96.612 Y82.494 E1.64349
G1 X96.39 Y82.238 E1.66039
G1 X96.089 Y81.974 E1.68037
G1 X95.806 Y81.785 E1.69734
G1 X95.432 Y81.605 E1.71805
G1 X95.105 Y81.498 E1.73522
G1 X94.725 Y81.428 E1.75449
G1 X94.302 Y81.414 E1.77561
G1 X93.958 Y81.45 E1.79287
G1 X93.567 Y81.547 E1.81296
G1 X93.193 Y81.685 E1.83285
G1 X93.154 Y81.688 E1.8348
G1 X93.038 Y81.659 E1.84077
G1 X92.964 Y81.596 E1.84562
G1 X92.621 Y80.986 E1.88053
G1 X92.535 Y80.805 E1.89053
G1 X92.294 Y80.249 E1.92076
G1 X92.271 Y80.144 E1.92612
G1 X92.302 Y80.028 E1.93212
G1 X92.353 Y79.961 E1.93632
G1 X92.725 Y79.731 E1.95814
G1 X92.989 Y79.519 E1.97503
G1 X93.28 Y79.211 E1.99617
G1 X93.504 Y78.89 E2.0157
G1 X93.691 Y78.512 E2.03674
G1 X93.802 Y78.185 E2.05396
G1 X93.877 Y77.783 E2.07437
G1 X93.895 Y77.459 E2.09056
G1 X93.875 Y77.126 E2.1072
G1 X93.79 Y76.717 E2.12804
G1 X93.674 Y76.388 E2.14544
G1 X93.458 Y75.98 E2.16848
G1 X93.25 Y75.695 E2.18608
G1 X92.958 Y75.398 E2.20686
G1 X92.695 Y75.192 E2.22353
G1 X92.35 Y74.985 E2.2436
G1 X92.287 Y74.923 E2.24801
G1 X92.266 Y74.88 E2.2504
G1 X92.246 Y74.782 E2.25539
G1 X92.267 Y74.683 E2.26043
G1 X92.514 Y74.095 E2.29225
G1 X92.907 Y73.357 E2.33397
G1 X92.974 Y73.3 E2.33836
G1 X93.021 Y73.28 E2.3409
G1 X93.103 Y73.268 E2.34504
G1 X93.188 Y73.284 E2.34935
G1 X93.586 Y73.428 E2.37047
G1 X93.922 Y73.498 E2.38759
G1 X94.259 Y73.524 E2.40446
G1 X94.579 Y73.511 E2.42043
G1 X94.739 Y73.493 E2.42847
G1 X95.069 Y73.423 E2.4453
G1 X95.46 Y73.279 E2.46608
G1 X95.761 Y73.121 E2.48304
G1 X96.085 Y72.887 E2.50298
G1 X96.333 Y72.655 E2.51993
G1 X96.593 Y72.332 E2.54061
G1 X96.771 Y72.037 E2.5578
G1 X96.926 Y71.682 E2.57713
G1 X97.035 Y71.271 E2.59834
G1 X97.077 Y70.93 E2.61548
G1 X97.072 Y70.525 E2.63569
G1 X97.021 Y70.135 E2.65531
G1 X97.027 Y70.093 E2.65743
G1 X97.072 Y69.999 E2.66263
G1 X97.152 Y69.931 E2.66787
G1 X97.823 Y69.734 E2.70276
G1 X97.987 Y69.697 E2.71114
G1 X98.583 Y69.587 E2.74138
G1 X98.687 Y69.586 E2.74657
G1 X98.799 Y69.643 E2.75284
G1 X98.856 Y69.715 E2.75742
G1 X98.995 Y70.12 E2.77878
G1 X99.143 Y70.424 E2.79565
G1 X99.378 Y70.776 E2.81677
G1 X99.638 Y71.062 E2.83605
G1 X99.902 Y71.284 E2.85326
G1 X100.259 Y71.511 E2.87437
G0 F3600 X100.213 Y71.599
G0 X102.419 Y76.459
G0 X102.637 Y77.169
G0 X102.538 Y77.177
G1 F1050 X102.48 Y76.807 E2.89305
G1 X102.382 Y76.472 E2.91046
G1 X102.266 Y76.192 E2.92559
G1 X102.091 Y75.882 E2.94335
G1 X101.914 Y75.636 E2.95847
G1 X101.672 Y75.372 E2.97633
G1 X101.439 Y75.172 E2.99165
G1 X101.145 Y74.973 E3.00936
G1 X100.878 Y74.833 E3.0244
G1 X100.558 Y74.712 E3.04147
G1 X100.28 Y74.638 E3.05583
G1 X99.924 Y74.589 E3.07375
G1 X99.694 Y74.578 E3.08524
G1 X99.379 Y74.596 E3.10098
G1 X99.049 Y74.654 E3.1177
G1 X98.763 Y74.735 E3.13253
G1 X98.436 Y74.873 E3.15024
G1 X98.172 Y75.02 E3.16531
G1 X97.883 Y75.23 E3.18313
G1 X97.658 Y75.438 E3.19842
G1 X97.426 Y75.708 E3.21618
G1 X97.254 Y75.959 E3.23136
G1 X97.093 Y76.271 E3.24888
G1 X96.987 Y76.544 E3.26349
G1 X96.902 Y76.872 E3.28039
G1 X96.861 Y77.154 E3.29461
G1 X96.849 Y77.383 E3.30605
G1 X96.867 Y77.767 E3.32523
G1 X96.916 Y78.055 E3.3398
G1 X97.012 Y78.387 E3.35705
G1 X97.129 Y78.667 E3.37219
G1 X97.302 Y78.976 E3.38985
G1 X97.481 Y79.223 E3.40507
G1 X97.724 Y79.487 E3.42297
G1 X97.956 Y79.686 E3.43822
G1 X98.25 Y79.885 E3.45593
G1 X98.516 Y80.024 E3.47091
G1 X98.838 Y80.147 E3.4881
G1 X99.115 Y80.22 E3.5024
G1 X99.471 Y80.27 E3.52033
G1 X99.702 Y80.279 E3.53186
G1 X100.014 Y80.262 E3.54745
G1 X100.347 Y80.204 E3.56432
G1 X100.631 Y80.123 E3.57905
G1 X100.958 Y79.985 E3.59676
G1 X101.222 Y79.838 E3.61183
G1 X101.509 Y79.629 E3.62955
G1 X101.736 Y79.423 E3.64484
G1 X101.969 Y79.15 E3.66275
G1 X102.14 Y78.9 E3.67786
G1 X102.302 Y78.588 E3.6954
G1 X102.409 Y78.312 E3.71016
G1 X102.493 Y77.986 E3.72696
G1 X102.535 Y77.703 E3.74123
G1 X102.545 Y77.48 E3.75237
G1 X102.538 Y77.177 E3.76749
G0 F3600 X102.139 Y77.213
;TYPE:WALL-OUTER
G1 F1050 X102.089 Y76.895 E3.78355
G1 X102.004 Y76.605 E3.79863
G1 X101.906 Y76.367 E3.81147
G1 X101.754 Y76.098 E3.82688
G1 X101.603 Y75.889 E3.83975
G1 X101.393 Y75.66 E3.85525
G1 X101.196 Y75.49 E3.86823
G1 X100.94 Y75.317 E3.88364
G1 X100.714 Y75.199 E3.89636
G1 X100.435 Y75.093 E3.91125
G1 X100.201 Y75.031 E3.92333
G1 X99.887 Y74.988 E3.93914
G1 X99.696 Y74.979 E3.94868
G1 X99.425 Y74.994 E3.96222
G1 X99.138 Y75.044 E3.97676
G1 X98.896 Y75.113 E3.98931
G1 X98.612 Y75.233 E4.00469
G1 X98.388 Y75.358 E4.01749
G1 X98.137 Y75.54 E4.03296
G1 X97.946 Y75.716 E4.04592
G1 X97.744 Y75.952 E4.06142
G1 X97.598 Y76.165 E4.0743
G1 X97.458 Y76.436 E4.08952
G1 X97.368 Y76.667 E4.10189
G1 X97.295 Y76.951 E4.11651
G1 X97.259 Y77.194 E4.12877
G1 X97.249 Y77.384 E4.13826
G1 X97.265 Y77.724 E4.15524
G1 X97.306 Y77.965 E4.16744
G1 X97.39 Y78.254 E4.18246
G1 X97.489 Y78.491 E4.19527
G1 X97.64 Y78.76 E4.21066
G1 X97.791 Y78.969 E4.22352
G1 X98.003 Y79.199 E4.23913
G1 X98.199 Y79.368 E4.25204
G1 X98.455 Y79.541 E4.26746
G1 X98.681 Y79.659 E4.28018
G1 X98.96 Y79.766 E4.29508
G1 X99.194 Y79.827 E4.30715
G1 X99.507 Y79.871 E4.32292
G1 X99.699 Y79.879 E4.3325
G1 X99.969 Y79.864 E4.346
G1 X100.257 Y79.814 E4.36058
G1 X100.498 Y79.745 E4.37308
G1 X100.783 Y79.625 E4.38851
G1 X101.006 Y79.501 E4.40124
G1 X101.256 Y79.318 E4.4167
G1 X101.449 Y79.144 E4.42966
G1 X101.651 Y78.907 E4.4452
G1 X101.796 Y78.694 E4.45806
G1 X101.937 Y78.423 E4.4733
G1 X102.027 Y78.19 E4.48576
G1 X102.1 Y77.907 E4.50034
G1 X102.136 Y77.664 E4.51259
G1 X102.145 Y77.475 E4.52203
G1 X102.139 Y77.213 E4.53511
G0 F3600 X102.108 Y77.015
G0 X102.601 Y76.939
G0 X104.585 Y74.232
G0 X105.067 Y74.102
G1 F1050 X105.161 Y74.444 E4.5528
G1 X105.267 Y74.698 E4.56654
G1 X105.406 Y74.943 E4.58059
G1 X105.625 Y75.232 E4.59868
G1 X105.862 Y75.462 E4.61516
G1 X106.128 Y75.657 E4.63161
G1 X106.452 Y75.827 E4.64986
G1 X106.725 Y75.927 E4.66437
G1 X107.071 Y75.999 E4.682
G1 X107.426 Y76.027 E4.69977
G1 X107.576 Y76.069 E4.70754
G1 X107.658 Y76.108 E4.71207
G1 X107.8 Y76.219 E4.72106
G1 X107.853 Y76.281 E4.72513
G1 X107.934 Y76.424 E4.73333
G1 X107.958 Y76.494 E4.73702
G1 X107.974 Y76.571 E4.74094
G1 X108.016 Y77.295 E4.77713
G1 X107.99 Y78.128 E4.8187
G1 X107.977 Y78.214 E4.82304
G1 X107.928 Y78.357 E4.83059
G1 X107.867 Y78.46 E4.83656
G1 X107.791 Y78.545 E4.84225
G1 X107.658 Y78.642 E4.85046
G1 X107.59 Y78.676 E4.85425
G1 X107.443 Y78.716 E4.86185
G1 X107.085 Y78.75 E4.87979
G1 X106.733 Y78.831 E4.89781
G1 X106.461 Y78.937 E4.91238
G1 X106.109 Y79.136 E4.93255
G1 X105.878 Y79.316 E4.94716
G1 X105.675 Y79.52 E4.96152
G1 X105.458 Y79.805 E4.97939
G1 X105.292 Y80.111 E4.99676
G1 X105.189 Y80.377 E5.01099
G1 X105.108 Y80.728 E5.02896
G1 X105.082 Y81.019 E5.04354
G1 X105.095 Y81.348 E5.05996
G1 X105.164 Y81.708 E5.07825
G1 X105.257 Y81.982 E5.09269
G1 X105.416 Y82.298 E5.11034
G1 X105.62 Y82.603 E5.12864
G1 X105.676 Y82.731 E5.13561
G1 X105.701 Y82.853 E5.14183
G1 X105.703 Y82.974 E5.14786
G1 X105.69 Y83.06 E5.1522
G1 X105.638 Y83.209 E5.16008
G1 X105.598 Y83.279 E5.1641
G1 X105.506 Y83.389 E5.17125
G1 X104.99 Y83.849 E5.20574
G1 X104.299 Y84.362 E5.24868
G1 X104.226 Y84.401 E5.25281
G1 X104.079 Y84.445 E5.26046
G1 X103.993 Y84.455 E5.26478
G1 X103.868 Y84.449 E5.27102
G1 X103.784 Y84.431 E5.27531
G1 X103.636 Y84.367 E5.28335
G1 X103.579 Y84.33 E5.28674
G1 X103.218 Y83.976 E5.31197
G1 X102.99 Y83.801 E5.32631
G1 X102.74 Y83.656 E5.34073
G1 X102.365 Y83.505 E5.3609
G1 X102.079 Y83.435 E5.37559
G1 X101.718 Y83.402 E5.39367
G1 X101.434 Y83.413 E5.40785
G1 X101.093 Y83.474 E5.42513
G1 X100.821 Y83.559 E5.43935
G1 X100.496 Y83.716 E5.45736
G1 X100.253 Y83.876 E5.47187
G1 X100.004 Y84.093 E5.48835
G1 X99.766 Y84.372 E5.50665
G1 X99.609 Y84.616 E5.52112
G1 X99.461 Y84.937 E5.53876
G1 X99.351 Y85.286 E5.55701
G1 X99.286 Y85.41 E5.564
G1 X99.233 Y85.476 E5.56822
G1 X99.158 Y85.545 E5.57331
G1 X99.085 Y85.599 E5.57784
G1 X99.005 Y85.641 E5.58234
G1 X98.862 Y85.683 E5.58978
G1 X98.782 Y85.693 E5.5938
G1 X98.698 Y85.691 E5.59799
G1 X97.997 Y85.573 E5.63346
G1 X97.8 Y85.529 E5.64353
G1 X97.184 Y85.364 E5.67535
G1 X97.048 Y85.302 E5.6828
G1 X96.975 Y85.253 E5.68719
G1 X96.885 Y85.168 E5.69336
G1 X96.815 Y85.071 E5.69933
G1 X96.756 Y84.932 E5.70687
G1 X96.736 Y84.852 E5.71098
G1 X96.73 Y84.7 E5.71857
G1 X96.779 Y84.267 E5.74031
G1 X96.774 Y83.98 E5.75463
G1 X96.732 Y83.692 E5.76915
G1 X96.614 Y83.305 E5.78934
G1 X96.49 Y83.038 E5.80402
G1 X96.292 Y82.736 E5.82204
G1 X96.106 Y82.521 E5.83622
G1 X95.845 Y82.292 E5.85355
G1 X95.607 Y82.133 E5.86783
G1 X95.283 Y81.977 E5.88577
G1 X95.006 Y81.887 E5.9003
G1 X94.682 Y81.827 E5.91674
G1 X94.316 Y81.815 E5.93501
G1 X94.027 Y81.845 E5.9495
G1 X93.684 Y81.93 E5.96713
G1 X93.289 Y82.075 E5.98812
G1 X93.201 Y82.088 E5.99256
G1 X93.11 Y82.088 E5.9971
G1 X92.935 Y82.05 E6.00604
G1 X92.849 Y82.013 E6.01071
G1 X92.777 Y81.967 E6.01497
G1 X92.669 Y81.869 E6.02224
G1 X92.618 Y81.802 E6.02645
G1 X92.265 Y81.168 E6.06265
G1 X92.174 Y80.977 E6.0732
G1 X91.914 Y80.377 E6.10583
G1 X91.876 Y80.227 E6.11355
G1 X91.87 Y80.144 E6.1177
G1 X91.876 Y80.063 E6.12175
G1 X91.928 Y79.879 E6.13129
G1 X91.97 Y79.8 E6.13575
G1 X92.063 Y79.684 E6.14317
G1 X92.126 Y79.629 E6.14734
G1 X92.494 Y79.403 E6.16889
G1 X92.717 Y79.224 E6.18316
G1 X92.969 Y78.958 E6.20144
G1 X93.159 Y78.686 E6.21799
G1 X93.321 Y78.358 E6.23624
G1 X93.414 Y78.084 E6.25068
G1 X93.479 Y77.735 E6.26839
G1 X93.494 Y77.46 E6.28213
G1 X93.477 Y77.179 E6.29617
G1 X93.404 Y76.824 E6.31425
G1 X93.307 Y76.549 E6.3288
G1 X93.118 Y76.193 E6.34891
G1 X92.944 Y75.954 E6.36366
G1 X92.691 Y75.697 E6.38165
G1 X92.468 Y75.522 E6.39579
G1 X92.104 Y75.304 E6.41696
G1 X91.991 Y75.195 E6.4248
G1 X91.943 Y75.129 E6.42887
G1 X91.889 Y75.021 E6.43489
G1 X91.851 Y74.871 E6.44261
G1 X91.845 Y74.782 E6.44706
G1 X91.851 Y74.698 E6.45126
G1 X91.887 Y74.554 E6.45867
G1 X92.152 Y73.923 E6.49281
G1 X92.555 Y73.159 E6.53591
G1 X92.609 Y73.087 E6.5404
G1 X92.712 Y72.993 E6.54735
G1 X92.789 Y72.944 E6.55191
G1 X92.909 Y72.894 E6.55839
G1 X93.055 Y72.869 E6.56578
G1 X93.136 Y72.868 E6.56982
G1 X93.292 Y72.897 E6.57774
G1 X93.695 Y73.042 E6.59911
G1 X93.978 Y73.101 E6.61353
G1 X94.266 Y73.123 E6.62794
G1 X94.549 Y73.112 E6.64207
G1 X94.675 Y73.098 E6.64839
G1 X94.958 Y73.038 E6.66283
G1 X95.297 Y72.913 E6.68085
G1 X95.55 Y72.78 E6.69511
G1 X95.83 Y72.578 E6.71234
G1 X96.039 Y72.382 E6.72663
G1 X96.265 Y72.102 E6.74459
G1 X96.415 Y71.853 E6.75909
G1 X96.547 Y71.55 E6.77558
G1 X96.641 Y71.195 E6.7939
G1 X96.677 Y70.908 E6.80833
G1 X96.672 Y70.555 E6.82594
G1 X96.626 Y70.223 E6.84266
G1 X96.619 Y70.135 E6.84707
G1 X96.627 Y70.05 E6.85133
G1 X96.646 Y69.963 E6.85577
G1 X96.729 Y69.791 E6.8653
G1 X96.774 Y69.73 E6.86908
G1 X96.893 Y69.622 E6.8771
G1 X96.96 Y69.579 E6.88107
G1 X97.035 Y69.546 E6.88516
G1 X97.722 Y69.347 E6.92084
G1 X97.911 Y69.305 E6.9305
G1 X98.543 Y69.188 E6.96257
G1 X98.696 Y69.183 E6.9702
G1 X98.781 Y69.196 E6.97449
G1 X98.861 Y69.221 E6.97867
G1 X99.027 Y69.312 E6.98812
G1 X99.091 Y69.367 E6.99233
G1 X99.189 Y69.491 E7.00021
G1 X99.226 Y69.558 E7.00403
G1 X99.366 Y69.967 E7.0256
G1 X99.491 Y70.225 E7.0399
G1 X99.694 Y70.529 E7.05814
G1 X99.916 Y70.773 E7.0746
G1 X100.139 Y70.961 E7.08915
G1 X100.447 Y71.156 E7.10734
G1 X100.774 Y71.298 E7.12512
G1 X101.04 Y71.374 E7.13892
G1 X101.393 Y71.424 E7.15671
G1 X101.681 Y71.426 E7.17108
G1 X102.007 Y71.385 E7.18747
G1 X102.326 Y71.299 E7.20396
G1 X102.66 Y71.151 E7.22218
G1 X102.908 Y71.001 E7.23664
G1 X103.181 Y70.775 E7.25432
G1 X103.403 Y70.541 E7.27042
G1 X103.476 Y70.473 E7.27539
G1 X103.551 Y70.423 E7.27989
G1 X103.621 Y70.39 E7.28375
G1 X103.78 Y70.346 E7.29198
G1 X103.871 Y70.34 E7.29653
G1 X104.02 Y70.357 E7.30401
G1 X104.091 Y70.379 E7.30772
G1 X104.228 Y70.448 E7.31537
G1 X104.792 Y70.851 E7.34996
G1 X105.441 Y71.407 E7.39259
G1 X105.496 Y71.472 E7.39684
G1 X105.565 Y71.589 E7.40362
G1 X105.6 Y71.689 E7.4089
G1 X105.621 Y71.809 E7.41498
G1 X105.622 Y71.892 E7.41912
G1 X105.593 Y72.051 E7.42719
G1 X105.566 Y72.121 E7.43093
G1 X105.303 Y72.548 E7.45595
G1 X105.184 Y72.808 E7.47021
G1 X105.087 Y73.121 E7.48656
G1 X105.034 Y73.446 E7.50299
G1 X105.027 Y73.738 E7.51756
G1 X105.067 Y74.102 E7.53583
G0 F3600 X105.12 Y74.295
G0 X104.638 Y74.427
G0 X104.413 Y74.702
;TYPE:SKIN
G1 F1050 X104.556 Y75.046 E7.55442
G1 X104.745 Y75.378 E7.57348
G1 X105.032 Y75.757 E7.5972
G1 X105.351 Y76.067 E7.61939
G1 X105.709 Y76.329 E7.64152
G1 X106.132 Y76.55 E7.66533
G1 X106.507 Y76.689 E7.68528
G1 X106.959 Y76.782 E7.70831
G1 X107.196 Y76.801 E7.72017
