;FLAVOR:Marlin
;TIME:489
;Filament used: 0.406494m
;Layer height: 0.3
;Generated with Cura_SteamEngine 3.4.1
M190 S64
M104 S200
M109 S200
M82 ;absolute extrusion mode
G21 ;metric values
G90 ;absolute positioning
M82 ;set extruder to absolute mode
M107 ;start with the fan off
G28 X0 Y0 ;move X/Y to min endstops
G28 Z0 ;move Z to min endstops
G1 Z15.0 F9000 ;move the platform down 15mm
G92 E0 ;zero the extruded length
G1 F200 E3 ;extrude 3mm of feed stock
G92 E0 ;zero the extruded length again
G1 F9000
;Put printing message on LCD screen
M117 Printing...
G92 E0
G1 F1500 E-5
;LAYER_COUNT:37
;LAYER:0
M107
G0 F3600 X79.193 Y88.927 Z0.3
;TYPE:SKIRT
G1 F1500 E0
G1 F1050 X79.477 Y88.729 E0.01727
G1 X80.144 Y88.304 E0.05673
G1 X80.641 Y88.034 E0.08495
G1 X81.201 Y87.829 E0.1147
G1 X81.55 Y87.73 E0.1328
G1 X82.104 Y87.614 E0.16104
G1 X82.642 Y87.578 E0.18794
G1 X109.34 Y87.576 E1.51991
G1 X109.904 Y87.616 E1.54812
G1 X110.672 Y87.804 E1.58756
G1 X111.295 Y88.024 E1.62053
G1 X111.813 Y88.25 E1.64872
G1 X112.295 Y88.546 E1.67694
G1 X112.68 Y88.86 E1.70173
G1 X113.365 Y89.494 E1.74829
G1 X113.752 Y89.907 E1.77653
G1 X114.076 Y90.37 E1.80472
G1 X114.311 Y90.822 E1.83014
G1 X114.592 Y91.462 E1.86501
G1 X114.782 Y91.994 E1.89319
G1 X114.895 Y92.548 E1.9214
G1 X114.922 Y92.835 E1.93578
G1 X114.993 Y94.041 E1.99606
G1 X115 Y94.301 E2.00903
G1 X114.965 Y99.863 E2.28653
G1 X114.921 Y100.427 E2.31475
G1 X114.749 Y101.134 E2.35105
G1 X114.523 Y101.794 E2.38586
G1 X114.303 Y102.314 E2.41403
G1 X113.858 Y103.002 E2.4549
G1 X113.435 Y103.529 E2.48862
G1 X113.051 Y103.944 E2.51683
G1 X112.446 Y104.41 E2.55493
G1 X111.92 Y104.741 E2.58593
G1 X111.422 Y105.008 E2.61412
G1 X110.625 Y105.268 E2.65595
G1 X109.838 Y105.436 E2.6961
G1 X109.003 Y105.524 E2.73798
G1 X82.922 Y105.522 E4.03917
G1 X82.298 Y105.473 E4.0704
G1 X81.855 Y105.403 E4.09277
G1 X81.304 Y105.276 E4.12098
G1 X80.758 Y105.063 E4.15022
G1 X80.099 Y104.749 E4.18664
G1 X79.608 Y104.47 E4.21482
G1 X79.16 Y104.125 E4.24303
G1 X78.896 Y103.867 E4.26144
G1 X78.407 Y103.343 E4.2972
G1 X78.051 Y102.904 E4.3254
G1 X77.761 Y102.418 E4.35363
G1 X77.628 Y102.127 E4.3696
G1 X77.353 Y101.454 E4.40587
G1 X77.177 Y100.917 E4.43406
G1 X77.078 Y100.36 E4.46229
G1 X77.056 Y99.959 E4.48232
G1 X77.026 Y93.343 E4.8124
G1 X77.063 Y92.779 E4.8406
G1 X77.186 Y92.204 E4.86993
G1 X77.383 Y91.529 E4.90501
G1 X77.58 Y90.999 E4.93322
G1 X78.001 Y90.28 E4.97479
G1 X78.404 Y89.732 E5.00873
G1 X78.77 Y89.302 E5.0369
G1 X79.193 Y88.927 E5.0651
G0 F3600 X79.691 Y89.066
G1 F1050 X80.358 Y88.641 E5.10456
G1 X80.831 Y88.387 E5.13134
G1 X81.311 Y88.214 E5.1568
G1 X81.66 Y88.115 E5.1749
G1 X82.185 Y88.007 E5.20164
G1 X82.642 Y87.978 E5.22449
G1 X109.34 Y87.976 E6.55645
G1 X109.875 Y88.016 E6.58322
G1 X110.539 Y88.181 E6.61735
G1 X111.162 Y88.401 E6.65032
G1 X111.653 Y88.617 E6.67708
G1 X112.106 Y88.903 E6.70381
G1 X112.408 Y89.154 E6.7234
G1 X113.093 Y89.788 E6.76996
G1 X113.459 Y90.181 E6.79676
G1 X113.762 Y90.623 E6.82349
G1 X113.944 Y90.983 E6.84362
G1 X114.225 Y91.623 E6.87849
G1 X114.404 Y92.128 E6.90522
G1 X114.523 Y92.858 E6.94212
G1 X114.594 Y94.064 E7.00239
G1 X114.6 Y94.299 E7.01412
G1 X114.565 Y99.861 E7.29161
G1 X114.522 Y100.395 E7.31834
G1 X114.371 Y101.004 E7.34965
G1 X114.145 Y101.664 E7.38445
G1 X113.934 Y102.157 E7.4112
G1 X113.546 Y102.751 E7.4466
G1 X113.123 Y103.278 E7.48031
G1 X112.758 Y103.671 E7.50707
G1 X112.233 Y104.072 E7.54003
G1 X111.707 Y104.403 E7.57104
G1 X111.233 Y104.654 E7.5978
G1 X110.542 Y104.877 E7.63402
G1 X109.755 Y105.045 E7.67417
G1 X109.003 Y105.124 E7.71189
G1 X82.922 Y105.122 E9.01308
G1 X82.36 Y105.078 E9.0412
G1 X81.917 Y105.008 E9.06358
G1 X81.395 Y104.885 E9.09034
G1 X80.93 Y104.702 E9.11527
G1 X80.271 Y104.388 E9.15169
G1 X79.806 Y104.122 E9.17841
G1 X79.385 Y103.79 E9.20516
G1 X79.188 Y103.594 E9.21902
G1 X78.699 Y103.07 E9.25478
G1 X78.363 Y102.652 E9.28154
G1 X77.998 Y101.976 E9.31987
G1 X77.723 Y101.303 E9.35614
G1 X77.558 Y100.793 E9.38288
G1 X77.47 Y100.263 E9.40968
G1 X77.456 Y99.957 E9.42497
G1 X77.426 Y93.341 E9.75504
G1 X77.464 Y92.806 E9.7818
G1 X77.57 Y92.316 E9.80681
G1 X77.767 Y91.641 E9.84189
G1 X77.955 Y91.139 E9.86864
G1 X78.323 Y90.517 E9.90469
G1 X78.726 Y89.969 E9.93863
G1 X79.075 Y89.562 E9.96538
G1 X79.691 Y89.066 E10.00484
G0 F3600 X79.906 Y89.403
G1 F1050 X80.573 Y88.978 E10.04429
G1 X81.02 Y88.741 E10.06954
G1 X81.42 Y88.598 E10.09073
G1 X81.769 Y88.499 E10.10883
G1 X82.264 Y88.4 E10.13401
G1 X82.642 Y88.378 E10.1529
G1 X109.34 Y88.376 E11.48487
G1 X109.844 Y88.416 E11.51009
G1 X110.406 Y88.559 E11.53903
G1 X111.029 Y88.779 E11.57199
G1 X111.49 Y88.984 E11.59716
G1 X111.914 Y89.26 E11.6224
G1 X112.137 Y89.448 E11.63695
G1 X112.822 Y90.082 E11.68352
G1 X113.164 Y90.453 E11.70869
G1 X113.444 Y90.874 E11.73392
G1 X113.578 Y91.144 E11.74895
G1 X113.859 Y91.784 E11.78383
G1 X114.025 Y92.261 E11.80902
G1 X114.123 Y92.882 E11.84039
G1 X114.194 Y94.088 E11.90066
G1 X114.2 Y94.296 E11.91104
G1 X114.165 Y99.858 E12.18854
G1 X114.122 Y100.362 E12.21377
G1 X113.992 Y100.875 E12.24018
G1 X113.766 Y101.535 E12.27498
G1 X113.565 Y101.999 E12.30021
G1 X113.235 Y102.501 E12.33018
G1 X112.812 Y103.028 E12.36389
G1 X112.465 Y103.396 E12.38913
G1 X112.02 Y103.733 E12.41698
G1 X111.494 Y104.064 E12.44798
G1 X111.046 Y104.299 E12.47322
G1 X110.458 Y104.485 E12.50399
G1 X109.671 Y104.653 E12.54414
G1 X109.003 Y104.724 E12.57765
G1 X82.922 Y104.722 E13.87884
G1 X82.423 Y104.683 E13.90381
G1 X81.98 Y104.613 E13.92619
G1 X81.488 Y104.495 E13.95143
G1 X81.103 Y104.341 E13.97212
G1 X80.444 Y104.027 E14.00853
G1 X80.006 Y103.774 E14.03377
G1 X79.48 Y103.321 E14.0684
G1 X78.991 Y102.797 E14.10416
G1 X78.677 Y102.402 E14.12933
G1 X78.369 Y101.824 E14.16201
G1 X78.094 Y101.151 E14.19828
G1 X77.94 Y100.67 E14.22348
G1 X77.856 Y99.956 E14.25935
G1 X77.826 Y93.34 E14.58942
G1 X77.864 Y92.835 E14.61469
G1 X77.954 Y92.428 E14.63548
G1 X78.151 Y91.753 E14.67056
G1 X78.331 Y91.281 E14.69577
G1 X78.645 Y90.754 E14.72637
G1 X79.048 Y90.206 E14.76031
G1 X79.379 Y89.824 E14.78553
G1 X79.906 Y89.403 E14.81918
G1 F1500 E9.81918
G1 F180 Z1.3
G0 F3600 X109.241 Y92.158 Z1.3
;TYPE:WALL-INNER
G1 F180 Z0.3
G1 F1500 E14.81918
G1 F1050 X109.476 Y92.221 E14.83132
G1 X109.697 Y92.324 E14.84348
G1 X109.902 Y92.467 E14.85595
G1 X110.065 Y92.631 E14.86749
G1 X110.212 Y92.841 E14.88028
G1 X110.314 Y93.058 E14.89224
G1 X110.377 Y93.291 E14.90428
G1 X110.4 Y93.558 E14.91765
G1 X110.4 Y99.512 E15.2147
G1 X110.377 Y99.779 E15.22807
G1 X110.314 Y100.012 E15.24011
G1 X110.211 Y100.232 E15.25223
G1 X110.068 Y100.437 E15.2647
G1 X109.902 Y100.603 E15.27641
G1 X109.696 Y100.747 E15.28895
G1 X109.48 Y100.848 E15.30084
G1 X109.242 Y100.912 E15.31314
G1 X108.973 Y100.935 E15.32661
G1 X83.02 Y100.935 E16.62141
G1 X82.782 Y100.916 E16.63332
G1 X82.57 Y100.865 E16.6442
G1 X82.365 Y100.781 E16.65525
G1 X82.177 Y100.666 E16.66625
G1 X82.012 Y100.523 E16.67714
G1 X81.869 Y100.358 E16.68803
G1 X81.755 Y100.171 E16.69896
G1 X81.671 Y99.969 E16.70988
G1 X81.619 Y99.75 E16.72111
G1 X81.6 Y99.516 E16.73282
G1 X81.6 Y93.558 E17.03006
G1 X81.623 Y93.291 E17.04343
G1 X81.686 Y93.058 E17.05548
G1 X81.788 Y92.841 E17.06744
G1 X81.935 Y92.631 E17.08023
G1 X82.098 Y92.467 E17.09176
G1 X82.303 Y92.324 E17.10423
G1 X82.524 Y92.221 E17.1164
G1 X82.759 Y92.158 E17.12854
G1 X83.019 Y92.135 E17.14156
G1 X108.981 Y92.135 E18.43681
G1 X109.241 Y92.158 E18.44983
G0 F3600 X109.312 Y91.763
;TYPE:WALL-OUTER
G1 F1050 X109.617 Y91.845 E18.46559
G1 X109.896 Y91.975 E18.48094
G1 X110.158 Y92.158 E18.49689
G1 X110.377 Y92.378 E18.51237
G1 X110.56 Y92.639 E18.52828
G1 X110.69 Y92.918 E18.54363
G1 X110.773 Y93.224 E18.55945
G1 X110.8 Y93.535 E18.57502
G1 X110.8 Y99.535 E18.87437
G1 X110.773 Y99.846 E18.88994
G1 X110.69 Y100.152 E18.90576
G1 X110.56 Y100.431 E18.92111
G1 X110.375 Y100.696 E18.93724
G1 X110.161 Y100.91 E18.95234
G1 X109.898 Y101.094 E18.96835
G1 X109.615 Y101.227 E18.98395
G1 X109.311 Y101.308 E18.99965
G1 X108.995 Y101.335 E19.01547
G1 X83.002 Y101.335 E20.31227
G1 X82.719 Y101.313 E20.32643
G1 X82.447 Y101.247 E20.34039
G1 X82.184 Y101.139 E20.35458
G1 X81.941 Y100.99 E20.3688
G1 X81.728 Y100.807 E20.38281
G1 X81.545 Y100.594 E20.39682
G1 X81.396 Y100.351 E20.41104
G1 X81.29 Y100.095 E20.42486
G1 X81.222 Y99.811 E20.43943
G1 X81.2 Y99.535 E20.45324
G1 X81.2 Y93.535 E20.75258
G1 X81.227 Y93.224 E20.76816
G1 X81.31 Y92.918 E20.78398
G1 X81.44 Y92.639 E20.79933
G1 X81.623 Y92.378 E20.81524
G1 X81.842 Y92.158 E20.83072
G1 X82.104 Y91.975 E20.84667
G1 X82.383 Y91.845 E20.86202
G1 X82.688 Y91.763 E20.87778
G1 X83.007 Y91.735 E20.89376
G1 X108.993 Y91.735 E22.1902
G1 X109.312 Y91.763 E22.20618
G0 F3600 X109.505 Y91.815
G0 X109.344 Y92.589
;TYPE:SKIN
G1 F1050 X109.498 Y92.661 E22.21466
G1 X109.648 Y92.766 E22.2238
G1 X109.763 Y92.881 E22.23191
G1 X109.874 Y93.04 E22.24158
G1 X109.948 Y93.196 E22.2502
G1 X109.993 Y93.36 E22.25868
G1 X110.01 Y93.558 E22.2686
G1 X110.01 Y99.512 E22.56564
G1 X109.993 Y99.71 E22.57556
G1 X109.948 Y99.875 E22.58409
G1 X109.872 Y100.036 E22.59297
G1 X109.764 Y100.191 E22.6024
G1 X109.658 Y100.297 E22.60988
G1 X109.497 Y100.409 E22.61966
G1 X109.347 Y100.48 E22.62794
G1 X109.169 Y100.528 E22.63714
G1 X108.964 Y100.545 E22.6474
G1 X83.026 Y100.545 E23.94145
G1 X82.847 Y100.531 E23.95041
G1 X82.693 Y100.494 E23.95831
G1 X82.54 Y100.431 E23.96657
G1 X82.407 Y100.35 E23.97434
G1 X82.289 Y100.246 E23.98218
G1 X82.184 Y100.126 E23.99014
G1 X82.107 Y99.999 E23.99755
G1 X82.044 Y99.849 E24.00567
G1 X82.004 Y99.681 E24.01428
G1 X81.99 Y99.516 E24.02254
G1 X81.99 Y93.558 E24.31979
G1 X82.007 Y93.36 E24.3297
G1 X82.052 Y93.196 E24.33819
G1 X82.126 Y93.04 E24.3468
G1 X82.237 Y92.881 E24.35648
G1 X82.352 Y92.766 E24.36459
G1 X82.502 Y92.661 E24.37372
G1 X82.656 Y92.589 E24.38221
G1 X82.827 Y92.543 E24.39104
G1 X83.03 Y92.525 E24.40121
G1 X108.97 Y92.525 E25.69536
G1 X109.173 Y92.543 E25.70553
G1 X109.344 Y92.589 E25.71436
G0 F3600 X109.123 Y92.718
G1 F1050 X109.817 Y93.413 E25.76336
G1 X109.887 Y93.483
G0 F3600 X109.829 Y93.99
G1 F1050 X108.544 Y92.705 E25.85403
G1 X108.474 Y92.635
G0 F3600 X107.978 Y92.705
G1 F1050 X109.829 Y94.555 E25.98459
G1 X109.899 Y94.625
G0 F3600 X109.829 Y95.121
G1 F1050 X107.413 Y92.705 E26.15505
G1 X107.343 Y92.635
G0 F3600 X106.847 Y92.705
G1 F1050 X109.829 Y95.687 E26.36545
G1 X109.899 Y95.757
G0 F3600 X109.829 Y96.252
G1 F1050 X106.281 Y92.705 E26.61574
G1 X106.211 Y92.635
G0 F3600 X105.715 Y92.705
G1 F1050 X109.829 Y96.818 E26.90597
G1 X109.899 Y96.888
G0 F3600 X109.829 Y97.384
G1 F1050 X105.15 Y92.705 E27.2361
G1 X105.08 Y92.635
G0 F3600 X104.584 Y92.705
G1 F1050 X109.829 Y97.949 E27.60613
G1 X109.899 Y98.019
G0 F3600 X109.829 Y98.515
G1 F1050 X104.018 Y92.705 E28.01609
G1 X103.948 Y92.635
G0 F3600 X103.453 Y92.705
G1 F1050 X109.829 Y99.081 E28.46595
G1 X109.899 Y99.151
G0 F3600 X109.818 Y99.636
G1 F1050 X102.887 Y92.705 E28.95497
G1 X102.817 Y92.635
G0 F3600 X102.321 Y92.705
G1 F1050 X109.652 Y100.035 E29.47218
G1 X109.722 Y100.105
G0 F3600 X109.335 Y100.284
G1 F1050 X101.756 Y92.705 E30.00692
G1 X101.686 Y92.635
G0 F3600 X101.19 Y92.705
G1 F1050 X108.849 Y100.364 E30.5473
G1 X108.919 Y100.434
G0 F3600 X108.284 Y100.364
G1 F1050 X100.624 Y92.705 E31.08772
G1 X100.554 Y92.635
G0 F3600 X100.059 Y92.705
G1 F1050 X107.718 Y100.364 E31.6281
G1 X107.788 Y100.434
G0 F3600 X107.152 Y100.364
G1 F1050 X99.493 Y92.705 E32.16849
G1 X99.423 Y92.635
G0 F3600 X98.927 Y92.705
G1 F1050 X106.587 Y100.364 E32.70891
G1 X106.657 Y100.434
G0 F3600 X106.021 Y100.364
G1 F1050 X98.362 Y92.705 E33.24929
G1 X98.292 Y92.635
G0 F3600 X97.796 Y92.705
G1 F1050 X105.455 Y100.364 E33.78967
G1 X105.525 Y100.434
G0 F3600 X104.89 Y100.364
G1 F1050 X97.23 Y92.705 E34.33009
G1 X97.16 Y92.635
G0 F3600 X96.665 Y92.705
G1 F1050 X104.324 Y100.364 E34.87048
G1 X104.394 Y100.434
G0 F3600 X103.758 Y100.364
G1 F1050 X96.099 Y92.705 E35.41086
G1 X96.029 Y92.635
G0 F3600 X95.533 Y92.705
G1 F1050 X103.193 Y100.364 E35.95128
G1 X103.263 Y100.434
G0 F3600 X102.627 Y100.364
G1 F1050 X94.967 Y92.705 E36.4917
G1 X94.897 Y92.635
G0 F3600 X94.402 Y92.705
G1 F1050 X102.061 Y100.364 E37.03208
G1 X102.131 Y100.434
G0 F3600 X101.495 Y100.364
G1 F1050 X93.836 Y92.705 E37.57247
G1 X93.766 Y92.635
G0 F3600 X93.27 Y92.705
G1 F1050 X100.93 Y100.364 E38.11289
G1 X101 Y100.434
G0 F3600 X100.364 Y100.364
G1 F1050 X92.705 Y92.705 E38.65327
G1 X92.635 Y92.635
G0 F3600 X92.139 Y92.705
G1 F1050 X99.798 Y100.364 E39.19365
G1 X99.868 Y100.434
G0 F3600 X99.233 Y100.364
G1 F1050 X91.573 Y92.705 E39.73407
G1 X91.503 Y92.635
G0 F3600 X91.008 Y92.705
G1 F1050 X98.667 Y100.364 E40.27446
G1 X98.737 Y100.434
G0 F3600 X98.101 Y100.364
G1 F1050 X90.442 Y92.705 E40.81484
G1 X90.372 Y92.635
G0 F3600 X89.876 Y92.705
G1 F1050 X97.536 Y100.364 E41.35526
G1 X97.606 Y100.434
G0 F3600 X96.97 Y100.364
G1 F1050 X89.311 Y92.705 E41.89564
G1 X89.241 Y92.635
G0 F3600 X88.745 Y92.705
G1 F1050 X96.404 Y100.364 E42.43603
G1 X96.474 Y100.434
G0 F3600 X95.839 Y100.364
G1 F1050 X88.179 Y92.705 E42.97645
G1 X88.109 Y92.635
G0 F3600 X87.614 Y92.705
G1 F1050 X95.273 Y100.364 E43.51683
G1 X95.343 Y100.434
G0 F3600 X94.707 Y100.364
G1 F1050 X87.048 Y92.705 E44.05721
G1 X86.978 Y92.635
G0 F3600 X86.482 Y92.705
G1 F1050 X94.142 Y100.364 E44.59763
G1 X94.212 Y100.434
G0 F3600 X93.576 Y100.364
G1 F1050 X85.917 Y92.705 E45.13802
G1 X85.847 Y92.635
G0 F3600 X85.351 Y92.705
G1 F1050 X93.01 Y100.364 E45.6784
G1 X93.08 Y100.434
G0 F3600 X92.445 Y100.364
G1 F1050 X84.785 Y92.705 E46.21882
G1 X84.715 Y92.635
G0 F3600 X84.219 Y92.705
G1 F1050 X91.879 Y100.364 E46.75924
G1 X91.949 Y100.434
G0 F3600 X91.313 Y100.364
G1 F1050 X83.654 Y92.705 E47.29962
G1 X83.584 Y92.635
G0 F3600 X83.088 Y92.705
G1 F1050 X90.747 Y100.364 E47.84001
G1 X90.817 Y100.434
G0 F3600 X90.182 Y100.364
G1 F1050 X82.621 Y92.803 E48.37348
G1 X82.551 Y92.733
G0 F3600 X82.322 Y93.07
G1 F1050 X89.616 Y100.364 E48.88811
G1 X89.686 Y100.434
G0 F3600 X89.05 Y100.364
G1 F1050 X82.175 Y93.489 E49.37317
G1 X82.105 Y93.419
G0 F3600 X82.17 Y94.049
G1 F1050 X88.485 Y100.364 E49.81873
G1 X88.555 Y100.434
G0 F3600 X87.919 Y100.364
G1 F1050 X82.17 Y94.615 E50.22436
G1 X82.1 Y94.545
G0 F3600 X82.17 Y95.18
G1 F1050 X87.353 Y100.364 E50.59008
G1 X87.423 Y100.434
G0 F3600 X86.788 Y100.364
G1 F1050 X82.17 Y95.746 E50.9159
G1 X82.1 Y95.676
G0 F3600 X82.17 Y96.312
G1 F1050 X86.222 Y100.364 E51.20179
G1 X86.292 Y100.434
G0 F3600 X85.656 Y100.364
M104 S195
G1 F1050 X82.17 Y96.877 E51.44779
G1 X82.1 Y96.807
G0 F3600 X82.17 Y97.443
G1 F1050 X85.091 Y100.364 E51.65388
G1 X85.161 Y100.434
G0 F3600 X84.525 Y100.364
G1 F1050 X82.17 Y98.009 E51.82004
G1 X82.1 Y97.939
G0 F3600 X82.17 Y98.574
G1 F1050 X83.959 Y100.364 E51.9463
G1 X84.029 Y100.434
G0 F3600 X83.394 Y100.364
G1 F1050 X82.17 Y99.14 E52.03266
G1 X82.1 Y99.07
G0 F3600 X82.202 Y99.738
G1 F1050 X82.796 Y100.332 E52.07456
G1 X82.866 Y100.402
G0 F3600 X109.224 Y92.256
G0 X109.241 Y92.158
;TIME_ELAPSED:76.652205
;LAYER:1
M140 S64
M106 S255
G0 F5400 X109.241 Y92.158 Z0.6
;TYPE:WALL-INNER
G1 F1575 X109.476 Y92.221 E52.0867
G1 X109.697 Y92.324 E52.09887
G1 X109.902 Y92.467 E52.11134
G1 X110.065 Y92.631 E52.12287
G1 X110.212 Y92.841 E52.13566
G1 X110.314 Y93.058 E52.14762
G1 X110.377 Y93.291 E52.15967
G1 X110.4 Y93.558 E52.17304
G1 X110.4 Y99.512 E52.47008
G1 X110.377 Y99.779 E52.48345
G1 X110.314 Y100.012 E52.49549
G1 X110.211 Y100.232 E52.50761
G1 X110.068 Y100.437 E52.52008
G1 X109.902 Y100.603 E52.5318
G1 X109.696 Y100.747 E52.54434
G1 X109.48 Y100.848 E52.55623
G1 X109.242 Y100.912 E52.56853
G1 X108.973 Y100.935 E52.582
G1 X83.02 Y100.935 E53.8768
G1 X82.782 Y100.916 E53.88871
G1 X82.57 Y100.865 E53.89959
G1 X82.365 Y100.781 E53.91064
G1 X82.177 Y100.666 E53.92163
G1 X82.012 Y100.523 E53.93253
G1 X81.869 Y100.358 E53.94342
G1 X81.755 Y100.171 E53.95435
G1 X81.671 Y99.969 E53.96526
G1 X81.619 Y99.75 E53.97649
G1 X81.6 Y99.516 E53.9882
G1 X81.6 Y93.558 E54.28545
G1 X81.623 Y93.291 E54.29882
G1 X81.686 Y93.058 E54.31086
G1 X81.788 Y92.841 E54.32282
G1 X81.935 Y92.631 E54.33561
