;FLAVOR:Marlin
;TIME:7034
;Filament used: 4.05603m
;Layer height: 0.2
;Generated with Cura_SteamEngine 3.4.1
M190 S65
M104 S210
M109 S210
M82 ;absolute extrusion mode
G21 ;metric values
G90 ;absolute positioning
M82 ;set extruder to absolute mode
M107 ;start with the fan off
G28 X0 Y0 ;move X/Y to min endstops
G28 Z0 ;move Z to min endstops
G1 Z15.0 F9000 ;move the platform down 15mm
G92 E0 ;zero the extruded length
G1 F200 E3 ;extrude 3mm of feed stock
G92 E0 ;zero the extruded length again
G1 F9000
;Put printing message on LCD screen
M117 Printing...
G92 E0
G1 F1500 E-5
;LAYER_COUNT:260
;LAYER:0
M107
G0 F3600 X75.215 Y64.658 Z0.3
;TYPE:SKIRT
G1 F1500 E0
G1 F1050 X75.744 Y64.155 E0.03642
G1 X80.447 Y60.51 E0.33327
G1 X84.575 Y56.919 E0.60624
G1 X88.471 Y53.123 E0.87762
G1 X92.156 Y49.102 E1.14973
G1 X95.233 Y45.366 E1.39119
G1 X95.604 Y44.979 E1.41794
G1 X96.028 Y44.651 E1.44469
G1 X96.497 Y44.389 E1.47149
G1 X96.999 Y44.201 E1.49823
G1 X97.523 Y44.088 E1.52497
G1 X98.012 Y44.055 E1.54943
G1 X113.998 Y44.055 E2.34697
G1 X114.533 Y44.095 E2.37374
G1 X115.056 Y44.214 E2.4005
G1 X115.555 Y44.409 E2.42722
G1 X116.02 Y44.677 E2.454
G1 X116.44 Y45.01 E2.48074
G1 X116.806 Y45.402 E2.5075
G1 X117.109 Y45.844 E2.53423
G1 X117.344 Y46.327 E2.56103
G1 X117.504 Y46.838 E2.58775
G1 X117.587 Y47.368 E2.61451
G1 X117.598 Y47.655 E2.62884
G1 X117.597 Y67.639 E3.62584
G1 X117.529 Y68.334 E3.66068
G1 X117.083 Y70.601 E3.77595
G1 X116.234 Y76.027 E4.04995
G1 X115.694 Y81.501 E4.32438
G1 X115.545 Y84.161 E4.45729
G1 X115.459 Y88.21 E4.65934
G1 X115.448 Y95.767 E5.03636
G1 X115.407 Y96.302 E5.06313
G1 X115.288 Y96.825 E5.08989
G1 X115.092 Y97.324 E5.11664
G1 X114.824 Y97.788 E5.14337
G1 X114.489 Y98.208 E5.17017
G1 X114.097 Y98.573 E5.1969
G1 X113.654 Y98.876 E5.22367
G1 X113.172 Y99.11 E5.2504
G1 X112.66 Y99.269 E5.27715
G1 X112.13 Y99.351 E5.30391
G1 X111.848 Y99.362 E5.31799
G1 X97.464 Y99.362 E6.03561
G1 X96.929 Y99.322 E6.06237
G1 X96.406 Y99.203 E6.08913
G1 X95.907 Y99.008 E6.11586
G1 X95.442 Y98.74 E6.14264
G1 X95.022 Y98.407 E6.16938
G1 X94.627 Y97.979 E6.19844
G1 X92.618 Y95.409 E6.36118
G1 X89.064 Y91.256 E6.63389
G1 X85.292 Y87.323 E6.90576
G1 X81.287 Y83.593 E7.17881
G1 X79.231 Y81.836 E7.31373
G1 X75.953 Y79.236 E7.52247
G1 X75.609 Y78.924 E7.54564
G1 X74.563 Y77.848 E7.62051
G1 X74.088 Y77.241 E7.65896
G1 X73.597 Y76.452 E7.70532
G1 X73.295 Y75.849 E7.73897
G1 X72.687 Y74.277 E7.82306
G1 X72.532 Y73.763 E7.84984
G1 X72.468 Y73.386 E7.86892
G1 X72.313 Y72.026 E7.93721
G1 X72.31 Y71.24 E7.97642
G1 X72.445 Y69.963 E8.04049
G1 X72.603 Y69.223 E8.07824
G1 X73.027 Y67.925 E8.14636
G1 X73.326 Y67.252 E8.1831
G1 X73.833 Y66.368 E8.23395
G1 X74.222 Y65.817 E8.2676
G1 X75.215 Y64.658 E8.34374
G0 F3600 X75.519 Y64.918
G1 F1050 X75.989 Y64.471 E8.3761
G1 X80.709 Y60.812 E8.67405
G1 X84.834 Y57.224 E8.94681
G1 X88.763 Y53.397 E9.22044
G1 X92.459 Y49.363 E9.4934
G1 X95.542 Y45.62 E9.73533
G1 X95.893 Y45.257 E9.76052
G1 X96.297 Y44.953 E9.78575
G1 X96.744 Y44.717 E9.81096
G1 X97.223 Y44.554 E9.83621
G1 X97.721 Y44.468 E9.86142
G1 X98.012 Y44.455 E9.87595
G1 X113.998 Y44.455 E10.6735
G1 X114.502 Y44.495 E10.69872
G1 X114.993 Y44.614 E10.72393
G1 X115.46 Y44.808 E10.74916
G1 X115.89 Y45.074 E10.77438
G1 X116.273 Y45.404 E10.7996
G1 X116.599 Y45.791 E10.82485
G1 X116.86 Y46.224 E10.85007
G1 X117.05 Y46.692 E10.87527
G1 X117.163 Y47.185 E10.90051
G1 X117.198 Y47.655 E10.92402
G1 X117.197 Y67.639 E11.92102
G1 X117.137 Y68.257 E11.952
G1 X116.688 Y70.54 E12.06808
G1 X115.835 Y75.995 E12.34354
G1 X115.297 Y81.44 E12.61652
G1 X115.145 Y84.16 E12.75243
G1 X115.059 Y88.21 E12.95453
G1 X115.048 Y95.767 E13.33155
G1 X115.007 Y96.271 E13.35678
G1 X114.888 Y96.762 E13.38198
G1 X114.692 Y97.228 E13.40721
G1 X114.426 Y97.658 E13.43243
G1 X114.095 Y98.04 E13.45765
G1 X113.708 Y98.366 E13.48289
G1 X113.275 Y98.626 E13.50809
G1 X112.806 Y98.815 E13.53332
G1 X112.313 Y98.928 E13.55855
G1 X111.848 Y98.962 E13.58181
G1 X97.464 Y98.962 E14.29943
G1 X96.96 Y98.922 E14.32466
G1 X96.469 Y98.803 E14.34986
G1 X96.002 Y98.609 E14.37509
G1 X95.572 Y98.343 E14.40032
G1 X95.189 Y98.013 E14.42554
G1 X94.943 Y97.732 E14.44417
G1 X92.944 Y95.173 E14.60618
G1 X89.357 Y90.983 E14.88135
G1 X85.58 Y87.045 E15.15358
G1 X81.549 Y83.29 E15.42843
G1 X79.471 Y81.514 E15.5648
G1 X76.202 Y78.922 E15.77294
G1 X75.895 Y78.646 E15.79354
G1 X74.849 Y77.57 E15.8684
G1 X74.427 Y77.03 E15.90259
G1 X73.936 Y76.241 E15.94896
G1 X73.668 Y75.704 E15.9789
G1 X73.06 Y74.132 E16.06299
G1 X72.916 Y73.648 E16.08818
G1 X72.866 Y73.34 E16.10375
G1 X72.711 Y71.98 E16.17204
G1 X72.708 Y71.282 E16.20686
G1 X72.843 Y70.005 E16.27093
G1 X72.983 Y69.347 E16.30449
G1 X73.407 Y68.049 E16.37261
G1 X73.673 Y67.451 E16.40527
G1 X74.18 Y66.567 E16.45611
G1 X74.526 Y66.077 E16.48604
G1 X75.519 Y64.918 E16.56218
G1 F1500 E11.56218
G1 F180 Z1.3
G0 F3600 X83.845 Y66.301 Z1.3
;TYPE:WALL-INNER
G1 F180 Z0.3
G1 F1500 E16.56218
G1 F1050 X84.776 Y66.714 E16.61299
G1 X84.923 Y66.792 E16.62129
G1 X85.845 Y67.466 E16.67827
G1 X86.583 Y68.286 E16.73331
G1 X86.657 Y68.4 E16.74009
G1 X87.172 Y69.288 E16.79131
G1 X87.235 Y69.457 E16.8003
G1 X87.552 Y70.43 E16.85136
G1 X87.566 Y70.517 E16.85576
G1 X87.677 Y71.591 E16.90962
G1 X87.574 Y72.647 E16.96256
G1 X87.551 Y72.787 E16.96964
G1 X87.238 Y73.754 E17.02034
G1 X87.169 Y73.937 E17.0301
G1 X86.666 Y74.807 E17.08024
G1 X86.58 Y74.937 E17.08801
G1 X85.836 Y75.762 E17.14344
G1 X84.926 Y76.426 E17.19964
G1 X84.766 Y76.51 E17.20866
G1 X83.842 Y76.923 E17.25915
G1 X83.669 Y76.965 E17.26803
G1 X82.66 Y77.178 E17.31948
G1 X81.535 Y77.18 E17.37561
G1 X80.311 Y76.919 E17.43804
G1 X79.38 Y76.506 E17.48886
G1 X79.228 Y76.425 E17.49745
G1 X78.336 Y75.776 E17.55248
G1 X77.577 Y74.937 E17.60893
G1 X77.491 Y74.807 E17.61671
G1 X76.985 Y73.933 E17.66709
G1 X76.919 Y73.756 E17.67651
G1 X76.605 Y72.792 E17.7271
G1 X76.587 Y72.685 E17.73251
G1 X76.481 Y71.675 E17.78317
G1 X76.481 Y71.55 E17.78941
G1 X76.59 Y70.517 E17.84123
G1 X76.605 Y70.435 E17.84539
G1 X76.922 Y69.457 E17.89668
G1 X76.986 Y69.289 E17.90565
G1 X77.499 Y68.4 E17.95686
G1 X77.575 Y68.285 E17.96374
G1 X78.326 Y67.454 E18.01962
G1 X79.23 Y66.794 E18.07546
G1 X79.391 Y66.709 E18.08454
G1 X80.314 Y66.297 E18.13497
G1 X80.494 Y66.253 E18.14422
G1 X81.496 Y66.042 E18.1953
G1 X82.622 Y66.04 E18.25148
G1 X83.845 Y66.301 E18.31387
G0 F3600 X83.815 Y66.396
G0 X83.614 Y69.384
G0 X83.558 Y69.466
G1 F1050 X83.002 Y69.175 E18.34518
G1 X82.392 Y69.025 E18.37652
G1 X81.764 Y69.025 E18.40785
G1 X81.155 Y69.175 E18.43914
G1 X80.599 Y69.466 E18.47045
G1 X80.128 Y69.883 E18.50183
G1 X79.772 Y70.4 E18.53315
G1 X79.549 Y70.988 E18.56452
G1 X79.474 Y71.61 E18.59578
G1 X79.549 Y72.233 E18.62709
G1 X79.772 Y72.821 E18.65846
G1 X80.129 Y73.337 E18.68976
G1 X80.599 Y73.754 E18.72111
G1 X81.154 Y74.045 E18.75237
G1 X81.764 Y74.196 E18.78373
G1 X82.392 Y74.196 E18.81506
G1 X83.003 Y74.045 E18.84646
G1 X83.558 Y73.754 E18.87772
G1 X84.028 Y73.337 E18.90907
G1 X84.384 Y72.821 E18.94034
G1 X84.607 Y72.233 E18.97172
G1 X84.682 Y71.61 E19.00302
G1 X84.607 Y70.988 E19.03428
G1 X84.384 Y70.4 E19.06566
G1 X84.028 Y69.883 E19.09697
G1 X83.558 Y69.466 E19.12832
G0 F3600 X83.614 Y69.384
G0 X83.016 Y69.138
G0 X82.396 Y68.986
G0 X81.76 Y68.986
G0 X81.141 Y69.138
G0 X80.577 Y69.434
G0 X80.099 Y69.857
G0 X79.737 Y70.382
G0 X79.511 Y70.979
G0 X79.468 Y71.336
G0 X79.473 Y72.312
G0 X79.94 Y72.137
;TYPE:WALL-OUTER
G1 F1050 X80.129 Y72.634 E19.15485
G1 X80.43 Y73.07 E19.18128
G1 X80.828 Y73.422 E19.20779
G1 X81.297 Y73.668 E19.23421
G1 X81.813 Y73.796 E19.26073
G1 X82.343 Y73.796 E19.28717
G1 X82.86 Y73.668 E19.31375
G1 X83.329 Y73.422 E19.34017
G1 X83.726 Y73.07 E19.36664
G1 X84.027 Y72.634 E19.39307
G1 X84.216 Y72.137 E19.4196
G1 X84.279 Y71.61 E19.44608
G1 X84.216 Y71.084 E19.47251
G1 X84.027 Y70.587 E19.49904
G1 X83.726 Y70.15 E19.52551
G1 X83.329 Y69.798 E19.55198
G1 X82.859 Y69.552 E19.57845
G1 X82.343 Y69.425 E19.60496
G1 X81.813 Y69.425 E19.6314
G1 X81.298 Y69.552 E19.65786
G1 X80.828 Y69.798 E19.68433
G1 X80.43 Y70.15 E19.71084
G1 X80.129 Y70.587 E19.73731
G1 X79.94 Y71.084 E19.76384
G1 X79.877 Y71.61 E19.79027
G1 X79.94 Y72.137 E19.81675
G0 F3600 X80.011 Y72.324
G0 X79.544 Y72.501
G0 X81.545 Y77.081
G0 X81.493 Y77.58
G1 F1050 X80.455 Y77.364 E19.86964
G1 X80.18 Y77.299 E19.88374
G1 X79.209 Y76.868 E19.93674
G1 X79.019 Y76.767 E19.94748
G1 X78.079 Y76.083 E20.00548
G1 X78.022 Y76.029 E20.00939
G1 X77.255 Y75.176 E20.06662
G1 X77.157 Y75.028 E20.07548
G1 X76.622 Y74.105 E20.1287
G1 X76.544 Y73.895 E20.13988
G1 X76.214 Y72.883 E20.19299
G1 X76.192 Y72.751 E20.19966
G1 X76.081 Y71.698 E20.25249
G1 X76.081 Y71.527 E20.26102
G1 X76.193 Y70.465 E20.3143
G1 X76.216 Y70.337 E20.32078
G1 X76.543 Y69.328 E20.3737
G1 X76.624 Y69.116 E20.38502
G1 X77.152 Y68.2 E20.43777
G1 X77.258 Y68.039 E20.44739
G1 X78.026 Y67.186 E20.50465
G1 X78.073 Y67.143 E20.50783
G1 X79.019 Y66.453 E20.56625
G1 X79.208 Y66.353 E20.57691
G1 X80.183 Y65.918 E20.63018
G1 X80.398 Y65.865 E20.64123
G1 X81.456 Y65.642 E20.69517
G1 X82.664 Y65.64 E20.75544
G1 X83.702 Y65.856 E20.80833
G1 X83.976 Y65.921 E20.82238
G1 X84.947 Y66.352 E20.87538
G1 X85.137 Y66.453 E20.88612
G1 X86.078 Y67.136 E20.94413
G1 X86.131 Y67.187 E20.9478
G1 X86.9 Y68.042 E21.00517
G1 X87.003 Y68.199 E21.01454
G1 X87.535 Y69.116 E21.06743
G1 X87.61 Y69.318 E21.07818
G1 X87.942 Y70.338 E21.13169
G1 X87.964 Y70.475 E21.13862
G1 X88.076 Y71.527 E21.1914
G1 X88.078 Y71.603 E21.19519
G1 X87.97 Y72.702 E21.25028
G1 X87.941 Y72.882 E21.25938
G1 X87.614 Y73.893 E21.31239
G1 X87.533 Y74.105 E21.32371
G1 X87.004 Y75.021 E21.37649
G1 X86.898 Y75.181 E21.38606
G1 X86.132 Y76.033 E21.44322
G1 X86.086 Y76.075 E21.44633
G1 X85.137 Y76.767 E21.50493
G1 X84.95 Y76.866 E21.51548
G1 X83.973 Y77.302 E21.56886
G1 X83.758 Y77.355 E21.57991
G1 X82.701 Y77.578 E21.6338
G1 X81.493 Y77.58 E21.69407
G0 F3600 X81.298 Y77.54
G0 X81.403 Y77.051
G0 X81.579 Y76.79
;TYPE:SKIN
G1 F1050 X80.431 Y76.545 E21.75263
G1 X79.551 Y76.155 E21.80065
G1 X79.438 Y76.095 E21.80704
G1 X78.593 Y75.48 E21.85918
G1 X77.887 Y74.699 E21.9117
G1 X77.816 Y74.592 E21.91811
G1 X77.339 Y73.767 E21.96565
G1 X77.287 Y73.627 E21.9731
G1 X76.983 Y72.693 E22.02211
G1 X76.871 Y71.654 E22.07424
G1 X76.871 Y71.572 E22.07833
G1 X76.984 Y70.53 E22.13062
G1 X77.29 Y69.587 E22.18009
G1 X77.338 Y69.46 E22.18686
G1 X77.831 Y68.605 E22.2361
G1 X77.885 Y68.523 E22.241
G1 X78.586 Y67.747 E22.29317
G1 X79.437 Y67.126 E22.34573
G1 X79.562 Y67.06 E22.35278
G1 X80.443 Y66.667 E22.40091
G1 X81.538 Y66.432 E22.45678
G1 X82.578 Y66.43 E22.50867
G1 X83.725 Y66.675 E22.56718
G1 X84.608 Y67.066 E22.61536
G1 X84.72 Y67.126 E22.6217
G1 X85.579 Y67.754 E22.67479
G1 X86.272 Y68.524 E22.72647
G1 X86.33 Y68.613 E22.73177
G1 X86.818 Y69.454 E22.78028
G1 X86.864 Y69.578 E22.78688
G1 X87.172 Y70.524 E22.83651
G1 X87.285 Y71.591 E22.89004
G1 X87.187 Y72.596 E22.94042
G1 X87.171 Y72.693 E22.94533
G1 X86.873 Y73.616 E22.99371
G1 X86.815 Y73.769 E23.00188
G1 X86.34 Y74.592 E23.04929
G1 X86.271 Y74.697 E23.05555
G1 X85.574 Y75.47 E23.10748
G1 X84.717 Y76.096 E23.16043
G1 X84.606 Y76.154 E23.16668
G1 X83.713 Y76.553 E23.21547
G1 X83.597 Y76.582 E23.22144
G1 X82.618 Y76.788 E23.27135
G1 X81.579 Y76.79 E23.32319
G0 F3600 X81.717 Y74.586
G1 F1050 X82.439 Y74.586 E23.35921
G1 X83.142 Y74.412 E23.39534
G1 X83.781 Y74.078 E23.43131
G1 X84.322 Y73.598 E23.46739
G1 X84.731 Y73.004 E23.50337
G1 X84.989 Y72.327 E23.53952
G1 X85.074 Y71.61 E23.57554
G1 X84.989 Y70.894 E23.61151
G1 X84.731 Y70.217 E23.64766
G1 X84.322 Y69.623 E23.68364
G1 X83.781 Y69.142 E23.71976
G1 X83.141 Y68.808 E23.75577
G1 X82.439 Y68.635 E23.79184
G1 X81.717 Y68.635 E23.82786
G1 X81.016 Y68.808 E23.86389
G1 X80.377 Y69.142 E23.89986
G1 X79.834 Y69.622 E23.93602
G1 X79.425 Y70.217 E23.97204
G1 X79.167 Y70.894 E24.00818
G1 X79.082 Y71.61 E24.04415
G1 X79.167 Y72.327 E24.08018
G1 X79.425 Y73.004 E24.11632
G1 X79.835 Y73.598 E24.15233
G1 X80.376 Y74.078 E24.18841
G1 X81.015 Y74.412 E24.22438
G1 X81.717 Y74.586 E24.26047
G0 F3600 X78.805 Y75.411
G1 F1050 X78.466 Y75.072 E24.28439
G0 F3600 X77.42 Y73.46
G1 F1050 X80.209 Y76.249 E24.48116
G1 X80.279 Y76.319
G0 F3600 X81.008 Y76.483
G1 F1050 X77.156 Y72.631 E24.75294
G1 X77.086 Y72.561
G0 F3600 X77.088 Y71.996
G1 F1050 X81.7 Y76.609 E25.07838
G1 X81.77 Y76.679
G0 F3600 X82.264 Y76.607
G1 F1050 X77.068 Y71.411 E25.44499
G1 X76.998 Y71.341
G0 F3600 X77.123 Y70.9
G1 F1050 X79.236 Y73.013 E25.59407
G1 X79.306 Y73.083
G0 F3600 X78.967 Y72.179
G1 F1050 X77.207 Y70.419 E25.71825
G1 X77.137 Y70.349
G0 F3600 X77.346 Y69.992
G1 F1050 X78.907 Y71.553 E25.82838
G1 X78.977 Y71.623
G0 F3600 X78.966 Y71.047
G1 F1050 X77.489 Y69.569 E25.93263
G1 X77.419 Y69.499
G0 F3600 X77.691 Y69.205
G1 F1050 X79.086 Y70.601 E26.03109
G1 X79.156 Y70.671
G0 F3600 X79.241 Y70.19
G1 F1050 X77.897 Y68.846 E26.12592
G1 X77.827 Y68.776
G0 F3600 X78.132 Y68.515
G1 F1050 X79.461 Y69.844 E26.21969
G1 X79.531 Y69.914
G0 F3600 X79.691 Y69.509
G1 F1050 X78.401 Y68.218 E26.31074
G1 X78.331 Y68.148
G0 F3600 X78.669 Y67.921
G1 F1050 X79.99 Y69.242 E26.40394
G1 X80.06 Y69.312
G0 F3600 X80.294 Y68.981
G1 F1050 X78.99 Y67.676 E26.49598
G1 X78.92 Y67.606
G0 F3600 X79.316 Y67.437
G1 F1050 X80.666 Y68.787 E26.59123
G1 X80.736 Y68.857
G0 F3600 X81.057 Y68.611
G1 F1050 X79.659 Y67.214 E26.68983
G1 X79.589 Y67.144
G0 F3600 X80.05 Y67.039
G1 F1050 X81.51 Y68.499 E26.79284
G1 X81.58 Y68.569
G0 F3600 X82.031 Y68.455
G1 F1050 X80.441 Y66.865 E26.90502
G1 X80.371 Y66.795
G0 F3600 X80.896 Y66.754
G1 F1050 X82.64 Y68.498 E27.02807
G1 X82.71 Y68.568
G0 F3600 X83.5 Y68.793
G1 F1050 X81.362 Y66.654 E27.17896
G1 X81.292 Y66.584
G0 F3600 X81.885 Y66.611
G1 F1050 X87.082 Y71.808 E27.54563
G1 X87.152 Y71.878
G0 F3600 X87.032 Y72.324
G1 F1050 X84.919 Y70.212 E27.69468
G1 X84.849 Y70.142
G0 F3600 X85.187 Y71.045
G1 F1050 X86.946 Y72.804 E27.81879
G1 X87.016 Y72.874
G0 F3600 X86.807 Y73.231
G1 F1050 X85.245 Y71.669 E27.929
G1 X85.175 Y71.599
G0 F3600 X85.187 Y72.176
G1 F1050 X86.665 Y73.654 E28.03328
G1 X86.735 Y73.724
G0 F3600 X86.463 Y74.018
G1 F1050 X85.067 Y72.622 E28.13177
G1 X84.997 Y72.552
G0 F3600 X84.911 Y73.032
G1 F1050 X86.256 Y74.377 E28.22667
G1 X86.326 Y74.447
G0 F3600 X86.019 Y74.705
G1 F1050 X84.691 Y73.377 E28.32037
G1 X84.621 Y73.307
G0 F3600 X84.461 Y73.713
G1 F1050 X85.751 Y75.003 E28.41138
G1 X85.821 Y75.073
G0 F3600 X85.482 Y75.3
G1 F1050 X84.162 Y73.98 E28.50452
G1 X84.092 Y73.91
G0 F3600 X83.857 Y74.241
G1 F1050 X85.162 Y75.545 E28.59656
G1 X85.232 Y75.615
G0 F3600 X84.835 Y75.784
G1 F1050 X83.485 Y74.435 E28.69177
G1 X83.415 Y74.365
G0 F3600 X83.094 Y74.609
G1 F1050 X84.492 Y76.006 E28.79037
G1 X84.562 Y76.076
G0 F3600 X84.101 Y76.181
G1 F1050 X82.64 Y74.721 E28.89342
G1 X82.57 Y74.651
G0 F3600 X82.119 Y74.765
G1 F1050 X83.71 Y76.356 E29.00567
G1 X83.78 Y76.426
G0 F3600 X83.256 Y76.468
G1 F1050 X81.508 Y74.72 E29.129
G1 X81.438 Y74.65
G0 F3600 X80.644 Y74.422
G1 F1050 X82.789 Y76.566 E29.28031
G1 X82.859 Y76.636
G0 F3600 X87.064 Y71.225
G1 F1050 X82.449 Y66.61 E29.60592
G1 X82.379 Y66.54
G0 F3600 X83.14 Y66.735
G1 F1050 X86.997 Y70.592 E29.87805
G1 X87.067 Y70.662
G0 F3600 X86.736 Y69.765
G1 F1050 X83.937 Y66.967 E30.0755
G1 X83.867 Y66.897
G0 F3600 X85.337 Y67.8
G1 F1050 X85.739 Y68.203 E30.1039
G1 F1500 E25.1039
G1 F180 Z1.3
G0 F3600 X85.739 Y68.203 Z1.3
G0 X101.558 Y85.327
;TYPE:WALL-INNER
G1 F180 Z0.3
G1 F1500 E30.1039
G1 F1050 X101.558 Y85.527 E30.11388
G1 X101.558 Y88.484 E30.2614
G1 X101.644 Y89.19 E30.29689
G1 X101.909 Y89.891 E30.33428
G1 X102.335 Y90.507 E30.37164
G1 X102.895 Y91.003 E30.40896
G1 X103.557 Y91.351 E30.44628
G1 X104.284 Y91.53 E30.48363
G1 X105.031 Y91.53 E30.5209
G1 X105.76 Y91.351 E30.55835
G1 X106.422 Y91.003 E30.59566
G1 X106.982 Y90.507 E30.63298
G1 X107.407 Y89.891 E30.67032
G1 X107.672 Y89.19 E30.70771
G1 X107.758 Y88.484 E30.74319
G1 X107.758 Y85.328 E30.90064
G1 X101.758 Y85.327 E31.19998
G1 X101.558 Y85.327 E31.20645
G0 F3600 X101.488 Y85.257
G0 X111.159 Y84.047
G0 X111.259 Y84.047
G1 F1050 X111.258 Y95.172 E31.76147
